/* XPM */
static const char *number_4[] = {
/* columns rows colors chars-per-pixel */
"60 80 2 1 ",
"  c #000000",
". c #FFFFFF",
/* pixels */
"............................................................",
"............................................................",
"............................................................",
"............................................................",
"............................................................",
"............................................................",
"............................................................",
"............................................................",
"............................................................",
".........           .........           ....................",
".........           .........           ....................",
".........           .........           ....................",
".........           .........           ....................",
".........           .........           ....................",
".........           .........           ....................",
".........           .........           ....................",
".........           .........           ....................",
".........           .........           ....................",
".........           .........           ....................",
".........           .........           ....................",
".........           .........           ....................",
".........           .........           ....................",
".........           .........           ....................",
".........           .........           ....................",
".........           .........           ....................",
".........           .........           ....................",
".........           .........           ....................",
".........           .........           ....................",
".........           .........           ....................",
".........                                         ..........",
".........                                         ..........",
".........                                         ..........",
".........                                         ..........",
".........                                         ..........",
".........                                         ..........",
".........                                         ..........",
".........                                         ..........",
".........                                         ..........",
".........                                         ..........",
".........                                         ..........",
".............................           ....................",
".............................           ....................",
".............................           ....................",
".............................           ....................",
".............................           ....................",
".............................           ....................",
".............................           ....................",
".............................           ....................",
".............................           ....................",
".............................           ....................",
".............................           ....................",
".............................           ....................",
".............................           ....................",
".............................           ....................",
".............................           ....................",
".............................           ....................",
".............................           ....................",
".............................           ....................",
".............................           ....................",
".............................           ....................",
".............................           ....................",
".............................           ....................",
".............................           ....................",
".............................           ....................",
".............................           ....................",
".............................           ....................",
".............................           ....................",
".............................           ....................",
".............................           ....................",
".............................           ....................",
"............................................................",
"............................................................",
"............................................................",
"............................................................",
"............................................................",
"............................................................",
"............................................................",
"............................................................",
"............................................................",
"............................................................"
};
