/* XPM */
static const char *result[] = {
/* columns rows colors chars-per-pixel */
"160 160 169 2 ",
"   c #000000",
".  c #151515",
"X  c #3F0000",
"o  c #003F00",
"O  c #00003D",
"+  c #2A2A2A",
"@  c #7F0000",
"#  c #007F00",
"$  c #234923",
"%  c #00007D",
"&  c #121241",
"*  c #5A5A5A",
"=  c #7E7E7E",
"-  c #676A6A",
";  c #5B6363",
":  c #C50000",
">  c #C61C1C",
",  c #FF0000",
"<  c #FF1C1C",
"1  c #E32A2A",
"2  c #FF7F00",
"3  c #976363",
"4  c #FF5B5B",
"5  c #FF7C7C",
"6  c #FF6262",
"7  c #CD6060",
"8  c #128012",
"9  c #00C200",
"0  c #00FF00",
"q  c #12FF12",
"w  c #7EA57E",
"e  c #629762",
"r  c #00FF7F",
"t  c #7CD07C",
"y  c #75FF75",
"u  c #58E458",
"i  c #FF8012",
"p  c #FFFF00",
"a  c #FFA57E",
"s  c #FF9762",
"d  c #FFFF58",
"f  c #FFFF7C",
"g  c #636396",
"h  c #7E7E88",
"j  c #0000C4",
"k  c #0000FF",
"l  c #1717FF",
"z  c #2A2AFF",
"x  c #7F00FF",
"c  c #6363CD",
"v  c #5B5BFF",
"b  c #6E6EFF",
"n  c #8012FF",
"m  c #FF00FF",
"M  c #A57EFF",
"N  c #9762FF",
"B  c #FF54FF",
"V  c #FF79FF",
"C  c #63FF97",
"Z  c #00FFFF",
"A  c #58FFFF",
"S  c #7CFFFF",
"D  c #898989",
"F  c #928989",
"G  c #959796",
"H  c #898992",
"J  c #AB8989",
"K  c #93A993",
"L  c #8989AA",
"P  c #AAAAAB",
"I  c #A2A3A3",
"U  c #BDA5A5",
"Y  c #A6A6BB",
"T  c #BCBCBC",
"R  c #B2B3B3",
"E  c #A0BAA0",
"W  c #D99797",
"Q  c #FF9797",
"!  c #FFAD8D",
"~  c #C0BCBC",
"^  c #DDA3A3",
"/  c #FFA6A6",
"(  c #E4BABA",
")  c #FFBABA",
"_  c #FFBAA0",
"`  c #89FF89",
"'  c #95FF95",
"]  c #AAC0AA",
"[  c #BBC6BB",
"{  c #AADDAA",
"}  c #89FFAB",
"|  c #A8FFA8",
" . c #A5FFBD",
".. c #BCFFBC",
"X. c #B3FFB3",
"o. c #FFC0AA",
"O. c #FFCAB8",
"+. c #FFFFAA",
"@. c #8989D5",
"#. c #A5A5DD",
"$. c #BCBCC0",
"%. c #9696FF",
"&. c #8989FF",
"*. c #AD8DFF",
"=. c #A6A6FF",
"-. c #B9B9FF",
";. c #BAA0FF",
":. c #C0AAFF",
">. c #CAB8FF",
",. c #FFA9FF",
"<. c #AAFFFF",
"1. c #CACACB",
"2. c #DACFCF",
"3. c #CAD6CA",
"4. c #CFCFDA",
"5. c #DADBDA",
"6. c #D1D3D1",
"7. c #FFCCCC",
"8. c #FFD6CA",
"9. c #EED5D5",
"0. c #FFDADA",
"q. c #F6D7D7",
"w. c #CCE9CC",
"e. c #CAFFCA",
"r. c #DBE7DB",
"t. c #CFFFDA",
"y. c #DBFFDB",
"u. c #FFFFCC",
"i. c #FFE3DB",
"p. c #FFFFDB",
"a. c #CFCFEB",
"s. c #CACAFF",
"d. c #D6CAFF",
"f. c #DADAFF",
"g. c #D1D1FF",
"h. c #FFCBFF",
"j. c #E3DBFF",
"k. c #FFDAFF",
"l. c #CCFFFF",
"z. c #DBFFFF",
"x. c #E3E3E4",
"c. c #E8E1E1",
"v. c #E5EAE5",
"b. c #E7E7E8",
"n. c #ECECEC",
"m. c #FFEBE5",
"M. c #FEEAEA",
"N. c #F8E8E8",
"B. c #E3FFE3",
"V. c #EAF4EA",
"C. c #E1FFE8",
"Z. c #EEFFEE",
"A. c #FFFFE8",
"S. c #FFF2EE",
"D. c #E5E5FF",
"F. c #EBE5FF",
"G. c #ECECFF",
"H. c #E1E1F2",
"J. c #FFE7FF",
"K. c #F2EEFF",
"L. c #E8FFFF",
"P. c #F3F3F3",
"I. c #FEF5F4",
"U. c #F2FEF4",
"Y. c #FFFFF4",
"T. c #F3F2FC",
"R. c #FFF4FF",
"E. c #F4FFFF",
"W. c #FFFFFF",
/* pixels */
"W.W.W.W.W.W.W.W.W.W.W.W.W.W.W.W.W.W.W.W.W.W.W.W.W.W.W.W.W.W.W.W.W.W.W.W.W.W.W.W.W.W.W.W.W.W.W.W.W.W.W.W.W.W.W.W.W.W.W.W.W.W.W.W.W.W.W.W.W.W.W.W.W.W.W.W.W.W.W.W.W.W.W.W.W.W.W.W.W.W.W.W.W.W.W.W.W.W.W.W.W.W.W.W.W.W.W.W.W.W.W.W.W.W.W.W.W.W.W.W.W.W.W.W.W.W.W.W.W.W.W.W.W.W.W.W.W.W.W.W.W.W.W.W.W.W.W.W.W.W.W.W.W.W.W.W.W.W.W.W.",
"W.W.W.W.W.W.W.W.W.W.W.W.W.W.W.W.W.W.W.W.W.W.W.W.W.W.W.W.W.W.W.W.W.W.W.W.W.W.W.W.W.W.W.W.W.W.W.W.W.W.W.W.W.W.W.W.W.W.W.W.W.W.W.W.W.W.W.W.W.W.W.W.W.W.W.W.W.W.W.W.W.W.W.W.W.W.W.W.W.W.W.W.W.W.W.W.W.W.W.W.W.W.W.W.W.W.W.W.W.W.W.W.W.W.W.W.W.W.W.W.W.W.W.W.W.W.W.W.W.W.W.W.W.W.W.W.W.W.W.W.W.W.W.W.W.W.W.W.W.W.W.W.W.W.W.W.W.W.W.W.",
"W.W.W.W.W.W.W.W.W.W.W.W.W.W.W.W.W.W.W.W.W.W.W.W.W.W.W.W.W.W.W.W.W.W.W.W.W.W.W.W.W.W.W.W.W.W.W.W.W.W.W.W.W.W.W.W.W.W.W.W.W.W.W.W.W.W.W.W.W.W.W.W.W.W.W.W.W.W.W.W.W.W.W.W.W.W.W.W.W.W.W.W.W.W.W.W.W.W.W.W.W.W.W.W.W.W.W.W.W.W.W.W.W.W.W.W.W.W.W.W.W.W.W.W.W.W.W.W.W.W.W.W.W.W.W.W.W.W.W.W.W.W.W.W.W.W.W.W.W.W.W.W.W.W.W.W.W.W.W.W.",
"W.W.W.W.W.W.W.W.W.W.W.W.W.W.W.W.W.W.W.W.W.W.W.W.W.W.W.W.W.W.W.W.W.W.W.W.W.W.W.W.W.W.W.W.W.W.W.W.W.W.W.W.W.W.W.W.W.W.W.W.W.W.W.W.W.W.W.W.W.W.W.W.W.W.W.W.W.W.W.W.W.W.W.W.W.W.W.W.W.W.W.W.W.W.W.W.W.W.W.W.W.W.W.W.W.W.W.W.W.W.W.W.W.W.W.W.W.W.W.W.W.W.W.W.W.W.W.W.W.W.W.W.W.W.W.W.W.W.W.W.W.W.W.W.W.W.W.W.W.W.W.W.W.W.W.W.W.W.W.W.",
"W.W.W.W.W.W.W.W.W.W.W.W.W.W.W.W.W.W.W.W.W.W.W.W.W.W.W.W.W.W.W.W.W.W.W.W.W.W.W.W.W.W.W.W.W.W.W.W.W.W.W.W.W.W.W.W.W.W.W.W.W.W.W.W.W.W.W.W.W.W.W.W.W.W.W.W.W.W.W.W.W.W.W.W.W.W.W.W.W.W.W.W.W.W.W.W.W.W.W.W.W.W.W.W.W.W.W.W.W.W.W.W.W.W.W.W.W.W.W.W.W.W.W.W.W.W.W.W.W.W.W.W.W.W.W.W.W.W.W.W.W.W.W.W.W.W.W.W.W.W.W.W.W.W.W.W.W.W.W.W.",
"W.W.W.W.W.W.W.W.W.W.W.W.W.W.W.W.W.W.W.W.W.W.W.W.W.W.W.W.W.W.W.W.W.W.W.W.W.W.W.W.W.W.W.W.W.W.W.W.W.W.W.W.W.W.W.W.W.W.W.W.W.W.W.W.W.W.W.W.W.W.W.W.W.W.W.W.W.W.W.W.W.W.W.W.W.W.W.W.W.W.W.W.W.W.W.W.W.W.W.W.W.W.W.W.W.W.W.W.W.W.W.W.W.W.W.W.W.W.W.W.W.W.W.W.W.W.W.W.W.W.W.W.W.W.W.W.W.W.W.W.W.W.W.W.W.W.W.W.W.W.W.W.W.W.W.W.W.W.W.W.",
"W.W.W.W.W.W.W.W.W.W.W.W.W.W.W.W.W.W.W.W.W.W.W.W.W.W.W.W.W.W.W.W.W.W.W.W.W.W.W.W.W.W.W.W.W.W.W.W.W.W.W.W.W.W.W.W.W.W.W.W.W.W.W.W.W.W.W.W.W.W.W.W.W.W.W.W.W.W.W.W.W.W.W.W.W.W.W.W.W.W.W.W.W.W.W.W.W.W.W.W.W.W.W.W.W.W.W.W.W.W.W.W.W.W.W.W.W.W.W.W.W.W.W.W.W.W.W.W.W.W.W.W.W.W.W.W.W.W.W.W.W.W.W.W.W.W.W.W.W.W.W.W.W.W.W.W.W.W.W.W.",
"W.W.W.W.W.W.W.W.W.W.W.W.W.W.W.W.W.W.W.W.W.W.W.W.W.W.W.W.W.W.W.W.W.W.W.W.W.W.W.W.W.W.W.W.W.W.W.W.W.W.W.W.W.W.W.W.W.W.W.W.W.W.W.W.W.W.W.W.W.W.W.W.W.W.W.W.W.W.W.W.W.W.W.W.W.W.W.W.W.W.W.W.W.W.W.W.W.W.W.W.W.W.W.W.W.W.W.W.W.W.W.W.W.W.W.W.W.W.W.W.W.W.W.W.W.W.W.W.W.W.W.W.W.W.W.W.W.W.W.W.W.W.W.W.W.W.W.W.W.W.W.W.W.W.W.W.W.W.W.W.",
"W.W.W.W.W.W.W.W.W.W.W.W.W.W.W.W.W.W.W.W.W.W.W.W.W.W.W.W.W.W.W.W.W.W.W.W.W.W.W.W.W.W.W.W.W.W.W.W.W.W.W.W.W.W.W.W.W.W.W.W.W.W.W.W.W.W.W.W.W.W.W.W.W.W.W.W.W.W.W.W.W.W.W.W.W.W.W.W.W.W.W.W.W.W.W.W.W.W.W.W.W.W.W.W.W.W.W.W.W.W.W.W.W.W.W.W.W.W.W.W.W.W.W.W.W.W.W.W.W.W.W.W.W.W.W.W.W.W.W.W.W.W.W.W.W.W.W.W.W.W.W.W.W.W.W.W.W.W.W.W.",
"W.W.W.W.W.W.W.W.W.W.W.W.W.W.W.W.W.W.W.W.W.W.W.W.W.W.W.W.W.W.W.W.W.W.W.W.W.W.W.W.W.W.W.W.W.W.W.W.W.W.W.W.W.W.W.W.W.W.W.W.W.W.W.W.W.W.W.W.W.W.W.W.W.W.W.W.W.W.W.W.W.W.W.W.W.W.W.W.W.W.W.W.W.W.W.W.W.W.W.W.W.W.W.W.W.W.W.W.W.W.W.W.W.W.W.W.W.W.W.W.W.W.W.W.W.W.W.W.W.W.W.W.W.W.W.W.W.W.W.W.W.W.W.W.W.W.W.W.W.W.W.W.W.W.W.W.W.W.W.W.",
"W.W.W.W.W.W.W.W.W.W.W.W.W.W.W.W.W.W.I.5.R D D G 1.b.W.W.W.W.W.W.W.W.W.W.W.W.W.W.W.W.W.W.W.W.W.W.W.W.W.W.x.T F F F ~ x.W.W.W.W.W.W.W.W.W.W.W.W.W.W.W.W.W.W.W.W.W.W.W.W.W.W.W.W.W.W.W.W.W.W.W.W.W.W.W.W.W.W.W.W.W.W.W.W.W.W.W.W.W.W.W.W.W.W.W.W.W.W.W.W.W.W.W.W.W.W.W.W.W.W.W.W.W.W.W.W.W.W.W.W.W.W.W.W.W.W.W.W.W.W.W.W.W.W.W.W.W.",
"W.W.W.W.W.W.W.W.W.W.W.W.W.W.W.W.P.P                 * 1.W.W.W.W.W.W.W.W.W.W.W.W.W.W.W.W.W.W.W.W.W.W.~ X X X X X X X X X T W.W.W.W.W.W.W.W.W.W.W.W.W.W.W.W.W.W.W.W.W.P.2.U J J U 2.P.W.W.W.W.W.W.W.W.W.W.W.W.W.W.W.W.W.W.W.W.W.W.I.( 7 : : : W 9.W.W.W.W.W.W.W.W.W.W.W.W.W.W.W.W.W.W.W.W.W.W.0.Q , , , 4 ) I.W.W.W.W.W.W.W.W.W.W.",
"W.W.W.W.W.W.W.W.W.W.W.W.W.W.I.1.                        - b.W.W.W.W.W.W.W.W.W.W.W.W.W.W.W.W.W.W.x.X X X X X X X X X X X X X x.W.W.W.W.W.W.W.W.W.W.W.W.W.W.W.W.W.c.J @ @ @ @ @ @ @ @ J c.W.W.W.W.W.W.W.W.W.W.W.W.W.W.W.W.W.W.P.> : : : : : : : : : ^ W.W.W.W.W.W.W.W.W.W.W.W.W.W.W.W.W.W./ , , , , , , , , , < I.W.W.W.W.W.W.W.W.",
"W.W.W.W.W.W.W.W.W.W.W.W.W.P.I                               1.W.W.W.W.W.W.W.W.W.W.W.W.W.W.W.W.T X X X X X X X X X X X X X X X ~ W.W.W.W.W.W.W.W.W.W.W.W.W.W.P.U @ @ @ @ @ @ @ @ @ @ @ @ U P.W.W.W.W.W.W.W.W.W.W.W.W.W.W.I.W : : : : : : : : : : : : : 9.W.W.W.W.W.W.W.W.W.W.W.W.W.W.0., , , , , , , , , , , , , Q I.W.W.W.W.W.W.",
"W.W.W.W.W.W.W.W.W.W.W.W.I.T                                   b.W.W.W.W.W.W.W.W.W.W.W.W.W.W.x.X X X X X X X X X X X X X X X X X x.W.W.W.W.W.W.W.W.W.W.W.W.c.3 @ @ @ @ @ @ @ @ @ @ @ @ @ @ 3 c.W.W.W.W.W.W.W.W.W.W.W.W.P.> : : : : : : : : : : : : : : : ^ W.W.W.W.W.W.W.W.W.W.W.W./ , , , , , , , , , , , , , , , < M.W.W.W.W.W.",
"W.W.W.W.W.W.W.W.W.W.W.W.x.                                      W.W.W.W.W.W.W.W.W.W.W.W.W.W.X X X X X X X X X X X X X X X X X X X W.W.W.W.W.W.W.W.W.W.W.P.3 @ @ @ @ @ @ @ @ @ @ @ @ @ @ @ @ 3 P.W.W.W.W.W.W.W.W.W.W.I.W : : : : : : : : : : : : : : : : : 9.W.W.W.W.W.W.W.W.W.W.0., , , , , , , , , , , , , , , , , Q W.W.W.W.W.",
"W.W.W.W.W.W.W.W.W.W.W.U.=                                       1.W.W.W.W.W.W.W.W.W.W.W.W.~ X X X X X X X X X X X X X X X X X X X ~ W.W.W.W.W.W.W.W.W.W.U @ @ @ @ @ @ @ @ @ @ @ @ @ @ @ @ @ @ U W.W.W.W.W.W.W.W.W.W.9.: : : : : : : : : : : : : : : : : : : W.W.W.W.W.W.W.W.W.W., , , , , , , , , , , , , , , , , , , 7.W.W.W.W.",
"W.W.W.W.W.W.W.W.W.W.W.5.                                          W.W.W.W.W.W.W.W.W.W.W.W.X X X X X X X X X X X X X X X X X X X X X W.W.W.W.W.W.W.W.W.c.@ @ @ @ @ @ @ @ @ @ @ @ @ @ @ @ @ @ @ @ x.W.W.W.W.W.W.W.W.N.: : : : : : : : : : : : : : : : : : : : ^ W.W.W.W.W.W.W.W./ , , , , , , , , , , , , , , , , , , , , M.W.W.W.",
"W.W.W.W.W.W.W.W.W.W.I.P                                           b.W.W.W.W.W.W.W.W.W.W.x.X X X X X X X X X X X X X X X X X X X X X x.W.W.W.W.W.W.W.W.J @ @ @ @ @ @ @ @ @ @ @ @ @ @ @ @ @ @ @ @ J W.W.W.W.W.W.W.W.9.: : : : : : : : : : : : : : : : : : : : : W.W.W.W.W.W.W.W., , , , , , , , , , , , , , , , , , , , , 7.W.W.W.",
"W.W.W.W.W.W.W.W.W.W.n..                                           P W.W.W.W.W.W.W.W.W.W.F X X X X X X X X X X X X X X X X X X X X X F W.W.W.W.W.W.W.P.@ @ @ @ @ @ @ @ @ @ @ @ @ @ @ @ @ @ @ @ @ @ P.W.W.W.W.W.W.P.W : : : : : : : : : : : : : : : : : : : : : 9.W.W.W.W.W.W.0., , , , , , , , , , , , , , , , , , , , , Q I.W.W.",
"W.W.W.W.W.W.W.W.W.W.x.                                              W.W.W.W.W.W.W.W.W.W.X X X X X X X X X X X X X X X X X X X X X X X W.W.W.W.W.W.W.2.@ @ @ @ @ @ @ @ @ @ @ @ @ @ @ @ @ @ @ @ @ @ 2.W.W.W.W.W.W.N.: : : : : : : : : : : : : : : : : : : : : : W W.W.W.W.W.W.Q , , , , , , , , , , , , , , , , , , , , , , M.W.W.",
"W.W.W.W.W.W.W.W.W.W.5.                                              W.W.W.W.W.W.W.W.W.W.X X X X X X X X X X X X X X X X X X X X X X X W.W.W.W.W.W.W.U @ @ @ @ @ @ @ @ @ @ @ @ @ @ @ @ @ @ @ @ @ @ U W.W.W.W.W.W.9.: : : : : : : : : : : : : : : : : : : : : : : W.W.W.W.W.W., , , , , , , , , , , , , , , , , , , , , , , 0.W.W.",
"W.W.W.W.W.W.W.W.W.W.5.                                              W.W.W.W.W.W.W.W.W.W.X X X X X X X X X X X X X X X X X X X X X X X W.W.W.W.W.W.W.J @ @ @ @ @ @ @ @ @ @ @ @ @ @ @ @ @ @ @ @ @ @ J W.W.W.W.W.W.9.: : : : : : : : : : : : : : : : : : : : : : : W.W.W.W.W.W., , , , , , , , , , , , , , , , , , , , , , , 0.W.W.",
"W.W.W.W.W.W.W.W.W.W.x.                                              W.W.W.W.W.W.W.W.W.W.X X X X X X X X X X X X X X X X X X X X X X X W.W.W.W.W.W.W.J @ @ @ @ @ @ @ @ @ @ @ @ @ @ @ @ @ @ @ @ @ @ J W.W.W.W.W.W.q.: : : : : : : : : : : : : : : : : : : : : : : W.W.W.W.W.W., , , , , , , , , , , , , , , , , , , , , , , 0.W.W.",
"W.W.W.W.W.W.W.W.W.W.n..                                           P W.W.W.W.W.W.W.W.W.W.F X X X X X X X X X X X X X X X X X X X X X F W.W.W.W.W.W.W.U @ @ @ @ @ @ @ @ @ @ @ @ @ @ @ @ @ @ @ @ @ @ U W.W.W.W.W.W.N.: : : : : : : : : : : : : : : : : : : : : : 7 W.W.W.W.W.W.4 , , , , , , , , , , , , , , , , , , , , , , m.W.W.",
"W.W.W.W.W.W.W.W.W.W.I.P                                           b.W.W.W.W.W.W.W.W.W.W.x.X X X X X X X X X X X X X X X X X X X X X x.W.W.W.W.W.W.W.2.@ @ @ @ @ @ @ @ @ @ @ @ @ @ @ @ @ @ @ @ @ @ 2.W.W.W.W.W.W.I.7 : : : : : : : : : : : : : : : : : : : : : ( W.W.W.W.W.W.7., , , , , , , , , , , , , , , , , , , , , 6 I.W.W.",
"W.W.W.W.W.W.W.W.W.W.W.5.                                          W.W.W.W.W.W.W.W.W.W.W.W.X X X X X X X X X X X X X X X X X X X X X W.W.W.W.W.W.W.W.P.@ @ @ @ @ @ @ @ @ @ @ @ @ @ @ @ @ @ @ @ @ @ P.W.W.W.W.W.W.W.( : : : : : : : : : : : : : : : : : : : : : I.W.W.W.W.W.W.I., , , , , , , , , , , , , , , , , , , , , ) W.W.W.",
"W.W.W.W.W.W.W.W.W.W.W.P.=                                       1.W.W.W.W.W.W.W.W.W.W.W.W.T X X X X X X X X X X X X X X X X X X X ~ W.W.W.W.W.W.W.W.W.J @ @ @ @ @ @ @ @ @ @ @ @ @ @ @ @ @ @ @ @ J W.W.W.W.W.W.W.W.b.: : : : : : : : : : : : : : : : : : : : > W.W.W.W.W.W.W.W.< , , , , , , , , , , , , , , , , , , , , m.W.W.W.",
"W.W.W.W.W.W.W.W.W.W.W.W.x.                                      W.W.W.W.W.W.W.W.W.W.W.W.W.W.X X X X X X X X X X X X X X X X X X X W.W.W.W.W.W.W.W.W.W.c.@ @ @ @ @ @ @ @ @ @ @ @ @ @ @ @ @ @ @ @ c.W.W.W.W.W.W.W.W.W.( : : : : : : : : : : : : : : : : : : : P.W.W.W.W.W.W.W.W.M., , , , , , , , , , , , , , , , , , , ) W.W.W.W.",
"W.W.W.W.W.W.W.W.W.W.W.W.I.T                                   b.W.W.W.W.W.W.W.W.W.W.W.W.W.W.x.X X X X X X X X X X X X X X X X X x.W.W.W.W.W.W.W.W.W.W.W.U @ @ @ @ @ @ @ @ @ @ @ @ @ @ @ @ @ @ U W.W.W.W.W.W.W.W.W.W.N.: : : : : : : : : : : : : : : : : : ^ W.W.W.W.W.W.W.W.W.W./ , , , , , , , , , , , , , , , , , , M.W.W.W.W.",
"W.W.W.W.W.W.W.W.W.W.W.W.W.P.I                               1.W.W.W.W.W.W.W.W.W.W.W.W.W.W.W.W.T X X X X X X X X X X X X X X X ~ W.W.W.W.W.W.W.W.W.W.W.W.P.3 @ @ @ @ @ @ @ @ @ @ @ @ @ @ @ @ 3 P.W.W.W.W.W.W.W.W.W.W.W.9.: : : : : : : : : : : : : : : : > I.W.W.W.W.W.W.W.W.W.W.I.< , , , , , , , , , , , , , , , , 0.W.W.W.W.W.",
"W.W.W.W.W.W.W.W.W.W.W.W.W.W.W.1.                        - b.W.W.W.W.W.W.W.W.W.W.W.W.W.W.W.W.W.W.x.X X X X X X X X X X X X X x.W.W.W.W.W.W.W.W.W.W.W.W.W.W.c.3 @ @ @ @ @ @ @ @ @ @ @ @ @ @ 3 c.W.W.W.W.W.W.W.W.W.W.W.W.W.9.: : : : : : : : : : : : : : W N.W.W.W.W.W.W.W.W.W.W.W.W.M.Q , , , , , , , , , , , , , , 0.W.W.W.W.W.W.",
"W.W.W.W.W.W.W.W.W.W.W.W.W.W.W.W.P.P                 * 1.W.W.W.W.W.W.W.W.W.W.W.W.W.W.W.W.W.W.W.W.W.W.~ X X X X X X X X X ~ W.W.W.W.W.W.W.W.W.W.W.W.W.W.W.W.W.P.U @ @ @ @ @ @ @ @ @ @ @ @ U P.W.W.W.W.W.W.W.W.W.W.W.W.W.W.W.N.( : : : : : : : : : : : 9.I.W.W.W.W.W.W.W.W.W.W.W.W.W.W.I.7., , , , , , , , , , , ) M.W.W.W.W.W.W.W.",
"W.W.W.W.W.W.W.W.W.W.W.W.W.W.W.W.W.W.I.5.R D D G 1.x.W.W.W.W.W.W.W.W.W.W.W.W.W.W.W.W.W.W.W.W.W.W.W.W.W.W.x.~ F F F ~ x.W.W.W.W.W.W.W.W.W.W.W.W.W.W.W.W.W.W.W.W.W.c.J @ @ @ @ @ @ @ @ J c.W.W.W.W.W.W.W.W.W.W.W.W.W.W.W.W.W.W.W.N.( 7 : : : : : W 9.n.W.W.W.W.W.W.W.W.W.W.W.W.W.W.W.W.W.W.M.7.Q , , , , , 6 ) m.W.W.W.W.W.W.W.W.W.",
"W.W.W.W.W.W.W.W.W.W.W.W.W.W.W.W.W.W.W.W.W.W.W.W.W.W.W.W.W.W.W.W.W.W.W.W.W.W.W.W.W.W.W.W.W.W.W.W.W.W.W.W.W.W.W.W.W.W.W.W.W.W.W.W.W.W.W.W.W.W.W.W.W.W.W.W.W.W.W.W.W.W.P.2.U J J U 2.P.W.W.W.W.W.W.W.W.W.W.W.W.W.W.W.W.W.W.W.W.W.W.W.P.N.9.9.q.N.I.W.W.W.W.W.W.W.W.W.W.W.W.W.W.W.W.W.W.W.W.W.W.I.M.0.0.0.m.M.W.W.W.W.W.W.W.W.W.W.W.",
"W.W.W.W.W.W.W.W.W.W.W.W.W.W.W.W.W.W.W.W.W.W.W.W.W.W.W.W.W.W.W.W.W.W.W.W.W.W.W.W.W.W.W.W.W.W.W.W.W.W.W.W.W.W.W.W.W.W.W.W.W.W.W.W.W.W.W.W.W.W.W.W.W.W.W.W.W.W.W.W.W.W.W.W.W.W.W.W.W.W.W.W.W.W.W.W.W.W.W.W.W.W.W.W.W.W.W.W.W.W.W.W.W.W.W.W.W.W.W.W.W.W.W.W.W.W.W.W.W.W.W.W.W.W.W.W.W.W.W.W.W.W.W.W.W.W.W.W.W.W.W.W.W.W.W.W.W.W.W.W.",
"W.W.W.W.W.W.W.W.W.W.W.W.W.W.W.W.W.W.W.W.W.W.W.W.W.W.W.W.W.W.W.W.W.W.W.W.W.W.W.W.W.W.W.W.W.W.W.W.W.W.W.W.W.W.W.W.W.W.W.W.W.W.W.W.W.W.W.W.W.W.W.W.W.W.W.W.W.W.W.W.W.W.W.W.W.W.W.W.W.W.W.W.W.W.W.W.W.W.W.W.W.W.W.W.W.W.W.W.W.W.W.W.W.W.W.W.W.W.W.W.W.W.W.W.W.W.W.W.W.W.W.W.W.W.W.W.W.W.W.W.W.W.W.W.W.W.W.W.W.W.W.W.W.W.W.W.W.W.W.W.",
"W.W.W.W.W.W.W.W.W.W.W.W.W.W.W.W.W.W.W.W.W.W.W.W.W.W.W.W.W.W.W.W.W.W.W.W.W.W.W.W.W.W.W.W.W.W.W.W.W.W.W.W.W.W.W.W.W.W.W.W.W.W.W.W.W.W.W.W.W.W.W.W.W.W.W.W.W.W.W.W.W.W.W.W.W.W.W.W.W.W.W.W.W.W.W.W.W.W.W.W.W.W.W.W.W.W.W.W.W.W.W.W.W.W.W.W.W.W.W.W.W.W.W.W.W.W.W.W.W.W.W.W.W.W.W.W.W.W.W.W.W.W.W.W.W.W.W.W.W.W.W.W.W.W.W.W.W.W.W.W.",
"W.W.W.W.W.W.W.W.W.W.W.W.W.W.W.W.W.W.W.W.W.W.W.W.W.W.W.W.W.W.W.W.W.W.W.W.W.W.W.W.W.W.W.W.W.W.W.W.W.W.W.W.W.W.W.W.W.W.W.W.W.W.W.W.W.W.W.W.W.W.W.W.W.W.W.W.W.W.W.W.W.W.W.W.W.W.W.W.W.W.W.W.W.W.W.W.W.W.W.W.W.W.W.W.W.W.W.W.W.W.W.W.W.W.W.W.W.W.W.W.W.W.W.W.W.W.W.W.W.W.W.W.W.W.W.W.W.W.W.W.W.W.W.W.W.W.W.W.W.W.W.W.W.W.W.W.W.W.W.W.",
"W.W.W.W.W.W.W.W.W.W.W.W.W.W.W.W.W.W.W.W.W.W.W.W.W.W.W.W.W.W.W.W.W.W.W.W.W.W.W.W.W.W.W.W.W.W.W.W.W.W.W.W.W.W.W.W.W.W.W.W.W.W.W.W.W.W.W.W.W.W.W.W.W.W.W.W.W.W.W.W.W.W.W.W.W.W.W.W.W.W.W.W.W.W.W.W.W.W.W.W.W.W.W.W.W.W.W.W.W.W.W.W.W.W.W.W.W.W.W.W.W.W.W.W.W.W.W.W.W.W.W.W.W.W.W.W.W.W.W.W.W.W.W.W.W.W.W.W.W.W.W.W.W.W.W.W.W.W.W.W.",
"W.W.W.W.W.W.W.W.W.W.W.W.W.W.W.W.W.W.b.P         P b.W.W.W.W.W.W.W.W.W.W.W.W.W.W.W.W.W.W.W.W.W.W.W.W.W.U.b.5.5.r.x.P.W.W.W.W.W.W.W.W.W.W.W.W.W.W.W.W.W.W.W.W.W.W.W.W.W.W.W.Y.W.W.W.W.W.W.W.W.W.W.W.W.W.W.W.W.W.W.W.W.W.W.W.W.W.W.W.W.W.W.W.W.W.W.W.W.W.W.W.W.W.W.W.W.W.W.W.W.W.W.W.W.W.W.W.W.W.W.W.W.W.W.W.W.W.W.W.W.W.W.W.W.W.W.",
"W.W.W.W.W.W.W.W.W.W.W.W.W.W.W.W.1.                    1.W.W.W.W.W.W.W.W.W.W.W.W.W.W.W.W.W.W.W.W.W.n.6.G o o o o o - [ b.W.W.W.W.W.W.W.W.W.W.W.W.W.W.W.W.W.W.W.W.W.W.v.3.K K K ] r.U.W.W.W.W.W.W.W.W.W.W.W.W.W.W.W.W.W.W.W.W.W.W.W.W.U.V.r.r.r.V.U.W.W.W.W.W.W.W.W.W.W.W.W.W.W.W.W.W.W.W.W.W.W.W.W.W.W.W.W.W.W.W.W.W.W.W.W.W.W.W.",
"W.W.W.W.W.W.W.W.W.W.W.W.W.W.b.                            b.W.W.W.W.W.W.W.W.W.W.W.W.W.W.W.W.W.P.6.o o o o o o o o o o o R V.W.W.W.W.W.W.W.W.W.W.W.W.W.W.W.W.W.W.3.e # # 8 8 8 8 # # ] P.W.W.W.W.W.W.W.W.W.W.W.W.W.W.W.W.W.W.W.W.V.w.t 9 9 9 9 9 t w.V.W.W.W.W.W.W.W.W.W.W.W.W.W.W.W.W.W.W.W.Y.Z.B.y.y.B.Z.W.W.W.W.W.W.W.W.W.W.W.",
"W.W.W.W.W.W.W.W.W.W.W.W.W.1.                                1.W.W.W.W.W.W.W.W.W.W.W.W.W.W.W.v.I o o o o o o o o o o o o o o 5.I.W.W.W.W.W.W.W.W.W.W.W.W.W.W.v.e # # # # 8 8 8 8 8 8 8 # 3.I.W.W.W.W.W.W.W.W.W.W.W.W.W.W.W.W.U.w.9 9 9 9 9 9 9 9 9 9 9 w.U.W.W.W.W.W.W.W.W.W.W.W.W.W.W.W.U.y.X.q 0 0 0 0 q | y.Y.W.W.W.W.W.W.W.W.",
"W.W.W.W.W.W.W.W.W.W.W.W.b.                                    b.W.W.W.W.W.W.W.W.W.W.W.W.W.P.$ o o o o o o o o o o o o o o o o r.W.W.W.W.W.W.W.W.W.W.W.W.W.3.# # # # # # # # # # # # # # 8 E P.W.W.W.W.W.W.W.W.W.W.W.W.W.W.V.t 9 9 9 9 9 9 9 9 9 9 9 9 9 t V.W.W.W.W.W.W.W.W.W.W.W.W.Y.B.y 0 0 0 0 0 0 0 0 0 0 y B.E.W.W.W.W.W.W.",
"W.W.W.W.W.W.W.W.W.W.W.W.-                                     - W.W.W.W.W.W.W.W.W.W.W.W.W.I o o o o o o o o o o o o o o o o o o V.W.W.W.W.W.W.W.W.W.W.W.v.# # # # # # # # # # # # # # # 8 8 [ Y.W.W.W.W.W.W.W.W.W.W.W.W.U.9 9 9 9 9 9 9 9 9 9 9 9 9 9 9 9 9 U.W.W.W.W.W.W.W.W.W.W.U...0 0 0 0 0 0 0 0 0 0 0 0 0 0 ..U.W.W.W.W.W.",
"W.W.W.W.W.W.W.W.W.W.W.1.                                        1.W.W.W.W.W.W.W.W.W.W.W.n.o o o o o o o o o o o o o o o o o o o R W.W.W.W.W.W.W.W.W.W.W.8 8 # # # # # # # # # # # # # # 8 8 # x.W.W.W.W.W.W.W.W.W.W.W.W.t 9 9 9 9 9 9 9 9 9 9 9 9 9 9 9 9 9 t W.W.W.W.W.W.W.W.W.U.| 0 0 0 0 0 0 0 0 0 0 0 0 0 0 0 0 | Y.W.W.W.W.",
"W.W.W.W.W.W.W.W.W.W.W.*                                         * W.W.W.W.W.W.W.W.W.W.W.$ o o o o o o o o o o o o o o o o o o o o b.W.W.W.W.W.W.W.W.W.3.# # # # # # # # # # # # # # # 8 8 8 # w P.W.W.W.W.W.W.W.W.W.W.V.9 9 9 9 9 9 9 9 9 9 9 9 9 9 9 9 9 9 9 V.W.W.W.W.W.W.W.W.e.0 0 0 0 0 0 0 0 0 0 0 0 0 0 0 0 0 0 e.W.W.W.W.",
"W.W.W.W.W.W.W.W.W.W.b.                                            b.W.W.W.W.W.W.W.W.W.P.o o o o o o o o o o o o o o o o o o o o o [ W.W.W.W.W.W.W.W.W.# # # # # # # # # # # # # # # # # # # # # r.W.W.W.W.W.W.W.W.W.W.9 9 9 9 9 9 9 9 9 9 9 9 9 9 9 9 9 9 9 9 9 W.W.W.W.W.W.W.U.0 0 0 0 0 0 0 0 0 0 0 0 0 0 0 0 0 0 0 0 U.W.W.W.",
"W.W.W.W.W.W.W.W.W.W.1.                                            1.W.W.W.W.W.W.W.W.W.[ o o o o o o o o o o o o o o o o o o o o o - P.W.W.W.W.W.W.W.v.# # # # # # # # # # # # # # # # # # # # # E I.W.W.W.W.W.W.W.W.U.9 9 9 9 9 9 9 9 9 9 9 9 9 9 9 9 9 9 9 9 9 U.W.W.W.W.W.W.| 0 0 0 0 0 0 0 0 0 0 0 0 0 0 0 0 0 0 0 0 | W.W.W.",
"W.W.W.W.W.W.W.W.W.W.G                                             G W.W.W.W.W.W.W.W.W.; o o o o o o o o o o o o o o o o o o o o o o x.W.W.W.W.W.W.W.] # # # # # # # # # # # # # # # # # # # # # 8 P.W.W.W.W.W.W.W.W.{ 9 9 9 9 9 9 9 9 9 9 9 9 9 9 9 9 9 9 9 9 9 { W.W.W.W.W.I.0 0 0 0 0 0 0 0 0 0 0 0 0 0 0 0 0 0 0 0 0 0 Y.W.W.",
"W.W.W.W.W.W.W.W.W.W.D                                             D W.W.W.W.W.W.W.W.W.o o o o o o o o o o o o o o o o o o o o o o o 5.W.W.W.W.W.W.W.# # # # # # # # # # # # # # # # # # # # # # # v.W.W.W.W.W.W.W.W.9 9 9 9 9 9 9 9 9 9 9 9 9 9 9 9 9 9 9 9 9 9 9 W.W.W.W.W.y.0 0 0 0 0 0 0 0 0 0 0 0 0 0 0 0 0 0 0 0 0 0 y.W.W.",
"W.W.W.W.W.W.W.W.W.W.D                                             D W.W.W.W.W.W.W.W.W.o o o o o o o o o o o o o o o o o o o o o o o 5.W.W.W.W.W.W.W.# # # # # # # # # # # # # # # # # # # # # # # r.W.W.W.W.W.W.W.W.9 9 9 9 9 9 9 9 9 9 9 9 9 9 9 9 9 9 9 9 9 9 9 W.W.W.W.W.X.0 0 0 0 0 0 0 0 0 0 0 0 0 0 0 0 0 0 0 0 0 0 X.W.W.",
"W.W.W.W.W.W.W.W.W.W.R                                             R W.W.W.W.W.W.W.W.W.o o o o o o o o o o o o o o o o o o o o o o o 5.W.W.W.W.W.W.W.# # # # # # # # # # # # # # # # # # # # # # # r.W.W.W.W.W.W.W.W.9 9 9 9 9 9 9 9 9 9 9 9 9 9 9 9 9 9 9 9 9 9 9 R.W.W.W.W.` 0 0 0 0 0 0 0 0 0 0 0 0 0 0 0 0 0 0 0 0 0 0 ` W.W.",
"W.W.W.W.W.W.W.W.W.W.5.                                            5.W.W.W.W.W.W.W.W.W.G o o o o o o o o o o o o o o o o o o o o o o n.W.W.W.W.W.W.W.# # # # # # # # # # # # # # # # # # # # # # 8 x.W.W.W.W.W.W.W.R.9 9 9 9 9 9 9 9 9 9 9 9 9 9 9 9 9 9 9 9 9 9 9 R.W.W.W.W.` 0 0 0 0 0 0 0 0 0 0 0 0 0 0 0 0 0 0 0 0 0 0 ` W.W.",
"W.W.W.W.W.W.W.W.W.W.W.                                            I.W.W.W.W.W.W.W.W.W.5.o o o o o o o o o o o o o o o o o o o o o G U.W.W.W.W.W.W.W.] # # # # # # # # # # # # # # # # # # # # # 8 n.W.W.W.W.W.W.W.R.u 9 9 9 9 9 9 9 9 9 9 9 9 9 9 9 9 9 9 9 9 9 u W.W.W.W.W.' 0 0 0 0 0 0 0 0 0 0 0 0 0 0 0 0 0 0 0 0 0 0 ' W.W.",
"W.W.W.W.W.W.W.W.W.W.W.P                                         P W.W.W.W.W.W.W.W.W.W.W.o o o o o o o o o o o o o o o o o o o o o 6.W.W.W.W.W.W.W.W.v.8 8 # # # # # # # # # # # # # # # # # # # ] U.W.W.W.W.W.W.W.W.w.9 9 9 9 9 9 9 9 9 9 9 9 9 9 9 9 9 9 9 9 9 w.W.W.W.W.W.e.0 0 0 0 0 0 0 0 0 0 0 0 0 0 0 0 0 0 0 0 0 0 e.W.W.",
"W.W.W.W.W.W.W.W.W.W.W.P.                                        P.W.W.W.W.W.W.W.W.W.W.W.I o o o o o o o o o o o o o o o o o o o o n.W.W.W.W.W.W.W.W.W.# # # # # # # # # # # # # # # # # # # # # r.Y.W.W.W.W.W.W.W.W.W.9 9 9 9 9 9 9 9 9 9 9 9 9 9 9 9 9 9 9 9 9 W.W.W.W.W.W.C.0 0 0 0 0 0 0 0 0 0 0 0 0 0 0 0 0 0 0 0 0 0 C.W.W.",
"W.W.W.W.W.W.W.W.W.W.W.W.1.                                    1.W.W.W.W.W.W.W.W.W.W.W.W.W.o o o o o o o o o o o o o o o o o o o 6.W.W.W.W.W.W.W.W.W.W.3.# # # # # # # # # # # # # # # # # # # w P.W.W.W.W.W.W.W.W.W.W.t 9 9 9 9 9 9 9 9 9 9 9 9 9 9 9 9 9 9 9 t W.W.W.W.W.W.W.u 0 0 0 0 0 0 0 0 0 0 0 0 0 0 0 0 0 0 0 0 u W.W.W.",
"W.W.W.W.W.W.W.W.W.W.W.W.I.I                                 I U.W.W.W.W.W.W.W.W.W.W.W.W.W.5.o o o o o o o o o o o o o o o o o G P.W.W.W.W.W.W.W.W.W.W.W.# # # # # # # # # # # # # # # # # # 8 v.W.W.W.W.W.W.W.W.W.W.W.W.9 9 9 9 9 9 9 9 9 9 9 9 9 9 9 9 9 9 9 W.W.W.W.W.W.W.W.e.0 0 0 0 0 0 0 0 0 0 0 0 0 0 0 0 0 0 0 0 e.W.W.W.",
"W.W.W.W.W.W.W.W.W.W.W.W.W.P.T                             T P.W.W.W.W.W.W.W.W.W.W.W.W.W.W.W.I o o o o o o o o o o o o o o o $ n.W.W.W.W.W.W.W.W.W.W.W.W.v.8 # # # # # # # # # # # # # # # # [ I.W.W.W.W.W.W.W.W.W.W.W.W.w.9 9 9 9 9 9 9 9 9 9 9 9 9 9 9 9 9 w.W.W.W.W.W.W.W.W.W.y 0 0 0 0 0 0 0 0 0 0 0 0 0 0 0 0 0 0 y W.W.W.W.",
"W.W.W.W.W.W.W.W.W.W.W.W.W.W.I.x.=                     = x.I.W.W.W.W.W.W.W.W.W.W.W.W.W.W.W.W.W.5.o o o o o o o o o o o o o I P.W.W.W.W.W.W.W.W.W.W.W.W.W.W.3.# # # # # # # # # # # # # # # E U.W.W.W.W.W.W.W.W.W.W.W.W.W.W.t 9 9 9 9 9 9 9 9 9 9 9 9 9 9 9 t W.W.W.W.W.W.W.W.W.W.C.0 0 0 0 0 0 0 0 0 0 0 0 0 0 0 0 0 0 Z.W.W.W.W.",
"W.W.W.W.W.W.W.W.W.W.W.W.W.W.W.W.P.5.P .         . P 5.P.W.W.W.W.W.W.W.W.W.W.W.W.W.W.W.W.W.W.W.W.W.I o o o o o o o o o $ n.W.W.W.W.W.W.W.W.W.W.W.W.W.W.W.W.W.v.e # # # # # # # # 8 8 # # 3.E.W.W.W.W.W.W.W.W.W.W.W.W.W.W.W.W.w.9 9 9 9 9 9 9 9 9 9 9 9 9 w.W.W.W.W.W.W.W.W.W.W.W.W.e.0 0 0 0 0 0 0 0 0 0 0 0 0 0 0 0 e.W.W.W.W.W.",
"W.W.W.W.W.W.W.W.W.W.W.W.W.W.W.W.W.W.I.n.x.5.5.x.n.I.W.W.W.W.W.W.W.W.W.W.W.W.W.W.W.W.W.W.W.W.W.W.W.W.W.5.G o o o ; [ U.W.W.W.W.W.W.W.W.W.W.W.W.W.W.W.W.W.W.W.W.W.3.e # # # # # # # 8 ] P.W.W.W.W.W.W.W.W.W.W.W.W.W.W.W.W.W.W.W.W.t 9 9 9 9 9 9 9 9 9 t W.W.W.W.W.W.W.W.W.W.W.W.W.W.W.C.0 0 0 0 0 0 0 0 0 0 0 0 0 0 C.W.W.W.W.W.W.",
"W.W.W.W.W.W.W.W.W.W.W.W.W.W.W.W.W.W.W.W.W.W.W.W.W.W.W.W.W.W.W.W.W.W.W.W.W.W.W.W.W.W.W.W.W.W.W.W.W.W.W.W.W.W.W.W.W.W.W.W.W.W.W.W.W.W.W.W.W.W.W.W.W.W.W.W.W.W.W.W.W.W.b.3.K K K ] r.U.W.W.W.W.W.W.W.W.W.W.W.W.W.W.W.W.W.W.W.W.W.W.W.W.w.t 9 9 9 t w.W.W.W.W.W.W.W.W.W.W.W.W.W.W.W.W.W.W.W.e.0 0 0 0 0 0 0 0 0 0 e.W.W.W.W.W.W.W.W.",
"W.W.W.W.W.W.W.W.W.W.W.W.W.W.W.W.W.W.W.W.W.W.W.W.W.W.W.W.W.W.W.W.W.W.W.W.W.W.W.W.W.W.W.W.W.W.W.W.W.W.W.W.W.W.W.W.W.W.W.W.W.W.W.W.W.W.W.W.W.W.W.W.W.W.W.W.W.W.W.W.W.W.W.W.W.U.W.W.W.W.W.W.W.W.W.W.W.W.W.W.W.W.W.W.W.W.W.W.W.W.W.W.W.W.W.W.W.W.W.W.W.W.W.W.W.W.W.W.W.W.W.W.W.W.W.W.W.W.W.W.W.W.C.| 0 0 0 0 | C.W.W.W.W.W.W.W.W.W.W.",
"W.W.W.W.W.W.W.W.W.W.W.W.W.W.W.W.W.W.W.W.W.W.W.W.W.W.W.W.W.W.W.W.W.W.W.W.W.W.W.W.W.W.W.W.W.W.W.W.W.W.W.W.W.W.W.W.W.W.W.W.W.W.W.W.W.W.W.W.W.W.W.W.W.W.W.W.W.W.W.W.W.W.W.W.W.W.W.W.W.W.W.W.W.W.W.W.W.W.W.W.W.W.W.W.W.W.W.W.W.W.W.W.W.W.W.W.W.W.W.W.W.W.W.W.W.W.W.W.W.W.W.W.W.W.W.W.W.W.W.W.W.W.W.W.W.W.W.W.W.W.W.W.W.W.W.W.W.W.W.W.",
"W.W.W.W.W.W.W.W.W.W.W.W.W.W.W.W.W.W.W.W.W.W.W.W.W.W.W.W.W.W.W.W.W.W.W.W.W.W.W.W.W.W.W.W.W.W.W.W.W.W.W.W.W.W.W.W.W.W.W.W.W.W.W.W.W.W.W.W.W.W.W.W.W.W.W.W.W.W.W.W.W.W.W.W.W.W.W.W.W.W.W.W.W.W.W.W.W.W.W.W.W.W.W.W.W.W.W.W.W.W.W.W.W.W.W.W.W.W.W.W.W.W.W.W.W.W.W.W.W.W.W.W.W.W.W.W.W.W.W.W.W.W.W.W.W.W.W.W.W.W.W.W.W.W.W.W.W.W.W.W.",
"W.W.W.W.W.W.W.W.W.W.W.W.W.W.W.W.W.W.W.W.W.W.W.W.W.W.W.W.W.W.W.W.W.W.W.W.W.W.W.W.W.W.W.W.W.W.W.W.W.W.W.W.W.W.W.W.W.W.W.W.W.W.W.W.W.W.W.W.W.W.W.W.W.W.W.W.W.W.W.W.W.W.W.W.W.W.W.W.W.W.W.W.W.W.W.W.W.W.W.W.W.W.W.W.W.W.W.W.W.W.W.W.W.W.W.W.W.W.W.W.W.W.W.W.W.W.W.W.W.W.W.W.W.W.W.W.W.W.W.W.W.W.W.W.W.W.W.W.W.W.W.W.W.W.W.W.W.W.W.W.",
"W.W.W.W.W.W.W.W.W.W.W.W.W.W.W.W.W.P.T *       G 6.W.W.W.W.W.W.W.W.W.W.W.W.W.W.W.W.W.W.W.W.W.W.W.W.W.T.5.$.H H G 1.b.W.W.W.W.W.W.W.W.W.W.W.W.W.W.W.W.W.W.W.W.W.W.P.4.Y L L Y 4.P.W.W.W.W.W.W.W.W.W.W.W.W.W.W.W.W.W.W.W.W.W.W.W.W.W.W.W.W.W.W.W.W.W.W.W.W.W.W.W.W.W.W.W.W.W.W.W.W.W.W.W.W.W.W.W.W.W.W.W.W.W.W.W.W.W.W.W.W.W.W.W.W.",
"W.W.W.W.W.W.W.W.W.W.W.W.W.W.W.P.+                   I W.W.W.W.W.W.W.W.W.W.W.W.W.W.W.W.W.W.W.W.W.P.P O O O O O O O O * 1.W.W.W.W.W.W.W.W.W.W.W.W.W.W.W.W.W.W.x.L % % % % % % % % L x.W.W.W.W.W.W.W.W.W.W.W.W.W.W.W.W.W.W.W.W.W.W.T.a.#.@.@.#.a.P.W.W.W.W.W.W.W.W.W.W.W.W.W.W.W.W.W.W.W.W.W.W.W.W.W.W.W.W.W.W.W.W.W.W.W.W.W.W.W.W.",
"W.W.W.W.W.W.W.W.W.W.W.W.W.I.G                           5.W.W.W.W.W.W.W.W.W.W.W.W.W.W.W.W.W.U.4.O O O O O O O O O O O O - b.W.W.W.W.W.W.W.W.W.W.W.W.W.W.P.Y % % % % % % % % % % % % Y P.W.W.W.W.W.W.W.W.W.W.W.W.W.W.W.W.W.W.H.@.j j j j j j j j @.H.W.W.W.W.W.W.W.W.W.W.W.W.W.W.W.W.W.W.W.W.D.=.k k k k =.D.W.W.W.W.W.W.W.W.W.W.",
"W.W.W.W.W.W.W.W.W.W.W.W.n..                               I W.W.W.W.W.W.W.W.W.W.W.W.W.W.W.P.I O O O O O O O O O O O O O O O 1.W.W.W.W.W.W.W.W.W.W.W.W.x.g % % % % % % % % % % % % % % g x.W.W.W.W.W.W.W.W.W.W.W.W.W.W.W.T.#.j j j j j j j j j j j j #.T.W.W.W.W.W.W.W.W.W.W.W.W.W.W.W.W.s.k k k k k k k k k k s.W.W.W.W.W.W.W.W.",
"W.W.W.W.W.W.W.W.W.W.W.P.G                                   5.W.W.W.W.W.W.W.W.W.W.W.W.W.I.$.O O O O O O O O O O O O O O O O O b.W.W.W.W.W.W.W.W.W.W.P.g % % % % % % % % % % % % % % % % g P.W.W.W.W.W.W.W.W.W.W.W.W.W.H.c j j j j j j j j j j j j j j c H.W.W.W.W.W.W.W.W.W.W.W.W.W.D.k k k k k k k k k k k k k k D.W.W.W.W.W.W.",
"W.W.W.W.W.W.W.W.W.W.W.6.                                      W.W.W.W.W.W.W.W.W.W.W.W.W.x.O O O O O O O O O O O O O O O O O O O W.W.W.W.W.W.W.W.W.W.Y % % % % % % % % % % % % % % % % % % Y W.W.W.W.W.W.W.W.W.W.W.W.T.c j j j j j j j j j j j j j j j j c P.W.W.W.W.W.W.W.W.W.W.W.s.k k k k k k k k k k k k k k k k s.W.W.W.W.W.",
"W.W.W.W.W.W.W.W.W.W.b.                                        I W.W.W.W.W.W.W.W.W.W.W.T.h O O O O O O O O O O O O O O O O O O O 1.W.W.W.W.W.W.W.W.x.% % % % % % % % % % % % % % % % % % % % x.W.W.W.W.W.W.W.W.W.W.W.#.j j j j j j j j j j j j j j j j j j #.W.W.W.W.W.W.W.W.W.W.G.k k k k k k k k k k k k k k k k k k D.W.W.W.W.",
"W.W.W.W.W.W.W.W.W.W.6.                                          W.W.W.W.W.W.W.W.W.W.W.5.O O O O O O O O O O O O O O O O O O O O O W.W.W.W.W.W.W.W.L % % % % % % % % % % % % % % % % % % % % L W.W.W.W.W.W.W.W.W.W.H.j j j j j j j j j j j j j j j j j j j j H.W.W.W.W.W.W.W.W.W.b k k k k k k k k k k k k k k k k k k b W.W.W.W.",
"W.W.W.W.W.W.W.W.W.P.G                                           5.W.W.W.W.W.W.W.W.W.I.P O O O O O O O O O O O O O O O O O O O O O b.W.W.W.W.W.W.P.% % % % % % % % % % % % % % % % % % % % % % P.W.W.W.W.W.W.W.W.W.@.j j j j j j j j j j j j j j j j j j j j @.W.W.W.W.W.W.W.W.s.k k k k k k k k k k k k k k k k k k k k s.W.W.W.",
"W.W.W.W.W.W.W.W.W.b.                                            F W.W.W.W.W.W.W.W.W.n.& O O O O O O O O O O O O O O O O O O O O O P W.W.W.W.W.W.4.% % % % % % % % % % % % % % % % % % % % % % 4.W.W.W.W.W.W.W.W.P.j j j j j j j j j j j j j j j j j j j j j j T.W.W.W.W.W.W.W.v k k k k k k k k k k k k k k k k k k k k v W.W.W.",
"W.W.W.W.W.W.W.W.W.5.                                              W.W.W.W.W.W.W.W.W.x.O O O O O O O O O O O O O O O O O O O O O O O W.W.W.W.W.W.Y % % % % % % % % % % % % % % % % % % % % % % Y W.W.W.W.W.W.W.W.a.j j j j j j j j j j j j j j j j j j j j j j a.W.W.W.W.W.W.D.k k k k k k k k k k k k k k k k k k k k k k D.W.W.",
"W.W.W.W.W.W.W.W.W.5.                                              W.W.W.W.W.W.W.W.W.5.O O O O O O O O O O O O O O O O O O O O O O O W.W.W.W.W.W.L % % % % % % % % % % % % % % % % % % % % % % L W.W.W.W.W.W.W.W.#.j j j j j j j j j j j j j j j j j j j j j j #.W.W.W.W.W.W.s.k k k k k k k k k k k k k k k k k k k k k k -.W.W.",
"W.W.W.W.W.W.W.W.W.5.                                              W.W.W.W.W.W.W.W.W.5.O O O O O O O O O O O O O O O O O O O O O O O W.W.W.W.W.W.L % % % % % % % % % % % % % % % % % % % % % % L W.W.W.W.W.W.W.W.@.j j j j j j j j j j j j j j j j j j j j j j @.W.W.W.W.W.W.%.k k k k k k k k k k k k k k k k k k k k k k %.W.W.",
"W.W.W.W.W.W.W.W.W.b.                                            * W.W.W.W.W.W.W.W.W.x.O O O O O O O O O O O O O O O O O O O O O O O W.W.W.W.W.W.Y % % % % % % % % % % % % % % % % % % % % % % Y W.W.W.W.W.W.W.W.@.j j j j j j j j j j j j j j j j j j j j j j @.W.W.W.W.W.W.&.k k k k k k k k k k k k k k k k k k k k k k &.W.W.",
"W.W.W.W.W.W.W.W.W.P.;                                           T W.W.W.W.W.W.W.W.W.n.& O O O O O O O O O O O O O O O O O O O O O P W.W.W.W.W.W.4.% % % % % % % % % % % % % % % % % % % % % % 4.W.W.W.W.W.W.W.W.#.j j j j j j j j j j j j j j j j j j j j j j #.W.W.W.W.W.W.&.k k k k k k k k k k k k k k k k k k k k k k &.W.W.",
"W.W.W.W.W.W.W.W.W.W.T                                           P.W.W.W.W.W.W.W.W.W.W.P O O O O O O O O O O O O O O O O O O O O O b.W.W.W.W.W.W.P.% % % % % % % % % % % % % % % % % % % % % % P.W.W.W.W.W.W.W.W.a.j j j j j j j j j j j j j j j j j j j j j j a.W.W.W.W.W.W.-.k k k k k k k k k k k k k k k k k k k k k k -.W.W.",
"W.W.W.W.W.W.W.W.W.W.b.                                        + W.W.W.W.W.W.W.W.W.W.W.5.O O O O O O O O O O O O O O O O O O O O O W.W.W.W.W.W.W.W.L % % % % % % % % % % % % % % % % % % % % L W.W.W.W.W.W.W.W.W.T.j j j j j j j j j j j j j j j j j j j j j j P.W.W.W.W.W.W.f.k k k k k k k k k k k k k k k k k k k k k k f.W.W.",
"W.W.W.W.W.W.W.W.W.W.W.R                                       b.W.W.W.W.W.W.W.W.W.W.W.P.h O O O O O O O O O O O O O O O O O O O 1.W.W.W.W.W.W.W.W.x.% % % % % % % % % % % % % % % % % % % % x.W.W.W.W.W.W.W.W.W.W.@.j j j j j j j j j j j j j j j j j j j j @.W.W.W.W.W.W.W.W.k k k k k k k k k k k k k k k k k k k k k k W.W.W.",
"W.W.W.W.W.W.W.W.W.W.W.n.                                    I W.W.W.W.W.W.W.W.W.W.W.W.W.x.O O O O O O O O O O O O O O O O O O O W.W.W.W.W.W.W.W.W.W.Y % % % % % % % % % % % % % % % % % % Y W.W.W.W.W.W.W.W.W.W.W.H.j j j j j j j j j j j j j j j j j j j j H.W.W.W.W.W.W.W.W.=.k k k k k k k k k k k k k k k k k k k k =.W.W.W.",
"W.W.W.W.W.W.W.W.W.W.W.W.5.                                . P.W.W.W.W.W.W.W.W.W.W.W.W.W.I.$.O O O O O O O O O O O O O O O O O b.W.W.W.W.W.W.W.W.W.W.P.g % % % % % % % % % % % % % % % % g P.W.W.W.W.W.W.W.W.W.W.W.W.#.j j j j j j j j j j j j j j j j j j #.W.W.W.W.W.W.W.W.W.T.k k k k k k k k k k k k k k k k k k k k T.W.W.W.",
"W.W.W.W.W.W.W.W.W.W.W.W.I.5.                            G b.W.W.W.W.W.W.W.W.W.W.W.W.W.W.W.P.I O O O O O O O O O O O O O O O 1.W.W.W.W.W.W.W.W.W.W.W.W.x.g % % % % % % % % % % % % % % g x.W.W.W.W.W.W.W.W.W.W.W.W.W.T.c j j j j j j j j j j j j j j j j c T.W.W.W.W.W.W.W.W.W.W.g.k k k k k k k k k k k k k k k k k k g.W.W.W.W.",
"W.W.W.W.W.W.W.W.W.W.W.W.W.W.n.R                       6.W.W.W.W.W.W.W.W.W.W.W.W.W.W.W.W.W.W.W.1.O O O O O O O O O O O O - n.W.W.W.W.W.W.W.W.W.W.W.W.W.W.P.Y % % % % % % % % % % % % Y P.W.W.W.W.W.W.W.W.W.W.W.W.W.W.W.H.c j j j j j j j j j j j j j j c x.W.W.W.W.W.W.W.W.W.W.W.W.%.k k k k k k k k k k k k k k k k %.W.W.W.W.W.",
"W.W.W.W.W.W.W.W.W.W.W.W.W.W.W.W.b.~ ;           G 6.b.W.W.W.W.W.W.W.W.W.W.W.W.W.W.W.W.W.W.W.W.W.P.P O O O O O O O O ; 1.W.W.W.W.W.W.W.W.W.W.W.W.W.W.W.W.W.W.x.L % % % % % % % % L x.W.W.W.W.W.W.W.W.W.W.W.W.W.W.W.W.W.W.P.#.j j j j j j j j j j j j #.T.W.W.W.W.W.W.W.W.W.W.W.W.W.T.-.k k k k k k k k k k k k k k -.T.W.W.W.W.W.",
"W.W.W.W.W.W.W.W.W.W.W.W.W.W.W.W.W.W.P.b.5.5.5.b.P.W.W.W.W.W.W.W.W.W.W.W.W.W.W.W.W.W.W.W.W.W.W.W.W.W.T.5.R H H G 1.b.W.W.W.W.W.W.W.W.W.W.W.W.W.W.W.W.W.W.W.W.W.W.P.4.Y L L Y 4.P.W.W.W.W.W.W.W.W.W.W.W.W.W.W.W.W.W.W.W.W.W.W.H.@.j j j j j j j j @.f.W.W.W.W.W.W.W.W.W.W.W.W.W.W.W.W.W.f.b k k k k k k k k k k b D.T.W.W.W.W.W.W.",
"W.W.W.W.W.W.W.W.W.W.W.W.W.W.W.W.W.W.W.W.W.W.W.W.W.W.W.W.W.W.W.W.W.W.W.W.W.W.W.W.W.W.W.W.W.W.W.W.W.W.W.W.W.W.W.W.W.W.W.W.W.W.W.W.W.W.W.W.W.W.W.W.W.W.W.W.W.W.W.W.W.W.W.W.W.W.W.W.W.W.W.W.W.W.W.W.W.W.W.W.W.W.W.W.W.W.W.W.W.W.W.W.P.a.#.@.@.#.a.P.W.W.W.W.W.W.W.W.W.W.W.W.W.W.W.W.W.W.W.W.T.f.-.l k k k k l =.f.W.W.W.W.W.W.W.W.W.",
"W.W.W.W.W.W.W.W.W.W.W.W.W.W.W.W.W.W.W.W.W.W.W.W.W.W.W.W.W.W.W.W.W.W.W.W.W.W.W.W.W.W.W.W.W.W.W.W.W.W.W.W.W.W.W.W.W.W.W.W.W.W.W.W.W.W.W.W.W.W.W.W.W.W.W.W.W.W.W.W.W.W.W.W.W.W.W.W.W.W.W.W.W.W.W.W.W.W.W.W.W.W.W.W.W.W.W.W.W.W.W.W.W.W.W.W.W.W.W.W.W.W.W.W.W.W.W.W.W.W.W.W.W.W.W.W.W.W.W.W.W.W.W.G.D.f.f.D.G.W.W.W.W.W.W.W.W.W.W.W.",
"W.W.W.W.W.W.W.W.W.W.W.W.W.W.W.W.W.W.W.W.W.W.W.W.W.W.W.W.W.W.W.W.W.W.W.W.W.W.W.W.W.W.W.W.W.W.W.W.W.W.W.W.W.W.W.W.W.W.W.W.W.W.W.W.W.W.W.W.W.W.W.W.W.W.W.W.W.W.W.W.W.W.W.W.W.W.W.W.W.W.W.W.W.W.W.W.W.W.W.W.W.W.W.W.W.W.W.W.W.W.W.W.W.W.W.W.W.W.W.W.W.W.W.W.W.W.W.W.W.W.W.W.W.W.W.W.W.W.W.W.W.W.W.W.W.W.W.W.W.W.W.W.W.W.W.W.W.W.W.W.",
"W.W.W.W.W.W.W.W.W.W.W.W.W.W.W.W.W.W.W.W.W.W.W.W.W.W.W.W.W.W.W.W.W.W.W.W.W.W.W.W.W.W.W.W.W.W.W.W.W.W.W.W.W.W.W.W.W.W.W.W.W.W.W.W.W.W.W.W.W.W.W.W.W.W.W.W.W.W.W.W.W.W.W.W.W.W.W.W.W.W.W.W.W.W.W.W.W.W.W.W.W.W.W.W.W.W.W.W.W.W.W.W.W.W.W.W.W.W.W.W.W.W.W.W.W.W.W.W.W.W.W.W.W.W.W.W.W.W.W.W.W.W.W.W.W.W.W.W.W.W.W.W.W.W.W.W.W.W.W.W.",
"W.W.W.W.W.W.W.W.W.W.W.W.W.W.W.W.W.W.W.W.W.W.W.W.W.W.W.W.W.W.W.W.W.W.W.W.W.W.W.W.W.W.W.W.W.W.W.W.W.W.W.W.W.W.W.W.W.W.W.W.W.W.W.W.W.W.W.W.W.W.W.W.W.W.W.W.W.W.W.W.W.W.W.W.W.W.W.W.W.W.W.W.W.W.W.W.W.W.W.W.W.W.W.W.W.W.W.W.W.W.W.W.W.W.W.W.W.W.W.W.W.W.W.W.W.W.W.W.W.W.W.W.W.W.W.W.W.W.W.W.W.W.W.W.W.W.W.W.W.W.W.W.W.W.W.W.W.W.W.W.",
"W.W.W.W.W.W.W.W.W.W.W.W.W.W.W.W.W.W.W.W.W.W.W.W.W.W.W.W.W.W.W.W.W.W.W.W.W.W.W.W.W.W.W.W.W.W.W.W.W.W.W.W.W.W.W.W.W.W.W.W.W.W.W.W.W.W.W.W.W.W.W.W.W.W.W.W.W.W.W.W.W.W.W.W.W.W.W.W.W.W.W.W.W.W.W.W.W.W.W.W.W.W.W.W.W.W.W.W.W.W.W.W.W.W.W.W.W.W.W.W.W.W.W.W.W.W.W.W.W.W.W.W.W.W.W.W.W.W.W.W.W.W.W.W.W.W.W.W.W.W.W.W.W.W.W.W.W.W.W.W.",
"W.W.W.W.W.W.W.W.W.W.W.W.W.W.W.W.W.W.W.W.W.W.W.W.W.W.W.W.W.W.W.W.W.W.W.W.W.W.W.W.W.W.W.W.W.W.W.W.W.W.W.W.W.W.W.W.W.W.W.W.W.W.W.W.W.W.W.W.W.W.W.W.W.W.W.W.W.W.W.W.W.W.W.W.W.W.W.W.W.W.W.W.W.W.W.W.W.W.W.W.W.W.W.W.W.W.W.W.W.W.W.W.W.W.W.W.W.W.W.W.W.W.W.W.W.W.W.W.W.W.W.W.W.W.W.W.W.W.W.W.W.W.W.W.W.W.W.W.W.W.W.W.W.W.W.W.W.W.W.W.",
"W.W.W.W.W.W.W.W.W.W.W.W.W.W.W.W.W.W.W.W.W.W.W.W.W.W.W.W.W.W.W.W.W.W.W.W.W.W.W.W.W.W.W.W.W.W.W.W.W.W.W.W.W.W.W.W.W.W.W.W.W.W.W.W.W.W.W.W.W.W.W.W.W.W.W.W.W.W.W.W.W.W.W.W.W.W.W.W.W.W.W.W.W.W.W.W.W.W.W.W.W.W.W.W.W.W.W.W.W.W.W.W.W.W.W.W.W.W.W.W.W.W.W.W.W.W.W.W.W.W.W.W.W.W.W.W.W.W.W.W.W.W.W.W.W.W.W.W.W.W.W.W.W.W.W.W.W.W.W.W.",
"W.W.W.W.W.W.W.W.W.W.W.W.W.W.W.W.W.W.W.W.W.W.W.W.W.W.W.W.W.W.W.W.W.W.W.W.W.W.W.W.W.W.W.W.W.W.W.W.W.W.W.W.W.W.W.W.W.W.W.W.W.W.W.W.W.W.W.W.W.W.W.W.W.W.W.W.W.W.W.W.W.W.W.W.W.W.W.W.W.W.W.W.W.W.W.W.W.W.W.W.W.W.W.W.W.W.W.W.W.W.W.W.W.W.W.W.W.W.W.W.W.W.W.W.W.W.W.W.W.W.W.W.W.W.W.W.W.W.W.W.W.W.W.W.W.W.W.W.W.W.W.W.W.W.W.W.W.W.W.W.",
"W.W.W.W.W.W.W.W.W.W.W.W.W.W.W.W.W.W.W.W.W.W.W.W.W.W.W.W.W.W.W.W.W.W.W.W.W.W.W.W.W.W.W.W.W.W.W.W.W.W.W.W.W.W.W.W.W.W.W.W.W.W.W.W.W.W.W.W.W.W.W.W.W.W.W.W.W.W.W.W.W.W.W.W.W.W.W.W.W.W.W.W.W.W.W.W.W.W.W.W.W.W.W.W.W.W.W.W.W.W.W.W.W.W.W.W.W.W.W.W.W.W.W.W.W.W.W.W.W.W.W.W.W.W.W.W.W.W.W.W.W.W.W.W.W.W.W.W.W.W.W.W.W.W.W.W.W.W.W.W.",
"W.W.W.W.W.W.W.W.W.W.W.W.W.W.W.W.W.W.W.W.W.W.W.W.W.W.W.W.W.W.W.W.W.W.W.W.W.W.W.W.W.W.W.W.W.W.W.W.W.W.W.W.W.W.W.W.W.W.W.W.W.W.W.W.W.W.W.W.W.W.W.W.W.W.W.W.W.W.W.W.W.W.W.W.W.W.W.W.W.W.W.W.W.W.W.W.W.W.W.W.W.W.W.W.W.W.W.W.W.W.W.W.W.W.W.W.W.W.W.W.W.W.W.W.W.W.W.W.W.W.W.W.W.W.W.W.W.W.W.W.W.W.W.W.W.W.W.W.W.W.W.W.W.W.W.W.W.W.W.W.",
"W.W.W.W.W.W.W.W.W.W.W.W.W.W.W.W.W.W.W.W.W.W.W.W.W.W.W.W.W.W.W.W.W.W.W.W.W.W.W.W.W.W.W.W.W.W.W.W.W.W.W.W.W.W.W.W.W.W.W.W.W.W.W.W.W.W.W.W.W.W.W.W.W.W.W.W.W.W.W.W.W.W.W.W.W.W.W.W.W.W.W.W.W.W.W.W.W.W.W.W.W.W.W.W.W.W.W.W.W.W.W.W.W.W.W.W.W.W.W.W.W.W.W.W.W.W.W.W.W.W.W.W.W.W.W.W.W.W.W.W.W.W.W.W.W.W.W.W.W.W.W.W.W.W.W.W.W.W.W.W.",
"W.W.W.W.W.W.W.W.W.W.W.W.W.W.W.W.W.x.T D D D T x.W.W.W.W.W.W.W.W.W.W.W.W.W.W.W.W.W.W.W.W.W.W.W.W.W.W.W.W.W.W.W.W.W.W.W.W.W.W.W.W.W.W.W.W.W.W.W.W.W.W.W.W.W.W.W.W.W.W.W.W.W.W.W.W.W.W.W.W.W.W.W.W.W.W.W.W.W.W.W.W.W.W.W.W.W.W.W.W.W.W.W.W.W.W.W.W.W.W.W.W.W.W.W.W.W.W.W.W.W.W.W.W.W.W.W.W.W.W.W.W.W.W.W.W.W.W.W.W.W.W.W.W.W.W.W.W.",
"W.W.W.W.W.W.W.W.W.W.W.W.W.W.W.T                   T W.W.W.W.W.W.W.W.W.W.W.W.W.W.W.W.W.W.W.W.W.W.W.W.W.7.5 , , , 5 7.W.W.W.W.W.W.W.W.W.W.W.W.W.W.W.W.W.W.W.W.W.W.W.W.W.W.W.W.W.W.W.W.W.W.W.W.W.W.W.W.W.W.W.W.W.W.W.W.W.W.W.W.W.W.W.W.W.W.W.W.W.W.W.W.W.W.W.W.W.W.W.W.W.W.W.W.W.W.W.W.W.W.W.l.S Z Z Z S l.W.W.W.W.W.W.W.W.W.W.W.W.",
"W.W.W.W.W.W.W.W.W.W.W.W.W.x.                          x.W.W.W.W.W.W.W.W.W.W.W.W.W.W.W.W.W.W.W.W.W.5 , , , , , , , , , 5 W.W.W.W.W.W.W.W.W.W.W.W.W.W.W.W.W.W.W.W.u.d p p p p +.Y.W.W.W.W.W.W.W.W.W.W.W.W.W.W.W.W.W.W.W.W.W.W.W.W.W.W.W.W.W.W.W.W.W.W.W.W.W.W.W.W.W.W.W.W.W.W.W.W.W.W.W.S Z Z Z Z Z Z Z Z Z S W.W.W.W.W.W.W.W.W.W.",
"W.W.W.W.W.W.W.W.W.W.W.W.T                               T W.W.W.W.W.W.W.W.W.W.W.W.W.W.W.W.W.W.7., , , , , , , , , , , , , 7.W.W.W.W.W.W.W.W.W.W.W.W.W.W.W.W.f p p p p p p p p p p A.W.W.W.W.W.W.W.W.W.W.W.W.W.W.W.W.W.W.W.W.B...` ` ` ..B.W.W.W.W.W.W.W.W.W.W.W.W.W.W.W.W.W.W.W.W.l.Z Z Z Z Z Z Z Z Z Z Z Z Z l.W.W.W.W.W.W.W.W.",
"W.W.W.W.W.W.W.W.W.W.W.x.                                  x.W.W.W.W.W.W.W.W.W.W.W.W.W.W.W.W.5 , , , , , , , , , , , , , , , 5 W.W.W.W.W.W.W.W.W.W.W.W.W.u.p p p p p p p p p p p p p f Y.W.W.W.W.W.W.W.W.W.W.W.W.W.W.W.W...0 0 0 0 0 0 0 0 0 ..W.W.W.W.W.W.W.W.W.W.W.W.W.W.W.W.W.S Z Z Z Z Z Z Z Z Z Z Z Z Z Z Z S W.W.W.W.W.W.W.",
"W.W.W.W.W.W.W.W.W.W.W.                                      W.W.W.W.W.W.W.W.W.W.W.W.W.W.W.7., , , , , , , , , , , , , , , , , 7.W.W.W.W.W.W.W.W.W.W.W.f p p p p p p p p p p p p p p p p A.W.W.W.W.W.W.W.W.W.W.W.W.W.B.0 0 0 0 0 0 0 0 0 0 0 0 0 B.W.W.W.W.W.W.W.W.W.W.W.W.W.W.l.Z Z Z Z Z Z Z Z Z Z Z Z Z Z Z Z Z l.W.W.W.W.W.W.",
"W.W.W.W.W.W.W.W.W.W.T                                       T W.W.W.W.W.W.W.W.W.W.W.W.W.W., , , , , , , , , , , , , , , , , , , W.W.W.W.W.W.W.W.W.W.u.p p p p p p p p p p p p p p p p p f Y.W.W.W.W.W.W.W.W.W.W.W...0 0 0 0 0 0 0 0 0 0 0 0 0 0 0 ..W.W.W.W.W.W.W.W.W.W.W.W.W.Z Z Z Z Z Z Z Z Z Z Z Z Z Z Z Z Z Z Z W.W.W.W.W.W.",
"W.W.W.W.W.W.W.W.W.W.                                          W.W.W.W.W.W.W.W.W.W.W.W.W.5 , , , , , , , , , , , , , , , , , , , 5 W.W.W.W.W.W.W.W.W.p p p p p p p p p p p p p p p p p p p u.W.W.W.W.W.W.W.W.W.W.B.0 0 0 0 0 0 0 0 0 0 0 0 0 0 0 0 0 B.W.W.W.W.W.W.W.W.W.W.W.S Z Z Z Z Z Z Z Z Z Z Z Z Z Z Z Z Z Z Z S W.W.W.W.W.",
"W.W.W.W.W.W.W.W.W.x.                                          x.W.W.W.W.W.W.W.W.W.W.W.W., , , , , , , , , , , , , , , , , , , , , W.W.W.W.W.W.W.W.f p p p p p p p p p p p p p p p p p p p p A.W.W.W.W.W.W.W.W.W.0 0 0 0 0 0 0 0 0 0 0 0 0 0 0 0 0 0 0 W.W.W.W.W.W.W.W.W.W.W.Z Z Z Z Z Z Z Z Z Z Z Z Z Z Z Z Z Z Z Z Z W.W.W.W.W.",
"W.W.W.W.W.W.W.W.W.D                                           D W.W.W.W.W.W.W.W.W.W.W.7., , , , , , , , , , , , , , , , , , , , , 7.W.W.W.W.W.W.W.p p p p p p p p p p p p p p p p p p p p p u.W.W.W.W.W.W.W.W...0 0 0 0 0 0 0 0 0 0 0 0 0 0 0 0 0 0 0 ..W.W.W.W.W.W.W.W.W.l.Z Z Z Z Z Z Z Z Z Z Z Z Z Z Z Z Z Z Z Z Z l.W.W.W.W.",
"W.W.W.W.W.W.W.W.W.                                              W.W.W.W.W.W.W.W.W.W.W.4 , , , , , , , , , , , , , , , , , , , , , 4 W.W.W.W.W.W.u.p p p p p p p p p p p p p p p p p p p p p f Y.W.W.W.W.W.W.W.0 0 0 0 0 0 0 0 0 0 0 0 0 0 0 0 0 0 0 0 0 W.W.W.W.W.W.W.W.W.A Z Z Z Z Z Z Z Z Z Z Z Z Z Z Z Z Z Z Z Z Z A W.W.W.W.",
"W.W.W.W.W.W.W.W.W.                                              W.W.W.W.W.W.W.W.W.W.W., , , , , , , , , , , , , , , , , , , , , , , W.W.W.W.W.W.f p p p p p p p p p p p p p p p p p p p p p p A.W.W.W.W.W.W.B.0 0 0 0 0 0 0 0 0 0 0 0 0 0 0 0 0 0 0 0 0 B.W.W.W.W.W.W.W.W.Z Z Z Z Z Z Z Z Z Z Z Z Z Z Z Z Z Z Z Z Z Z Z W.W.W.W.",
"W.W.W.W.W.W.W.W.W.                                              W.W.W.W.W.W.W.W.W.W.W., , , , , , , , , , , , , , , , , , , , , , , W.W.W.W.W.W.p p p p p p p p p p p p p p p p p p p p p p p p.W.W.W.W.W.W.` 0 0 0 0 0 0 0 0 0 0 0 0 0 0 0 0 0 0 0 0 0 ` W.W.W.W.W.W.W.W.Z Z Z Z Z Z Z Z Z Z Z Z Z Z Z Z Z Z Z Z Z Z Z W.W.W.W.",
"W.W.W.W.W.W.W.W.W.                                              W.W.W.W.W.W.W.W.W.W.W., , , , , , , , , , , , , , , , , , , , , , , W.W.W.W.W.W.p p p p p p p p p p p p p p p p p p p p p p p p.W.W.W.W.W.W.0 0 0 0 0 0 0 0 0 0 0 0 0 0 0 0 0 0 0 0 0 0 0 W.W.W.W.W.W.W.W.Z Z Z Z Z Z Z Z Z Z Z Z Z Z Z Z Z Z Z Z Z Z Z W.W.W.W.",
"W.W.W.W.W.W.W.W.W.D                                           D W.W.W.W.W.W.W.W.W.W.W., , , , , , , , , , , , , , , , , , , , , , , W.W.W.W.W.W.p p p p p p p p p p p p p p p p p p p p p p p p.W.W.W.W.W.W.0 0 0 0 0 0 0 0 0 0 0 0 0 0 0 0 0 0 0 0 0 0 0 W.W.W.W.W.W.W.W.Z Z Z Z Z Z Z Z Z Z Z Z Z Z Z Z Z Z Z Z Z Z Z W.W.W.W.",
"W.W.W.W.W.W.W.W.W.x.                                          x.W.W.W.W.W.W.W.W.W.W.W./ , , , , , , , , , , , , , , , , , , , , , / W.W.W.W.W.W.f p p p p p p p p p p p p p p p p p p p p p p A.W.W.W.W.W.W.0 0 0 0 0 0 0 0 0 0 0 0 0 0 0 0 0 0 0 0 0 0 0 W.W.W.W.W.W.W.W.<.Z Z Z Z Z Z Z Z Z Z Z Z Z Z Z Z Z Z Z Z Z <.W.W.W.W.",
"W.W.W.W.W.W.W.W.W.W.                                          W.W.W.W.W.W.W.W.W.W.W.W.I., , , , , , , , , , , , , , , , , , , , , I.W.W.W.W.W.W.u.p p p p p p p p p p p p p p p p p p p p p f Y.W.W.W.W.W.W.0 0 0 0 0 0 0 0 0 0 0 0 0 0 0 0 0 0 0 0 0 0 0 W.W.W.W.W.W.W.W.E.Z Z Z Z Z Z Z Z Z Z Z Z Z Z Z Z Z Z Z Z Z E.W.W.W.W.",
"W.W.W.W.W.W.W.W.W.W.T                                       T W.W.W.W.W.W.W.W.W.W.W.W.W., , , , , , , , , , , , , , , , , , , , , W.W.W.W.W.W.W.W.p p p p p p p p p p p p p p p p p p p p p u.W.W.W.W.W.W.W.` 0 0 0 0 0 0 0 0 0 0 0 0 0 0 0 0 0 0 0 0 0 ` W.W.W.W.W.W.W.W.W.Z Z Z Z Z Z Z Z Z Z Z Z Z Z Z Z Z Z Z Z Z W.W.W.W.W.",
"W.W.W.W.W.W.W.W.W.W.W.                                      W.W.W.W.W.W.W.W.W.W.W.W.W.W.M., , , , , , , , , , , , , , , , , , , M.W.W.W.W.W.W.W.W.f p p p p p p p p p p p p p p p p p p p p A.W.W.W.W.W.W.W.B.0 0 0 0 0 0 0 0 0 0 0 0 0 0 0 0 0 0 0 0 0 B.W.W.W.W.W.W.W.W.W.L.Z Z Z Z Z Z Z Z Z Z Z Z Z Z Z Z Z Z Z L.W.W.W.W.W.",
"W.W.W.W.W.W.W.W.W.W.W.x.                                  x.W.W.W.W.W.W.W.W.W.W.W.W.W.W.W.5 , , , , , , , , , , , , , , , , , 5 W.W.W.W.W.W.W.W.W.W.p p p p p p p p p p p p p p p p p p p u.W.W.W.W.W.W.W.W.W.0 0 0 0 0 0 0 0 0 0 0 0 0 0 0 0 0 0 0 0 0 W.W.W.W.W.W.W.W.W.W.W.S Z Z Z Z Z Z Z Z Z Z Z Z Z Z Z Z Z S W.W.W.W.W.W.",
"W.W.W.W.W.W.W.W.W.W.W.W.T                               T W.W.W.W.W.W.W.W.W.W.W.W.W.W.W.W.I., , , , , , , , , , , , , , , , , I.W.W.W.W.W.W.W.W.W.W.u.p p p p p p p p p p p p p p p p p f Y.W.W.W.W.W.W.W.W.W...0 0 0 0 0 0 0 0 0 0 0 0 0 0 0 0 0 0 0 ..W.W.W.W.W.W.W.W.W.W.W.E.Z Z Z Z Z Z Z Z Z Z Z Z Z Z Z Z Z E.W.W.W.W.W.W.",
"W.W.W.W.W.W.W.W.W.W.W.W.W.x.                          x.W.W.W.W.W.W.W.W.W.W.W.W.W.W.W.W.W.W.0.Q , , , , , , , , , , , , , 5 m.W.W.W.W.W.W.W.W.W.W.W.W.f p p p p p p p p p p p p p p p p A.W.W.W.W.W.W.W.W.W.W.W.0 0 0 0 0 0 0 0 0 0 0 0 0 0 0 0 0 0 0 W.W.W.W.W.W.W.W.W.W.W.W.W.z.<.Z Z Z Z Z Z Z Z Z Z Z Z Z S L.W.W.W.W.W.W.W.",
"W.W.W.W.W.W.W.W.W.W.W.W.W.W.W.T                   T W.W.W.W.W.W.W.W.W.W.W.W.W.W.W.W.W.W.W.W.W.I.7., , , , , , , , , , , 7.I.W.W.W.W.W.W.W.W.W.W.W.W.W.W.u.p p p p p p p p p p p p p +.Y.W.W.W.W.W.W.W.W.W.W.W.W.B.0 0 0 0 0 0 0 0 0 0 0 0 0 0 0 0 0 B.W.W.W.W.W.W.W.W.W.W.W.W.E.E.E.l.Z Z Z Z Z Z Z Z Z Z Z l.E.W.W.W.W.W.W.W.W.",
"W.W.W.W.W.W.W.W.W.W.W.W.W.W.W.W.W.x.T D D D T 5.W.W.W.W.W.W.W.W.W.W.W.W.W.W.W.W.W.W.W.W.W.W.W.W.W.M.7.5 , , , , , 5 7.M.W.W.W.W.W.W.W.W.W.W.W.W.W.W.W.W.W.W.f p p p p p p p p p p A.W.W.W.W.W.W.W.W.W.W.W.W.W.W.W...0 0 0 0 0 0 0 0 0 0 0 0 0 0 0 ..W.W.W.W.W.W.W.W.W.W.W.W.W.W.W.W.W.L.l.S Z Z Z Z Z S l.L.W.W.W.W.W.W.W.W.W.W.",
"W.W.W.W.W.W.W.W.W.W.W.W.W.W.W.W.W.W.W.W.W.W.W.W.W.W.W.W.W.W.W.W.W.W.W.W.W.W.W.W.W.W.W.W.W.W.W.W.W.W.W.I.M.0.0.0.M.I.W.W.W.W.W.W.W.W.W.W.W.W.W.W.W.W.W.W.W.W.W.W.u.d p p p p +.Y.W.W.W.W.W.W.W.W.W.W.W.W.W.W.W.W.W.W.B.0 0 0 0 0 0 0 0 0 0 0 0 0 B.W.W.W.W.W.W.W.W.W.W.W.W.W.W.W.W.W.W.W.W.E.L.z.z.z.L.T.W.W.W.W.W.W.W.W.W.W.W.W.",
"W.W.W.W.W.W.W.W.W.W.W.W.W.W.W.W.W.W.W.W.W.W.W.W.W.W.W.W.W.W.W.W.W.W.W.W.W.W.W.W.W.W.W.W.W.W.W.W.W.W.W.W.W.W.W.W.W.W.W.W.W.W.W.W.W.W.W.W.W.W.W.W.W.W.W.W.W.W.W.W.W.W.W.W.W.W.W.W.W.W.W.W.W.W.W.W.W.W.W.W.W.W.W.W.W.W.W.W...0 0 0 0 0 0 0 0 0 ..W.W.W.W.W.W.W.W.W.W.W.W.W.W.W.W.W.W.W.W.W.W.W.W.W.W.W.W.W.W.W.W.W.W.W.W.W.W.W.W.W.",
"W.W.W.W.W.W.W.W.W.W.W.W.W.W.W.W.W.W.W.W.W.W.W.W.W.W.W.W.W.W.W.W.W.W.W.W.W.W.W.W.W.W.W.W.W.W.W.W.W.W.W.W.W.W.W.W.W.W.W.W.W.W.W.W.W.W.W.W.W.W.W.W.W.W.W.W.W.W.W.W.W.W.W.W.W.W.W.W.W.W.W.W.W.W.W.W.W.W.W.W.W.W.W.W.W.W.W.W.W.W.B...` ` ` ..B.W.W.W.W.W.W.W.W.W.W.W.W.W.W.W.W.W.W.W.W.W.W.W.W.W.W.W.W.W.W.W.W.W.W.W.W.W.W.W.W.W.W.W.",
"W.W.W.W.W.W.W.W.W.W.W.W.W.W.W.W.W.W.W.W.W.W.W.W.W.W.W.W.W.W.W.W.W.W.W.W.W.W.W.W.W.W.W.W.W.W.W.W.W.W.W.W.W.W.W.W.W.W.W.W.W.W.W.W.W.W.W.W.W.W.W.W.W.W.W.W.W.W.W.W.W.W.W.W.W.W.W.W.W.W.W.W.W.W.W.W.W.W.W.W.W.W.W.W.W.W.W.W.W.W.W.W.W.W.W.W.W.W.W.W.W.W.W.W.W.W.W.W.W.W.W.W.W.W.W.W.W.W.W.W.W.W.W.W.W.W.W.W.W.W.W.W.W.W.W.W.W.W.W.W.",
"W.W.W.W.W.W.W.W.W.W.W.W.W.T.-.v k k k %.f.W.W.W.W.W.W.W.W.W.W.W.W.W.W.W.W.W.W.W.W.W.W.W.W.R.,.m m m m B h.W.W.W.W.W.W.W.W.W.W.W.W.W.W.W.W.W.W.W.W.W.W.m.8.! ! ! o.i.W.W.W.W.W.W.W.W.W.W.W.W.W.W.W.W.W.W.W.W.W.W.U.t. .} }  .t.U.W.W.W.W.W.W.W.W.W.W.W.W.W.W.W.W.W.W.W.W.W.W.W.R.R.K.D.D.j.j.K.W.W.W.W.W.W.W.W.W.W.W.W.W.W.W.W.W.",
"W.W.W.W.W.W.W.W.W.W.W.G.z k k k k k k k k k =.W.W.W.W.W.W.W.W.W.W.W.W.W.W.W.W.W.W.W.W.J.m m m m m m m m m m V W.W.W.W.W.W.W.W.W.W.W.W.W.W.W.W.W.W.8.s 2 2 2 2 2 i i 2 _ I.W.W.W.W.W.W.W.W.W.W.W.W.W.W.W.W.W.C.} r r r r r r r r } C.W.W.W.W.W.W.W.W.W.W.W.W.W.W.W.W.W.W.W.W.T.j.;.n x x x x x :.j.K.W.W.W.W.W.W.W.W.W.W.W.W.W.W.",
"W.W.W.W.W.W.W.W.W.T.=.k k k k k k k k k k k k k f.W.W.W.W.W.W.W.W.W.W.W.W.W.W.W.W.R.V m m m m m m m m m m m m m h.W.W.W.W.W.W.W.W.W.W.W.W.W.W.i.s i 2 2 2 2 2 2 2 2 2 2 2 8.W.W.W.W.W.W.W.W.W.W.W.W.W.W.U. .r r r r r r r r r r r r  .U.W.W.W.W.W.W.W.W.W.W.W.W.W.W.W.W.W.j.M n n n x x x x x x n M j.W.W.W.W.W.W.W.W.W.W.W.W.W.",
"W.W.W.W.W.W.W.W.G.l k k k k k k k k k k k k k k k =.W.W.W.W.W.W.W.W.W.W.W.W.W.W.J.m m m m m m m m m m m m m m m m V W.W.W.W.W.W.W.W.W.W.W.W.8.i 2 2 2 2 2 2 2 2 2 2 2 2 2 2 _ I.W.W.W.W.W.W.W.W.W.W.W.C.C r r r r r r r r r r r r r r C C.W.W.W.W.W.W.W.W.W.W.W.W.W.W.K.>.x x x x x x x x x x x x x x >.T.W.W.W.W.W.W.W.W.W.W.W.",
"W.W.W.W.W.W.W.T.%.k k k k k k k k k k k k k k k k k f.W.W.W.W.W.W.W.W.W.W.W.W.R.V m m m m m m m m m m m m m m m m m h.W.W.W.W.W.W.W.W.W.W.m.2 2 2 2 2 2 2 2 2 2 2 2 2 2 2 2 2 O.W.W.W.W.W.W.W.W.W.W.U.C r r r r r r r r r r r r r r r r C U.W.W.W.W.W.W.W.W.W.W.W.W.R.;.n x x x x x x x x x x x x x x x ;.W.W.W.W.W.W.W.W.W.W.W.",
"W.W.W.W.W.W.W.g.k k k k k k k k k k k k k k k k k k k W.W.W.W.W.W.W.W.W.W.W.W.h.m m m m m m m m m m m m m m m m m m m W.W.W.W.W.W.W.W.W.W.2 2 2 2 2 2 2 2 2 2 2 2 2 2 2 2 2 2 2 i.W.W.W.W.W.W.W.W.W. .r r r r r r r r r r r r r r r r r r  .W.W.W.W.W.W.W.W.W.W.W.W.d.n n n x x x x x x x x x x x x x x x d.W.W.W.W.W.W.W.W.W.W.",
"W.W.W.W.W.W.G.k k k k k k k k k k k k k k k k k k k k %.W.W.W.W.W.W.W.W.W.W.J.m m m m m m m m m m m m m m m m m m m m V W.W.W.W.W.W.W.W.8.i 2 2 2 2 2 2 2 2 2 2 2 2 2 2 2 2 2 2 a I.W.W.W.W.W.W.W.C.r r r r r r r r r r r r r r r r r r r r C.W.W.W.W.W.W.W.W.W.W.T.x x x x x x x x x x x x x x x x x x x x T.W.W.W.W.W.W.W.W.W.",
"W.W.W.W.W.W.g.k k k k k k k k k k k k k k k k k k k k k W.W.W.W.W.W.W.W.W.W.h.m m m m m m m m m m m m m m m m m m m m m W.W.W.W.W.W.W.W.2 2 2 2 2 2 2 2 2 2 2 2 2 2 2 2 2 2 2 2 i i.W.W.W.W.W.W.W.} r r r r r r r r r r r r r r r r r r r r } W.W.W.W.W.W.W.W.W.W.;.n n x x x x x x x x x x x x x x x x x x ;.W.W.W.W.W.W.W.W.W.",
"W.W.W.W.W.T.%.k k k k k k k k k k k k k k k k k k k k k f.W.W.W.W.W.W.W.W.R.V m m m m m m m m m m m m m m m m m m m m m h.W.W.W.W.W.W.m.2 2 2 2 2 2 2 2 2 2 2 2 2 2 2 2 2 2 2 2 i o.Y.W.W.W.W.W.U.r r r r r r r r r r r r r r r r r r r r r r U.W.W.W.W.W.W.W.W.R.x x x x x x x x x x x x x x x x x x x x x x W.W.W.W.W.W.W.W.W.",
"W.W.W.W.W.G.k k k k k k k k k k k k k k k k k k k k k k %.W.W.W.W.W.W.W.W.J.m m m m m m m m m m m m m m m m m m m m m m V W.W.W.W.W.W.o.2 2 2 2 2 2 2 2 2 2 2 2 2 2 2 2 2 2 2 2 i i m.W.W.W.W.W.t.r r r r r r r r r r r r r r r r r r r r r r t.W.W.W.W.W.W.W.W.j.x x x x x x x x x x x x x x x x x x x x x x j.W.W.W.W.W.W.W.W.",
"W.W.W.W.W.D.k k k k k k k k k k k k k k k k k k k k k k k W.W.W.W.W.W.W.W.k.m m m m m m m m m m m m m m m m m m m m m m m W.W.W.W.W.W.2 2 2 2 2 2 2 2 2 2 2 2 2 2 2 2 2 2 2 2 2 i i i.Y.W.W.W.W. .r r r r r r r r r r r r r r r r r r r r r r  .W.W.W.W.W.W.W.W.>.x x x x x x x x x x x x x x x x x x x x x x >.W.W.W.W.W.W.W.W.",
"W.W.W.W.W.f.k k k k k k k k k k k k k k k k k k k k k k k W.W.W.W.W.W.W.W.k.m m m m m m m m m m m m m m m m m m m m m m m W.W.W.W.W.W.2 2 2 2 2 2 2 2 2 2 2 2 2 2 2 2 2 2 2 2 2 2 2 i.W.W.W.W.W.} r r r r r r r r r r r r r r r r r r r r r r } W.W.W.W.W.W.W.W.*.x x x x x x x x x x x x x x x x x x x x x x *.W.W.W.W.W.W.W.W.",
"W.W.W.W.W.f.k k k k k k k k k k k k k k k k k k k k k k k W.W.W.W.W.W.W.W.k.m m m m m m m m m m m m m m m m m m m m m m m W.W.W.W.W.W.2 2 2 2 2 2 2 2 2 2 2 2 2 2 2 2 2 2 2 2 2 2 2 i.W.W.W.W.W.} r r r r r r r r r r r r r r r r r r r r r r } W.W.W.W.W.W.W.W.*.x x x x x x x x x x x x x x x x x x x x x x *.W.W.W.W.W.W.W.W.",
"W.W.W.W.W.G.k k k k k k k k k k k k k k k k k k k k k k v W.W.W.W.W.W.W.W.J.m m m m m m m m m m m m m m m m m m m m m m V W.W.W.W.W.Y.i 2 2 2 2 2 2 2 2 2 2 2 2 2 2 2 2 2 2 2 2 2 2 i.W.W.W.W.W. .r r r r r r r r r r r r r r r r r r r r r r  .W.W.W.W.W.W.W.W.*.x x x x x x x x x x x x x x x x x x x x x x *.W.W.W.W.W.W.W.W.",
"W.W.W.W.W.T.v k k k k k k k k k k k k k k k k k k k k k -.W.W.W.W.W.W.W.W.R.V m m m m m m m m m m m m m m m m m m m m m h.W.W.W.W.W.W.o.2 2 2 2 2 2 2 2 2 2 2 2 2 2 2 2 2 2 2 2 2 i S.W.W.W.W.W.t.r r r r r r r r r r r r r r r r r r r r r r t.W.W.W.W.W.W.W.W.d.x x x x x x x x x x x x x x x x x x x x x x d.W.W.W.W.W.W.W.W.",
"W.W.W.W.W.W.-.k k k k k k k k k k k k k k k k k k k k k T.W.W.W.W.W.W.W.W.W.h.m m m m m m m m m m m m m m m m m m m m m W.W.W.W.W.W.W.m.2 2 2 2 2 2 2 2 2 2 2 2 2 2 2 2 2 2 2 2 2 o.W.W.W.W.W.W.U.r r r r r r r r r r r r r r r r r r r r r r U.W.W.W.W.W.W.W.W.F.x x x x x x x x x x x x x x x x x x x x x x F.W.W.W.W.W.W.W.W.",
"W.W.W.W.W.W.G.k k k k k k k k k k k k k k k k k k k k z W.W.W.W.W.W.W.W.W.W.J.m m m m m m m m m m m m m m m m m m m m V W.W.W.W.W.W.W.W.2 2 2 2 2 2 2 2 2 2 2 2 2 2 2 2 2 2 2 2 2 i.W.W.W.W.W.W.W.} r r r r r r r r r r r r r r r r r r r r } W.W.W.W.W.W.W.W.W.W.N x x x x x x x x x x x x x x x x x x x x N W.W.W.W.W.W.W.W.W.",
"W.W.W.W.W.W.W.=.k k k k k k k k k k k k k k k k k k k G.W.W.W.W.W.W.W.W.W.W.W.h.m m m m m m m m m m m m m m m m m m m W.W.W.W.W.W.W.W.W.8.i 2 2 2 2 2 2 2 2 2 2 2 2 2 2 2 2 i i a I.W.W.W.W.W.W.W.C.r r r r r r r r r r r r r r r r r r r r C.W.W.W.W.W.W.W.W.W.W.d.x x x x x x x x x x x x x x x x x x x x d.W.W.W.W.W.W.W.W.W.",
"W.W.W.W.W.W.W.T.k k k k k k k k k k k k k k k k k k %.W.W.W.W.W.W.W.W.W.W.W.W.R.V m m m m m m m m m m m m m m m m m h.W.W.W.W.W.W.W.W.W.W.2 2 2 2 2 2 2 2 2 2 2 2 2 2 2 2 2 2 i i.W.W.W.W.W.W.W.W.W. .r r r r r r r r r r r r r r r r r r  .W.W.W.W.W.W.W.W.W.W.W.W.N x x x x x x x x x x x x x x x x x x N W.W.W.W.W.W.W.W.W.W.",
"W.W.W.W.W.W.W.W.f.k k k k k k k k k k k k k k k k l W.W.W.W.W.W.W.W.W.W.W.W.W.W.J.m m m m m m m m m m m m m m m m V W.W.W.W.W.W.W.W.W.W.W.m.i 2 2 2 2 2 2 2 2 2 2 2 2 2 2 2 2 O.W.W.W.W.W.W.W.W.W.W.U.C r r r r r r r r r r r r r r r r C U.W.W.W.W.W.W.W.W.W.W.W.W.F.x x x x x x x x x x x x x x x x x x G.W.W.W.W.W.W.W.W.W.W.",
"W.W.W.W.W.W.W.W.W.f.k k k k k k k k k k k k k k %.G.W.W.W.W.W.W.W.W.W.W.W.W.W.W.W.R.V m m m m m m m m m m m m m h.W.W.W.W.W.W.W.W.W.W.W.W.W.8.i 2 2 2 2 2 2 2 2 2 2 2 2 2 2 _ I.W.W.W.W.W.W.W.W.W.W.W.C.C r r r r r r r r r r r r r r C C.W.W.W.W.W.W.W.W.W.W.W.W.W.W.d.x x x x x x x x x x x x x x x x d.W.W.W.W.W.W.W.W.W.W.W.",
"W.W.W.W.W.W.W.W.W.W.G.-.k k k k k k k k k k k g.T.W.W.W.W.W.W.W.W.W.W.W.W.W.W.W.W.W.W.J.m m m m m m m m m m V W.W.W.W.W.W.W.W.W.W.W.W.W.W.W.W.m.s 2 2 2 2 2 2 2 2 2 2 2 i 8.W.W.W.W.W.W.W.W.W.W.W.W.W.W.U. .r r r r r r r r r r r r  .U.W.W.W.W.W.W.W.W.W.W.W.W.W.W.W.W.F.x x x x x x x x x x x x x x G.W.W.W.W.W.W.W.W.W.W.W.W.",
"W.W.W.W.W.W.W.W.W.W.W.W.D.s.v k k k k k %.g.G.W.W.W.W.W.W.W.W.W.W.W.W.W.W.W.W.W.W.W.W.W.W.R.,.m m m m B h.W.W.W.W.W.W.W.W.W.W.W.W.W.W.W.W.W.W.W.W.8.s 2 2 2 2 2 2 2 2 o.S.W.W.W.W.W.W.W.W.W.W.W.W.W.W.W.W.W.C.} r r r r r r r r } C.W.W.W.W.W.W.W.W.W.W.W.W.W.W.W.W.W.W.W.W.d.x x x x x x x x n x d.W.W.W.W.W.W.W.W.W.W.W.W.W.W.",
"W.W.W.W.W.W.W.W.W.W.W.W.W.W.G.D.f.f.f.G.T.W.W.W.W.W.W.W.W.W.W.W.W.W.W.W.W.W.W.W.W.W.W.W.W.W.W.W.W.W.W.W.W.W.W.W.W.W.W.W.W.W.W.W.W.W.W.W.W.W.W.W.W.W.W.m.8.! ! ! o.i.Y.W.W.W.W.W.W.W.W.W.W.W.W.W.W.W.W.W.W.W.W.W.U.t. .} }  .t.U.W.W.W.W.W.W.W.W.W.W.W.W.W.W.W.W.W.W.W.W.W.W.W.W.G.:.x x x x :.F.W.W.W.W.W.W.W.W.W.W.W.W.W.W.W.W.",
"W.W.W.W.W.W.W.W.W.W.W.W.W.W.W.W.W.W.W.W.W.W.W.W.W.W.W.W.W.W.W.W.W.W.W.W.W.W.W.W.W.W.W.W.W.W.W.W.W.W.W.W.W.W.W.W.W.W.W.W.W.W.W.W.W.W.W.W.W.W.W.W.W.W.W.W.W.W.W.W.W.W.W.W.W.W.W.W.W.W.W.W.W.W.W.W.W.W.W.W.W.W.W.W.W.W.W.W.W.W.W.W.W.W.W.W.W.W.W.W.W.W.W.W.W.W.W.W.W.W.W.W.W.W.W.W.W.W.W.W.W.W.W.W.W.W.W.W.W.W.W.W.W.W.W.W.W.W.W.W.",
"W.W.W.W.W.W.W.W.W.W.W.W.W.W.W.W.W.W.W.W.W.W.W.W.W.W.W.W.W.W.W.W.W.W.W.W.W.W.W.W.W.W.W.W.W.W.W.W.W.W.W.W.W.W.W.W.W.W.W.W.W.W.W.W.W.W.W.W.W.W.W.W.W.W.W.W.W.W.W.W.W.W.W.W.W.W.W.W.W.W.W.W.W.W.W.W.W.W.W.W.W.W.W.W.W.W.W.W.W.W.W.W.W.W.W.W.W.W.W.W.W.W.W.W.W.W.W.W.W.W.W.W.W.W.W.W.W.W.W.W.W.W.W.W.W.W.W.W.W.W.W.W.W.W.W.W.W.W.W.W.",
"W.W.W.W.W.W.W.W.W.W.W.W.W.W.W.W.W.W.W.W.W.W.W.W.W.W.W.W.W.W.W.W.W.W.W.W.W.W.W.W.W.W.W.W.W.W.W.W.W.W.W.W.W.W.W.W.W.W.W.W.W.W.W.W.W.W.W.W.W.W.W.W.W.W.W.W.W.W.W.W.W.W.W.W.W.W.W.W.W.W.W.W.W.W.W.W.W.W.W.W.W.W.W.W.W.W.W.W.W.W.W.W.W.W.W.W.W.W.W.W.W.W.W.W.W.W.W.W.W.W.W.W.W.W.W.W.W.W.W.W.W.W.W.W.W.W.W.W.W.W.W.W.W.W.W.W.W.W.W.W."
};
