/* XPM */
static const char *defeat[] = {
/* columns rows colors chars-per-pixel */
"800 600 245 2 ",
"   c #000000",
".  c #0B0000",
"X  c #020902",
"o  c #0E0905",
"O  c #020209",
"+  c #0A0409",
"@  c #020A0A",
"#  c #0E0A0A",
"$  c #120000",
"%  c #1C0202",
"&  c #150A06",
"*  c #1D0A06",
"=  c #150709",
"-  c #1D0709",
";  c #160B0A",
":  c #1B0A0A",
">  c #001300",
",  c #0E100B",
"<  c #1B100B",
"1  c #141009",
"2  c #170C10",
"3  c #1A0D10",
"4  c #1E0711",
"5  c #1C1110",
"6  c #030710",
"7  c #230201",
"8  c #2C0101",
"9  c #220905",
"0  c #2A0904",
"q  c #21070A",
"w  c #2A040A",
"e  c #210A0B",
"r  c #290A0A",
"t  c #320000",
"y  c #3B0000",
"u  c #380B06",
"i  c #23110C",
"p  c #3D150D",
"a  c #3E160A",
"s  c #220B11",
"d  c #2E1B15",
"f  c #2E1B1B",
"g  c #2C1514",
"h  c #341615",
"j  c #3E1614",
"k  c #331A16",
"l  c #3D1B15",
"z  c #3C1619",
"x  c #341C1B",
"c  c #3D1D1B",
"v  c #341719",
"b  c #372507",
"n  c #3E2116",
"m  c #35211D",
"M  c #3C211C",
"N  c #372113",
"B  c #2A2C0C",
"V  c #351D20",
"C  c #3C1E21",
"Z  c #272221",
"A  c #352222",
"S  c #3B2222",
"D  c #1C3305",
"F  c #430000",
"G  c #4C0000",
"H  c #440C0C",
"J  c #4C0C0A",
"K  c #4C0707",
"L  c #540201",
"P  c #5B0201",
"I  c #540409",
"U  c #580909",
"Y  c #44140E",
"T  c #4C140E",
"R  c #441B0E",
"E  c #4B190E",
"W  c #431805",
"Q  c #51140E",
"!  c #52180F",
"~  c #4A0E14",
"^  c #530F13",
"/  c #451514",
"(  c #4D1614",
")  c #441B16",
"_  c #4B1915",
"`  c #441619",
"'  c #4C1619",
"]  c #441C1B",
"[  c #4A1A1A",
"{  c #511514",
"}  c #591514",
"|  c #521915",
" . c #521519",
".. c #521A1A",
"X. c #591A1B",
"o. c #5B1818",
"O. c #630101",
"+. c #6C0303",
"@. c #640609",
"#. c #6D050A",
"$. c #620909",
"%. c #680908",
"&. c #720302",
"*. c #790203",
"=. c #7C050A",
"-. c #740B0B",
";. c #7B0B0B",
":. c #770707",
">. c #77120C",
",. c #77140C",
"<. c #6A0A11",
"1. c #750D11",
"2. c #790C15",
"3. c #6C1314",
"4. c #6E1D1C",
"5. c #691918",
"6. c #7C1413",
"7. c #731B15",
"8. c #7C1A15",
"9. c #7D161B",
"0. c #751D1C",
"q. c #7B1B1B",
"w. c #731517",
"e. c #69100C",
"r. c #422016",
"t. c #43211C",
"y. c #4A211C",
"u. c #482014",
"i. c #52211C",
"p. c #69241C",
"a. c #73211C",
"s. c #7A201F",
"d. c #4A1720",
"f. c #441D21",
"g. c #4A1C21",
"h. c #461721",
"j. c #511C22",
"k. c #6E1920",
"l. c #751E22",
"z. c #7B1D21",
"x. c #781623",
"c. c #432121",
"v. c #4C2222",
"b. c #4B2D2C",
"n. c #5D2624",
"m. c #5C2925",
"M. c #5B2829",
"N. c #4A3032",
"B. c #4D2F31",
"V. c #642623",
"C. c #6A2423",
"Z. c #65272A",
"A. c #652828",
"S. c #722222",
"D. c #772125",
"F. c #613131",
"G. c #713433",
"H. c #145D01",
"J. c #1D5607",
"K. c #1E5814",
"L. c #24570B",
"P. c #394716",
"I. c #265716",
"U. c #2B5019",
"Y. c #0D6202",
"T. c #166303",
"R. c #246104",
"E. c #830304",
"W. c #8C0404",
"Q. c #8D0906",
"!. c #830609",
"~. c #8C0609",
"^. c #840C0C",
"/. c #8C0D0B",
"(. c #830A05",
"). c #940503",
"_. c #9C0505",
"`. c #940B06",
"'. c #9B0B06",
"]. c #95060A",
"[. c #9C060B",
"{. c #940D0C",
"}. c #9C0C0C",
"|. c #84130D",
" X c #8B120D",
".X c #801A0E",
"XX c #961006",
"oX c #94110D",
"OX c #9C110C",
"+X c #991207",
"@X c #850D12",
"#X c #8C0E13",
"$X c #8B0D1B",
"%X c #9A0712",
"&X c #950E11",
"*X c #9A0C12",
"=X c #920D19",
"-X c #9D0F18",
";X c #861515",
":X c #8A1515",
">X c #831915",
",X c #8A1916",
"<X c #841519",
"1X c #8B151A",
"2X c #841B1B",
"3X c #8B1A1A",
"4X c #931213",
"5X c #9A1213",
"6X c #94141B",
"7X c #9B1419",
"8X c #92181B",
"9X c #981818",
"0X c #A60605",
"qX c #AC0403",
"wX c #A40905",
"eX c #AA0905",
"rX c #A4050A",
"tX c #AB060A",
"yX c #A40A0B",
"uX c #AA0A0B",
"iX c #B40201",
"pX c #BA0101",
"aX c #B30903",
"sX c #BB0905",
"dX c #B3030A",
"fX c #BB020A",
"gX c #B20A0B",
"hX c #BB0A09",
"jX c #A8110B",
"kX c #A40512",
"lX c #AA0311",
"zX c #A30B12",
"xX c #AA0A12",
"cX c #A20F19",
"vX c #B50611",
"bX c #A21112",
"nX c #A81317",
"mX c #B01010",
"MX c #831C23",
"NX c #891923",
"BX c #961E28",
"VX c #862426",
"CX c #C10202",
"ZX c #C10909",
"AX c #C30508",
/* pixels */
"                                                                                                                                                                                                                                                                                                                                                                                                                                                                                                                                                                                                                                                                                                                                                                                                                                                                                                                                                                                                                                                                                                                                                                                                                                                                                                                                                                                                                                                                                                                                                                                                                                                                ",
"                                                                                                                                                                                                                                                                                                                                                                                                                                                                                                                                                                                                                                                                                                                                                                                                                                                                                                                                                                                                                                                                                                                                                                                                                                                                                                                                                                                                                                                                                                                                                                                                                                                                ",
"                                                                                                                                                                                                                                                                                                                                                                                                                                                                                                                                                                                                                                                                                                                                                                                                                                                                                                                                                                                                                                                                                                                                                                                                                                                                                                                                                                                                                                                                                                                                                                                                                                                                ",
"                                                                                                                                                                                                                                                                                                                                                                                                                                                                                                                                                                                                                                                                                                                                                                                                                                                                                                                                                                                                                                                                                                                                                                                                                                                                                                                                                                                                                                                                                                                                                                                                                                                                ",
"                                                                                                                                                                                                                                                                                                                                                                                                                                                                                                                                                                                                                                                                                                                                                                                                                                                                                                                                                                                                                                                                                                                                                                                                                                                                                                                                                                                                                                                                                                                                                                                                                                                                ",
"                                                                                                                                                                                                                                                                                                                                                                                                                                                                                                                                                                                                                                                                                                                                                                                                                                                                                                                                                                                                                                                                                                                                                                                                                                                                                                                                                                                                                                                                                                                                                                                                                                                                ",
"                                                                                                                                                                                                                                                                                                                                                                                                                                                                                                                                                                                                                                                                                                                                                                                                                                                                                                                                                                                                                                                                                                                                                                                                                                                                                                                                                                                                                                                                                                                                                                                                                                                                ",
"                                                                                                                                                                                                                                                                                                                                                                                                                                                                                                                                                                                                                                                                                                                                                                                                                                                                                                                                                                                                                                                                                                                                                                                                                                                                                                                                                                                                                                                                                                                                                                                                                                                                ",
"                                                                                                                                                                                                                                                                                                                                                                                                                                                                                                                                                                                                                                                                                                                                                                                                                                                                                                                                                                                                                                                                                                                                                                                                                                                                                                                                                                                                                                                                                                                                                                                                                                                                ",
"                                                                                                                                                                                                                                                                                                                                                                                                                                                                                                                                                                                                                                                                                                                                                                                                                                                                                                                                                                                                                                                                                                                                                                                                                                                                                                                                                                                                                                                                                                                                                                                                                                                                ",
"                                                                                                                                                                                                                                                                                                                                                                                                                                                                                                                                                                                                                                                                                                                                                                                                                                                                                                                                                                                                                                                                                                                                                                                                                                                                                                                                                                                                                                                                                                                                                                                                                                                                ",
"                                                                                                                                                                                                                                                                                                                                                                                                                                                                                                                                                                                                                                                                                                                                                                                                                                                                                                                                                                                                                                                                                                                                                                                                                                                                                                                                                                                                                                                                                                                                                                                                                                                                ",
"                                                                                                                                                                                                                                                                                                                                                                                                                                                                                                                                                                                                                                                                                                                                                                                                                                                                                                                                                                                                                                                                                                                                                                                                                                                                                                                                                                                                                                                                                                                                                                                                                                                                ",
"                                                                                                                                                                                                                                                                                                                                                                                                                                                                                                                                                                                                                                                                                                                                                                                                                                                                                                                                                                                                                                                                                                                                                                                                                                                                                                                                                                                                                                                                                                                                                                                                                                                                ",
"                                                                                                                                                                                                                                                                                                                                                                                                                                                                                                                                                                                                                                                                                                                                                                                                                                                                                                                                                                                                                                                                                                                                                                                                                                                                                                                                                                                                                                                                                                                                                                                                                                                                ",
"                                                                                                                                                                                                                                                                                                                                                                                                                                                                                                                                                                                                                                                                                                                                                                                                                                                                                                                                                                                                                                                                                                                                                                                                                                                                                                                                                                                                                                                                                                                                                                                                                                                                ",
"                                                                                                                                                                                                                                                                                                                                                                                                                                                                                                                                                                                                                                                                                O     O O                                                                                                                                                                                                                                                                                           O   X     .   X   X             .                       O O                                                                                                                                                                                                                                                 X       X         O O   O             X O O             O                                                                 X .         O X         O     .   + O                                                                                                                                                                                                 ",
"                                                                                                                                                                                                                                                                                                                                                                                                                                                                                                                                                                                                                                                                        O               O                                                                                                                                                                                                                                                                           X               O   X   . $ . . .   . . .   . . $ . .   . . . . . o $ . .   O   X                                                                                                                                                                                                                                                         X     O           .         O     X   .         X                                                 O O         . $ . . . . . . $ . . . . . . $ O O                                                                                                                                                                                                 ",
"                                                                                                                                                                                                                                                                                                                                                                                                                                                                                                                                                                                                                                                                                                                                                                                                                                                                                                                                                                                .       X   x ] ] j u.] ) u.) l ) [ [ [ ] ) ) ] ] ` [ ] g.C . O           .                                                                                                                                                                                                                                             .           O + X   . . . .   O O O                                                                     O     X     . x c ] ] ] ) ] ) ] ] l c.r.n n .                                   X                                                                                                                                                               ",
"                                                                                                                                                                                                                                                                                                                                                                                                                                                                                                                                                                                                                                                                                                                                                                                                                                                                                                                                                                                  O   O   O c.[ X.( | / E ( _ _ _ _ { { _ _ _ { d.' { E _ [ $ .                                                                                                                                                                                                                                                         O     X     .   O   . $ . .     O .     X                                               O                 O   X     . c.) E _ ) _ ( / { [ ( ( T R n .                                                           X                                                                                                                                       ",
"                                                                                                                                                                                                                                                                                                                                                                                                                                                                                                                                                                                                                                                                                                                                                                                                                                                                                                                                                                        O O         .   O . g.~ ^ ^ { { | ..( _ _ _ { { ' _ _ ' ' _ ! ! | ] .           . O                                                                                                                                                                                                                                             O             .   = x M t.m . O   O           O                                                         .           $ c _ { _ _ ..( / | _ _ { ! R n                                                                                                                                                                                                     ",
"                                                                                                                                                                                                                                                                                                                                                                                                                                                                                                                                                                                                                                                                                                                                                                                                                                                                                                                                                                    X O         .   O   . . g.j. .X./ [ ] ] ] ) ] ] ` [ ] ] ] ] ] ) E ! { ) $         . . O                                                                                                                                                                                                                                             .       X     O   . x t.t.x .   .       X       O                                                         O         . f.( ( [ / ) ) ] [ [ _ | { E l .                                                                                                                                                                                                   ",
"                                                                                                                                                                                                                                                                                                                                                                                                                                                                                                                                                                                                                                                                                                                                                                                                                                                                                                                                                                    O             .       $ ` ~ ' ] $ . $ . . . . . . . . . . .   $ a R ( u.            . O                                                                                                                                                                                                                                                         . O   . c ] ] c . . . .                                                                     O . O     . $ c [ / ] % . . . $ $ % ( [ _ t..   O                                       X                                                                                                                                                       ",
"                                                                                                                                                                                                                                                                                                                                                                                                                                                                                                                                                                                                                                                                              .                                                                                                                                                                                                                                                                                         O           O     $ [ ..[ c.. .                           . r._ ( t..           . X                                                                                                                                                                                                                                           O       X         . . ] ( _ ] $         X X       O                                         O                       . . C ' ' C . .   X     . ] ' _ ] . O                   .     .                                                                                                                                                                       ",
"                                                                                                                                                                                                                                                                                                                                                                                                                                                                                                                                                                                                                                                X         O       O   . O         . O O O   O                                                                                                                                                                                                                                                                       O   O           X     . [ { ' ] .   .             .     .     . ) _ { ] o         . O                                                                                                                                                                                                                                                               . . ] _ _ ] . . O             X                                           O             . O       . $ ] [ / S .     X     . ] _ { [ $   O     X   .   . .   .   .   .     .   X             .                                                                                                                                           ",
"                                                                                                                                                                                                                                                                                                                                                                                                                                                                                                                                                                                                                                                    X                       .   .       O                                                                                                                                                                                                                                                                             O                   . ] _ ' ] .                             . ] { { ] .           O     X                                                                                                                                                                                                                                               X       O   $ [ _ _ [ $                   O                                                         O         . f.[ ( M .       X   . ) ( { [ $             . .     . .       .   . . .                                                                                                                                                           ",
"                                                                                                                                                                                                                                                                                                                                                                                                                                                                                                                                                                                                                                                    X     O                   O   O O                                                                                                                                                                                                                                                                           O                   X     . ] ( ' ] .                           . $ ]  . .` .         O .                                                                                                                                                                                                                                           O O O                 $ [ { { _ .                                                                           O           $ ] { ( ] .           . ] { } _ .       X     ; ; ; : : ; : : : 1 2 ; &                     .                                                                                                                                       ",
"                                                                                                                                                                                                                                                                                                                                                                                                                                                                                                                                                                                                                                                X         .                             X X   X                                                                                                                                                                                                                                                                         O           X     . ] { { ] .         O   X           O O + '  . .] .   X         X                                                                                                                                                                                                                                                             . . ) { { [ $                 O O                                         O                 O     . $ ] { _ t.$ .         . ] { { [ .   O         : 5 : : : : : : : : : : ;         X     O   .                                                                                                                                         ",
"                                                                                                                                                                                                                                                                                                                                                                                                                                                                                                                                                                                                                                                X           . .                     X       X X                                                                                                                                                                                                                                                                         O           X     . ] _  .] o   O   O O               O   . ] _ ( ]       O O   O O                                                                                                                                                                                                                                           O O                 . [ { _ [ .                 O                                         O                           . ] [ ( C . . O       . ] { { [           .   ; ; * : : e : : 9 : : * ; .             O                                                                                                                                             ",
"                                                                                                                                                                                                                                                                                                                                                                                                                                                                                                                                                                                                                                                      O .   .   .     . . .   .                                                                                                                                                                                                                                                                                         .   .             . ] { { [       O O               O     . ] _ _ ]   X             .                                                                                                                                                                                                                                                         X   . ] { { ] .                     O                                                     O         . . c _ _ c . . .   O     ] _ _ ` .       X   . ; : * : 9 9 * - : - - * * .     X                 X                                                                                                                                   ",
"                                                                                                                                                                                                                                                                                                                                                                                                                                                                                                                                                                                                                                                      . .   . . . $ . $ . $ . . . . $ = .   .                                                                                                                                                                                                                                                                               .         O   + [ { { [       O O O                   . ) ( { ) .     .   O                                                                                                                                                                                                                                               O   O         O     . ] _ _ ] .   X O           O O                                                 X                 $ ] _ R M . . O O     . ) ( } _ .         .   : : * 9 9 9 9 9 e e - - * .     X X                                                                                                                                                   ",
"                                                                                                                                                                                                                                                                                                                                                                                                                                                                                                                                                                                                                                                  O       + f S C t.] c ] ] f.c ] C c c . . .                                                                                                                                                                                                                                                                             .     X         . [ { { [ .         .           .       . ) Q Q ) $   . O O   O                                                                                                                                                         . . . . . . . . . . . . . . . . . . . . . . . . . .   . . . . .   . . .               O                 . ] ] [ c .                                                                           O         . . M [ _ ] $ $ . . . . . ) ( ( [ .             : * : : * : : : : : : : ; .               .                                                                                                                                           ",
"                                O                 O         .       X   @   O                                                                                                                                                                                                                         O   X       O O         X                                                                                                                                                                                                                                                                                                                 X O O     . t.[ _ / _ ) ( ( ) _ _ ( _ t..   O O                                                                                                                                 X                 O   .                                                                                                                         O   O X   . [ { } / .     X   O                 O . / } Q ) .                 O                                                                                                                                           O     ] ] / / [ ] ) [ ] ] ) ] ] ) ` ] ) ] ] ) ] ] ) ) ) ) ) l ) ) ) ] ] ] ) ) ) M .                     X       = f S S f =       X                                                                     +     . . . S ) _ _ _ _ ] ) ) ] ) '  .( ] .               . .       .         .                                             X                                                                                                                 ",
"                                O O O X     X     O     X   O O       O   O   O   .         X                                                                                                                                                                                                         X     O   X       O                                                                                                                                                                                                                                                                                                                       . O         ] { { { _ ) ( [ _ ) ( ( ( [ .                                                                                                                                               .       @ O     .                                                                                                                         O         [ { { ] .     +   O     X     X O   O $ ] { Q ) .     O         O                                                                                                                                           O   O . ]  .} { _ _ _ { ( { { ( { _ _ ( { _ _ { { _ _ { { { _ _ ( ( _ _ _ _ { } E ) .                             . .   O .         O                                                             X O     X     .   . m ] _ ( ( { { ( ( .... .' ] ] . .           .                 O                                                     .                                                                                                             ",
"                                          X       O O             .   X       O       X                                                                                                                                                                                                             .       X       X                                                                                                                                                                                                                                                                                                                             .         [ { ^ j.z f.g.] c l ) ( { [ .                                                                                                                                       O   .   O O       O                                                                                                             O               . O       o ] { { [ .       . .   X           O     ] | Q [ .   O             O                                                                                                                                           O   . [ { Q ( [ ] [ ( _ _ _ { _ _ { _ _ _ { _ _ { _ { } { _ [  .{  .' [ ( { { Q [ . X                       o .   . . .   . . .                                                                             X   . . S ] ' _  ._ ' [ _ ( ' ' ' f.] $ .       O     .           .   .                                                             X                                                                                                     ",
"                                O .   X       . O   X   X         O       O             X                                                                                                                                                                                                       .                                                                                                                                                                                                                                                                                                                                               O   O     . [ {  .[ % $ . $ . $ ) _ { [ $                                                                                                                                         O O O         X   X                                                                                                                       X     O       . [ { / [ . X   O .             .     X . t._ E ) .     O   X   X                                                                                                                                         X   O       ] / T _ l M ] c ] ] ] ] ` ] ] ] ` ] ` ] ` ] ] ] ] ` ] ] ] / ] ] g.` X.{ { ] $                               O . . .                                                                       O             .   . x c ] ] ] ` ] ] ] ] [ g.` C x $   .   O     O         .                                                                                     X                                                                                     ",
"                                O O       X   .     @ O     X   $ . .         O                                                                                                                                                                                                                   O         .       X                                                                                                                                                                                                                                                                                                           O                 O       . [ ..[ ` $ . .     . ) _  . .$     X                                                                                                                                   . O                     X                                                                                                                     O O       . [ { [ t.        O .                   . ) E _ r..   O .           X                                                                                                                                               . ) ( [ ) % . . $ . . . . . . . . . . . . . . . . . . O   . . . $ . $ / / ( ] .                   X                   .         X                                                                         .   . $ . . . . . . o   . . . $ . o               X                                                                                                                                                                                     ",
"                                    > X X   X X X     o .     . $ $ . .       +               O                                                                                                                                                                                                 O @   + . + . . .   .   . . . .                                                                                                                                                                                                                                                                                                 O                         . ] ' _ l $ . . . . $ ) {  .[ $                                                                                                                                       . . . . . . . . . $                                                                                                             O                         . ] ' [ ) $ .   . . $ . . o . $ . .   . $ ) _ _ ] .   O O           O                                                                                                                                               . ) _ u.) . . .                                         X       .   . ] ] _ ] .                       O X   . O   O         X                                                                                         .             .                 O     X     X                                                               X                                                                                                               ",
"                                  X I.K.I.I.K.U.P.b b r.r.l r.r.] x m . .             X     O                                                                                                                                                                                                       . k z ] [ [ [ [ ] ) ] ] ] ] .                                                                                                                                                                                                                                                                                                                 O       . ] ' _ [ / ) ) [ _ ) | _ { ] .                                                                                                                                     . ] ] ] r.t.) [ ] ] M . .       O                                                                                                   O                       . ]  .{ { ) M M ] [ ` ) ) ) ) [ ) ] t.] ` ( Q T [ . O                                                                                                                                                               . t._ [ ) . O .                                                   . . c / ( ] . O                 X                                                                                               X           o                             O   X     O     X   O O                                                                         O                             .                                                                       ",
"                                  @ K.T.Y.Y.T.L.P.b W | E E ( _ ] ] S $ .   X                                                                                                                                                                                                                     . . c.[ _ ( } Q { { E .._ { ] .                                                                                                                                                                                                                                                                                                 O                       . ] [ E Y _ E ( { _ { { { ' ] .     O                                                                                                                               . ) E _ _ E _ _ _ [ t.$       X                                                                                                                             . f.' } Q _ _ ) (  .{ | | ( ( | _ _ _ [ ..{ } { ] .                                                                                                                                                                 + ) E _ ] .                                                         . ] _ _ ] .                   O         X         X         X                                                                                   O                       X     O                   O                                                 X                     O                                                                                                   ",
"                                  > L.T.Y.Y.T.U.b E { { T X. .( ' ] t.. .                     X                                                                                                                                                                                                   . . t.[ _ ^ } { { Q ( { _ { ] .                                                                                                                                                                                                                                                                                                 O       X         X   . . c.[ _ ( ( _ ..( _ [ ' ' ] f..                                                                                                                                     . ) ( _ _ _ E _ _ [ t.$ .   @                                                                                                     O                       o . c.[ { { _ ) _ _ _ { { ( ( ( { _ _ _ [ [ { { ' g..     O                                                                                                                                                           . ) E _ ] . O                                         O             . c _ ( ) .                                                                                                                         X           O         X                   .   O         X O   O   X                                         O O           X         O O   O                     X                                                                         ",
"                                  X L.T.T.H.L.D b _ ( [ / ( ~  .{ ] ] . O                                                                                                                                                                                                                         X . x c ] [ [ [ ] ) ) ] ] [ ]                                                                                                                                                                                                                                                                                                                 X         . C C ] ] ] ) ] ) ] ] [ ] c c .                                                                                                                                       ] [ ) r.t.) ) [ ] x . .       X                                                                                                                 X           V ] ] _ ) c t.] ] [ ] [ [ ) ] ] ] ] l ] ] [ ] c .                                                                                                                                                       X         . ) ( _ ] .   O   O                 O                   O           . ) _ ( ) $                                                                                                                                           O                           .   .             X                                                 o                               X                                                                                       ",
"                                  > L.H.R.L.> X . . . . $ $ 7 / [ _ ] $ .                     .                                                                                                                                                                                                   @   + . . $ + . . .   . . . .                                                                                                                                                                                                                                                                                                                             $ $ . . . . . $ . . . . . .                                                                                                                                         . . . .   . . . . . X                                                                                                                       X       X     . $ $ $ . .   . . . . . . . . . . . O . . . $ $ . O         . .                                                                                                                                         X           . _ { ( ] . O   O     O   O O   O   O O   O   O                 X   . ] ( { [ $                                                                                                   O     O                         O                           .           . . . .     X       X                                   X                                             X   X           X                                                                 ",
"                                + X I.T.L.D X     O         . f.' _ ] $                                                                                                                                                                                                                           O               X       X                                                                                                                                                                                                                                                                                                       O     O .                 . . O O . .   X     .         X X                                                                                                                                   O .           X                                                                                                                 O       O O               . . .               .   .           X       .   .   X   O                                                                                                                                                           . ) { _ [ $       O     X     O           O               X         . ] ( { _ $                                                                                                                               O     O                         .   O     . $ . . . =                                                   O   . . . .   . X     . . . .     . X .         .     .                                                                     ",
"                                  X K.L.P.B   + O + O         M [ ' ] . .       O                                                                                                                                                                                                               O   .                                                                                                                                                                                                                                                                                                                                   . O       X         . + . + O O   X X     O                                                                                                                                             O . O O O       + X                                                                                                                       .     X             +                 .     .               X .   X                                                                                                                                                                 . ( { _ [ .     O                                                     ] _ ( ) o                                                                                                       O                       O                                 X   O $ x ] ) ) l k .                                                 o . $ $ $ . $ . . . . . . . $ . $ . $ . . . . $ . . . . . .                                                                 ",
"                                  X U.U.b N O     O         . S [ ( ] .       O   X                                                                                                                                                                                                             .             X X   X                                                                                                                                                                                                                                                                                                                                   X O     X + . O @     X   . .   X   X                                                                                                                                     O   . O   O                                                                                                                           .                   O     . O       X         O                                     X X                                                                                                                                           O   . ] { _ ] .                                             O .         . c ' ( )                                                                                                     O                   X                                             . $ ] [ _ _ ) M . .   O   O                                     . f x c.] v.] c c c l M c ] ] ] c c c c ] c ] c c ] c ] ] c x                                                                 ",
"                                  X P.b W ) O @           . . C [ ( t.. .     O O                                                                                                                                                                                                                     O       O     .                                                                                                                                                                                                                                                                                                                   O .                 O O                   .                                                                                                                                                             O O   X   .                                                                                                             O .               X @     O         X               O     O X O   O               O                                                                                                                                         X           ] ( _ ] .     X                                 X         .       . ` ' { [ .                                                                                                       O                       O             O         X X       .     . l _ ( | _ c $     X   O                                   . $ c c [ ' ( ` _ _ ) ) _ ] ) ' _ [ ] ( ] ( _ [ ) ( ( ' [ [ ( ] .                                                               ",
"                                  . b E E ] .         X   . $ ] [ ] ] $         O                                                                                                                                                                                                                     X   X           .     .                                                                                                                                                                                                                                                                                                             . X               X                         X                                                                                                                                         X                   O .                                                                                                                   .                 O   O                                         X   X         . O                                                                                                                                     O             . ] { _ [ .                   O                           X         . ] { { [ $                                                                                                                                                 O                     $ t.( { { _ t.. .       .                                   . $ ] ] ' ( [ _ ' _ _ _ ) [ [ ' [ / _ ' ( _ ' [ ' [ ' _ _ { { ] .                                                               ",
"                                  . ) Q { ) .               $ ] ' ( ] . .   O     O         X                                                                                                                         .   O             X         O   X           O                                             . . . . . $ . . $ $     . +                                                                                                                                                                                                                                                                                                                                                                                                                                                                                                                                                                                                                                                                                           O                                                                                                                                                                 O O   . ] {  .[ .   . O                                 O                 . [ { { ' $                                                                                                           X           X     X           .               O             + c _ ( Q _ c $           .                                   $ ` / ( X.j c ] M c ] S f.] c ] t.] t.f.c ] f.c f.x ] { } } _ .                                                               ",
"                                  . ( { ( ) X       O       . c [ ] ] .       O O                                                                                                                     X                                                         O   .                                           m M c x c c c t.] x $     O O         O O                                                                                                                                                                                                                                                                                                                                                                                                                                                                                                                                                                                                                                                                                                                                                                                                                                                 O     _ { { ]       O                                 .           X     . ] _ { _ $                                                                                                       .     X .   .               X . . . o                         O $ ] ( E ( ) c . .       .                                     . ) | { / $ . . $ $ $ $ . $ . . . . . $ . . $ $ . . % ~ { { ( .                                                               ",
"                                  . ] { _ ] .     O   O O   $ c ) / c $ .                                                                                                                                           X                                                   O                                     $ ] _ { _ '  .{ _ [ x .   . O                                                                                                                                                                                                                                                                                                                                                                                                                                                                                                                                                                                                                                                                                                                                                                                                                                                                     ) E ( )             O   O                                         $ ] ' ( ]                                                                                                                 ; = : : ; ; - - 4 : ; 2 * * : o     X                 O $ ] _ ( E _ c $           X                       X           . ) ....) $ . . . .   .     . . .   . .   .     X   . l [ ( l .                                                               ",
"                                  X ] { _ ] .   O   O     . $ c [ ) M .                                                                                                                                                     X                             X         X                           O             . / { { { { ' } T [ l .   O .           X O                                                                                                                                                                                                                                                                                                                                                                                                                                                                                                                                                                                                                                                                                                                                                                                                                                       O             . ) | Q ) .   X       O       O   O   O   O   O         O         O $ ] ' _ ]   X                                                                                                   X         : 4 : : 3 : e e q - : : - - : ; X                     . $ ] _ | { _ ] . . O         X                                 . ) _ ( ] .     .                                   . t._ ) t..                                                               ",
"                                  . ' { { ] .         X   . $ ] _ ) M .           X         .                                                                                                                             X                                                                   X O             . [ { | ..j p _ ( ..] $                 O                                                                                                                                                                                                                                                                                                                                                                                                                                                                                                                                                                                                                                                                                                                                                                                                                                                 O     O ) { { ] .                                                 .     . . [ { ..)                                                                                                                 : q e q - : - q q - : : q q e * .                     . $ ] _ { _ ) c $ .                                             + ] ..( ] .                     X                     t.' ) c .                                                               ",
"                                  . _ { { ] $               $ ] _ ) ] . .                                                                                                                           O   O         O                                             X     X                           O   X   O   . ) ( _ ) % $ R _ / ) .       X       .   O                                                                                                                                                                                                                                                                                                                                                                                                                                                                                                                                                                                                                                                                                                                                                                                                                                       . X           . ' { { [ .                                               .         $ ] { { [ .                                                                                                               * - s s - - : : - : 3 : w q q ; .                     . $ ] ' { _ _ c .                         O     O     O     O   . ] | [ ] . O           @                     O     . ] [ ( l                                                                 ",
"                                  . ' _ _ ] .     X       . $ ] [ _ t.. X                   .                                                                                                                                                                         X                                 .     . ] ' [ x . . ]  . .[ . .             .   O                                                                                                                                                                                                                                                                                                                                                                                                                                                                                                                                                                                                                                                                                                                                                                                                                                         .           . ]  . .d.. O                                       X               . ] { { _ .                                                                                                   X         . * q - $ .   . .   o   $ - q - :         X             . . ] ] _ ) ] c .           X                                   . ] ( ( ]     .     O                   .   O .   . . ]  ._ ) .                                                               ",
"                                  . ' _ _ ] .   X     X     $ c _ / ] . .                                                                                                                                                       X   O   O   O   O   O   O   O                                                 . g.( ] M . . f.' ..[ $       X         O                                                                                                                                                                                                                                                                                                                                                                                                                                                                                                                                                                                                                                                                                                                                                                                                                                                         h. . .f.$ O O                                           X     X     ] _ { ) .                                                                                                               : : s = o             $ q e s *     O                 . . c l ] ] ] M . .                   .                         . ] _ ( ] .   .       O O       O .     O X         $ ] ' { _ .                                                               ",
"                                    t.[ ] f..               $ f.[ _ ] $ . .                   X                                                                                                             o                                                     . . .   .   .                         X .   . [ ' [ l . . [ '  .` $ .   X         .   O                                                                                                                                                                                                                                                                                                                                                                                                                                                                                                                                                                                                                                                                                                                                                                                                                                                     . ] [ [ f.$ .                                         X               c._ _ ] . O                                                                                                 O   .     . : - 9 :                 : - - : .       O               $ x M M k M A .                                               . ) _ [ ) .                                         . ] ( ( ) .                                                               ",
"                                  . M [ _ ` $ $ $ . . . . $ % z ..' ] $ .                                                                                                                       X     X     .     X       . .     .     .               .     .   X   . . . .                 .     X         . ] _ [ j $ . / X.{ ) .                 O                                                                                                                                                                                                                                                                                                                                                                                                                                                                                                                                                                                                                                                                                                                                                                                                                                                       . ] [ ( / $ . .   . .   o . . . . .   . o . . . . . . $ $ $ . . . X $ ` _ _ ] .                                                                                                               : - : :     X     X   X : - : *   X                       . . . $ $ . . .   X   O     O   O .     .       . .         . R E ( ]                                           o ] ( { ) .                                                               ",
"                                  . l E Q { ' [ [ ] y.) ` ] ` ..( ` ] $ .     O                                                                                                                     o ; ; * : * : : 1 : : : - - : : * ; : : : ; : : * ; ; * : : : : : : : : & .       X         X             . [ { | | l l i.T ..y..               X .   X                                                                                                                                                                                                                                                                                                                                                                                                                                                                                                                                                                                                                                                                                                                                                                                                                                     O   X         . _ E _ ..R ) n ) ] ] ] [ ] ] [ ] [ ] ] ] ] ] [ ] ] ` ] ] ] ' ] ] c ) _ Q Q R $                                                                                                   O           : - : :         O       1 : : ;                     X X   . o . . .   . .   .   ; 1 : : : : : : : : : : : : : : : : : 9 ..{ | ) .               X                         . ] ( E ) .                                                               ",
"                                  . u.E { {  . .{ Q | ( _  .( ( ' [ c.. .                                                                                                                         . ; i - q e - - : : : : 9 e e * * * * * * * * 9 : * * * * * * : : : : - 4 ;   X                     X       . _ J T E ) u.E Q / t.. O   X             O                                                                                                                                                                                                                                                                                                                                                                                                                                                                                                                                                                                                                                                                                                                                                                                                                                                     . ) ( ! ( ( E R E _ { { {  .{ { {  .{ { { { {  .{ { _ ' ' { { { _ _ _ Q } ! [ $                                                                                                         O   O : e q : . .             : : : ;             X                                 . 5 * 9 - e - e : : : : : : : : : : - * 9 _ Q } _ . . .                                     . ] ( ( ) .                                                               ",
"                                . . ) E T Q  . .{ Q ! | ( ....( ` f.C .     O                                                                                                                   . . : e q w q q - : : : - - q q e * * * * * 9 * : * * * * * * * : : * : : : : .                 X             o ) { X.( / ( E | ] M X                 O   O                                                                                                                                                                                                                                                                                                                                                                                                                                                                                                                                                                                                                                                                                                                                                                                                                                     O O           $ ) ) ) / ..( E ! { { _ { { { { ( ( { { ( { { { { { { | ( { { | { [ _ ! T T _ +                                                                                                         .   . : 9 9 -       . O       : : - :                   . O                         . : = q - e - : q - : e - - : - - e 9 9 7  .Q } ' .   .       O                             . [ ' { ( .                                                               ",
"                                  $ M ) u.y.` ] _ / _ [ ) ) ] ] ] S m . X                                                                                                                           : - q s q q e : : ; : : 9 : : * : * : : * : : * * * : * : : : : : 4 : : 4   .                               ] [ ] / [ d./ ` l x     O O .                                                                                                                                                                                                                                                                                                                                                                                                                                                                                                                                                                                                                                                                                                                                                                                                                                                           .     . M t.] c ] _ ) ) ( ] ] ] ) ] ] ] ` ] ] ] ) ] ] ) _ [ ] ] ) [ [ [ ] ` y.[ _ l .                                                                                                               : - : : .     .       X : 9 - * O       @                   X               .   5 : s e e - : : : * : - : : : : : : - 9 ..}  .] .                                         . ] _ _ ] .                                                               ",
"                                O   . .   .       . . .   . . . . $ .       O @   .                                                                                                               . 2 : : : $ .             .         X .     O       .   X     .   . * : = : . X             . O   O     O     . . . + . . . . $ $     O O           O                                                                                                                                                                                                                                                                                                                                                                                                                                                                                                                                                                                                                                                                                                                                                                                                                                         O           O   . . . . . . $ $ . . . . . . . . . . . . . . . . . $       . . .   . . $ . . O O                                                                                                 O           ; - : ;           O     - e q : .                     .   O O             X   . * ; ; $ . .   .         .             . ) E _ c   X O   O                     O           . ] ' _ ] .                                                               ",
"                                O O         X X   X             .       X       O                                                                                                                   ; 2 : : .             X                           O           .   - : 9 : .                 O           X                   . . X       . O         X                                                                                                                                                                                                                                                                                                                                                                                                                                                                                                                                                                                                                                                                                                                                                                                                                                             O               X   O                                                                 @ O                                                                                                     O       1 : : :       O         - e q : .       X         .   O O       X O X         . : ; 3 ; .       .                     . ) ) _ c .             O   .                       . ] ( ..) .                                                               ",
"                                                                        X   X   O                 .   .                                                                                             : * : *               X                                         . : : - : .                             X                   . .     O         .                                                                                                                                                                                                                                                                                                                                                                                                                                                                                                                                                                                                                                                                                                                                                                                                                                                                                                                                                                                                                                                 X       : * * ;                 : 4 q - .     X   X O           .                       - - - 3                               . ] _ ) ] .         X O O O   O   .                 $ ) _ Q ) .                                                               ",
"                                                                    O       + . .     X   . .   . .   X             X                                                                               : * * ;     O                                                   . - - e -                                                   .           O   .           O .                                                                                                                                                                                                                                                                                                                                                                                                                                                                                                                                                                                                                                                                                                                                                                                                                                                                                                                                                                                                                                     O     . : * * :     O         O : q q - O           O                       .   O       - e e :           O                   . t._ ) ) .             O         . .               . ] [ { ) .                                                               ",
"                                                                    O       ; = : : : ; : e e - - ; ; ; X                                                                                         . * * * * .                                                       o 4 - : : .                   X                     X   O       O     O O .       X       O                                                                                                                                                                                                                                                                                                                                                                                                                                                                                                                                                                                                                                                                                                                                                                                                                                                                                                                                                                                                                                     O       : * * *     O           e e q : .                                   O           e q r : .     O   O                   . ) ..( ] $ .         O     X O   .             O   . ] [ / ` .                                                               ",
"                                                                X       X   : - e 9 : : - 9 q 9 : : 1 ; .                                                                                           : * * :     O                                                     : - : : X       O                     X               O       X                                                                                                                                                                                                                                                                                                                                                                                                                                                                                                                                                                                                                                                                                                                                                                                                                                                                                                                                                                                                                                                                       : * * : .     X         : 9 q :           . . .       O             O   X       e 9 q :           O               O . $ ) ..( ) $                     O O   X X             g.` _ ] .                                                               ",
"                                                                            : 9 - : : * : : : * * * ; ; .     O O                                                                                   < * * *                                                       X . - - : :                         . O O       X           O         X . .                                                                                                                                                                                                                                                                                                                                                                                                                                                                                                                                                                                                                                                                                                                                                                                                                                                                                                                                                                                                                                                       X       * * * ; .               - - q :     X   $ $ $ .   X                 O           - q q * .                         O O . ) _ ( ) $ .                           X       O . . f.[ [ ]                                                                 ",
"                                                                            : * e e 1 ; : : : ; : 5 : 2                                                                                             ; * * <     O                                                   . - - 9 : .     O                 O . O . O         X         X                   X     O                                                                                                                                                                                                                                                                                                                                                                                                                                                                                                                                                                                                                                                                                                                                                                                                                                                                                                                                                                                                                                         O     < * * *     O           : e q :         c C f.x o       .           O           4 e e :     X     O                   . ] _ [ [ $ .   o .     . .   .   . .       O .   . . l [ ( ) .                                                               ",
"                                                                    .     . * q * $ .   .     . ; - : ; .       O     O                                                                             * * * *     O             O                                     . s - e :   .                       O                                 .     X                                                                                                                                                                                                                                                                                                                                                                                                                                                                                                                                                                                                                                                                                                                                                                                                                                                                                                                                                                                                                                                           : * * ;           X     : e : :       . C ` ] f..                   .         X - e q :     O   O                     . r._ _ / % . $ . $ $ $ $ $ . . $ $ $ . . $ $ $ $ $ 7 / { ( ) .                                                               ",
"                                                                            * q q = o           : : : : .                                                                                         . : * * : .     X                                                   : - : :                                     . . . . + . . . . .                         O                                                                                                                                                                                                                                                                                                                                                                                                                                                                                                                                                                                                                                                                                                                                                                                                                                                                                                                                                                                                                                     O O     * * * <     O         . : 9 e :       . g.( ' g.                        O       - q q :                           O   . l E / i.z C c ] ] f.] ] ] ] t.] ] ) n M r.] c ] l ] _ { Q ) .                                                               ",
"                                                                O         . - q q - .   .     . : : : : X           O                                                                               : 9 * ;     O                                                   . 4 : e : .                           . . . c ] ] [ ] ' [ ] ] C .                       X                                                                                                                                                                                                                                                                                                                                                                                                                                                                                                                                                                                                                                                                                                                                                                                                                                                                                                                                                                                                                                               : * * * .     O       . : : - :   X   . [  . .` .                               9 q q : . X       O                   $ ) ) ( E [ h.] ] ` [ [ [ ) [ _ ) _ _ _ ) _ [ ) ) _ [ { } { _ .                                                               ",
"                                                                          . : e q - O . .   O . - 9 : : .                                                                                           * * * :                                                           - : : :       O                     . . $ ] [  .{ } } } ' [ ] $ X X   X       X       O                                                                                                                                                                                                                                                                                                                                                                                                                                                                                                                                                                                                                                                                                                                                                                                                                                                                                                                                                                                                                                   X   O     . : * * :           X     * 9 - :       . ' { { ] .     X O           O           - e q :       O                   .   $ l _ ( _ ] ] f.` g.[ ` ] _ _ _ _ ' ( ) ) ) ) ] [ ) ] _ _ ( ] .                                                               ",
"                                                                O   O       : - - ; .           : 9 : ; .         O O                                                                             X : * * * .   O                                                   . : 9 : : .                               $ c _ _ { | Q | ( d.` $                       .                                                                                                                                                                                                                                                                                                                                                                                                                                                                                                                                                                                                                                                                                                                                                                                                                                                                                                                                                                                                                                       O       : * * :       O       . : * e :       $ _ { } [ .                   O     X X O - q q :                               . h a ) ) ] c c ] c c c c c ] c ] ] ] ] c M ] c f.c c ] c c M                                                                 ",
"                                                                    O       3 - e *   X         : e : :   .                                                                                         * * 9 :                                                     X   . : - - : O                       X X     . c ] [ ' ( _ ) [ d.z $       X O                                                                                                                                                                                                                                                                                                                                                                                                                                                                                                                                                                                                                                                                                                                                                                                                                                                                                                                                                                                                                                                             : * * * O               ; : 9 :   O   . ) { { [ .   O               O           - e q : O       O               O   O . r 0 0 9 $ . $ . $ $ . . $ $ $ $ $ . $ . . $ . . . . . . . o                                                                 ",
"                                                                O           - : : &             : * : ; .                 O                                                                         * * * :     O                                                   . : - : * . .                             . m M ] ] c n M c f.c =             .                                                                                                                                                                                                                                                                                                                                                                                                                                                                                                                                                                                                                                                                                                                                                                                                                                                                                                                                                                                                                                                 X     X * * * *     O         . * * * ;       . ) E { [                                 - e q -           O             O     O 9 * 9 * . .   .           .   .       .         .                                                                           ",
"                                                                    O       : : = *     X   O . : : : ;           O O                                                                               : * * ; X   O             X                                     . - - - :                   .             O . . . $ . . . . . . .       X                                                                                                                                                                                                                                                                                                                                                                                                                                                                                                                                                                                                                                                                                                                                                                                                                                                                                                                                                                                                                                                         O     : * * ;                 1 ; * : O O   . ) | { ] .       .           . O     X   - q q 9 X       O                 O   O * * * * .     .     O           X               O                                                                           ",
"                                                                    O     . : 9 r e = * 9 - - - 9 : : ;                                                                                             : * * *                                                         o 4 - : : .       O                           . . . . .   .   .       O       .                                                                                                                                                                                                                                                                                                                                                                                                                                                                                                                                                                                                                                                                                                                                                                                                                                                                                                                                                                                                                                                         * * * *       O     .   : * : - O       ) E E [ .       O                     . - e q :     O     O                 O O * * * : .         O     O                   .                                                                               ",
"                                                                            - 9 7 q * 9 q q q q 9 : : : .           O     O                                                                       . * * * *     O                                                     : - e :   O                       X                                   O O     X                                                                                                                                                                                                                                                                                                                                                                                                                                                                                                                                                                                                                                                                                                                                                                                                                                                                                                                                                                                                                                               O O     < * * :     O         . ; * * : .     . ) R { ) .                   O   O       - e q : .                       O     O * * : : O O . . O     O   O   O       X   . O . . O .                                                                       ",
"                                                                          . = e q q e - - 4 e e : : ; ;               X     O                                                                     X * * * *       X           O                                     . : : - :       O                                                                                                                                                                                                                                                                                                                                                                                                                                                                                                                                                                                                                                                                                                                                                                                                                                                                                                                                                                                                                                                                                                                     . : * * ; X   O           * : q - O     . [ E { [ .                   O           - q 9 :       O   O                 O   : 9 * :     O                                                                                                               ",
"                                                    X                     . = = - 2 : : : : - : 3 : 3 ; .                                                                                           * * * : .   O                                                   . : e : -                                                                                                                                                                                                                                                                                                                                                                                                                                                                                                                                                                                                                                                                                                                                                                                                                                                                                                                                                                                                                                                                                                                     X O       : * * *       O         * : 9 : O     . _ { } [ .       .           O           4 e q -                                 * * * : .                                                                                                                   ",
"                                                                            X +   .       X     .   . .     O             O                                                                         1 * * ; .                                                       o 4 - e : . O                                                                                                                                                                                                                                                                                                                                                                                                                                                                                                                                                                                                                                                                                                                                                                                                                                                                                                                                                                                                                                                                                                                   O       : * * ;                 * * 9 : O     . ) ( ( ) .                   .   O       - e e : .     O   O                     : * * *       O                                                                                                             ",
"                                                        O     O                                   .                                                                                                 : * * *     O                                                     : : - :                                                                                                                                                                                                                                                                                                                                                                                                                                                                                                                                                                                                                                                                                                                                                                                                                                                                                                                                                                                                                                                                                                                               : 9 * * .   O     X   O * * : :   O   . t._ [ ] .   O               O       X   - q e :                           O     * 9 * 1     O                                                                                                               ",
"                                                                X         O                     + .   .                                                                                             : * * :                                                       X . - - : :         O                                                                                                                                                                                                                                                                                                                                                                                                                                                                                                                                                                                                                                                                                                                                                                                                                                                                                                                                                                                                                                                                                                                     1 * * :     O           * : * :       . M ) ) c   O                             9 q r * .         O             O       : * * * .                                                                                                                   ",
"                                                          X     X                         X                 X         X                                                                           . * * * :     O                                                   . - - 9 : . .                                                                                                                                                                                                                                                                                                                                                                                                                                                                                                                                                                                                                                                                                                                                                                                                                                                                                                                                                                                                                                                                                                                   O       * * * *     O         . : * : :       . A M S c         O           .       X   e q q :       O                         * * * :     O             X                                                                                                 ",
"                                                                                      . .           X                                                                                               : * * * O   O                                                   . s - e :                                                                                                                                                                                                                                                                                                                                                                                                                                                                                                                                                                                                                                                                                                                                                                                                                                                                                                                                                                                                                                                                                                                   X           : * * *                 : : : : O     . $ . + $   O   O             O   O       - q q :       O   O             O     X : * * :                                                                                                                     ",
"                                                                                          O                                                                                                         * * * *                   O                                       : - : :                                                                                                                                                                                                                                                                                                                                                                                                                                                                                                                                                                                                                                                                                                                                                                                                                                                                                                                                                                                                                                                                                                                       O   O   * * * ;       O     .   : ; : *         . . . .                     O           4 e q :     X                           * * * *     O                                                                                                               ",
"                                              O                   X                                         X                                                                                       1 9 * :                                                         . 4 : e : .                                                                                                                                                                                                                                                                                                                                                                                                                                                                                                                                                                                                                                                                                                                                                                                                                                                                                                                                                                                                                                                                                                                             : * * :     O           * * : :           . .                       .           - e e :     O     O                     : * * : .   O                                                                                                               ",
"                                                    X     . . . .   . . . . .     o   X X O                                                                                                       . : * * * X   O                                                     - : : :       O                                                                                                                                                                                                                                                                                                                                                                                                                                                                                                                                                                                                                                                                                                                                                                                                                                                                                                                                                                                                                                                                                                           X   O     . : 9 * * .     X       . * : * ; O   O                   .               O       - e e : .                         O     * 9 9 1               X                                                                                                     ",
"                                            O     X     . . $ $ $ $ . $ . $ $ . . .         @     X                                                                                                 : * * :     O       X                                           . : 9 : : .                                                                                                                                                                                                                                                                                                                                                                                                                                                                                                                                                                                                                                                                                                                                                                                                                                                                                                                                                                                                                                                                                                                     O       : * * ;       O         : : 9 :             O                       O   O       e 9 q :           .                     < 9 * :     O                                                                                                               ",
"                                        X               $ m c c.] ] c t.x c.c ] c.k =   X X                                                                                                         * 9 * * .                                                   X   . : - - : O                                                                                                                                                                                                                                                                                                                                                                                                                                                                                                                                                                                                                                                                                                                                                                                                                                                                                                                                                                                                                                                                                                                             : * * *     O           : r 9 :         O             O             O           - e q :       O                 O       * * * * X                                                                                                                   ",
"                                  X               X   . . x ] ] ' [ ] ` ] ] ' [ ] v $       X O     O                                                                                               < * * ;     O                                                   . : - : * . .                                                                                                                                                                                                                                                                                                                                                                                                                                                                                                                                                                                                                                                                                                                                                                                                                                                                                                                                                                                                                                                                                                                           * * * ;     O           - q q :         O                                     O - e 9 : O     O   O                     : * * * .   O O                                                                                                             ",
"                                        O   O         . . t.] [ ' [ ] ) ] ] _  .' ] $                                                                                                               * * * :                                                         . - - - :                                                                                                                                                                                                                                                                                                                                                                                                                                                                                                                                                                                                                                                                                                                                                                                                                                                                                                                                                                                                                                                                                                                   X   O       < * * :       O     X   e w q :   X       O X                       . O         - e q -                           O     * * * :                                                                                                                     ",
"                                                      + $ ] ] ' _ Y ) n l )  . . .] $ X                                                                                                             * * * *     O                                                   o 4 - : : .       O                                                                                                                                                                                                                                                                                                                                                                                                                                                                                                                                                                                                                                                                                                                                                                                                                                                                                                                                                                                                                                                                                                                     ; * * *                 - q q : .     X O                               X       - e 9 : .     O O                     . * * * :                                                                                                                     ",
"                                                X     . $ ] / _ ' 7 $ . $ % ' j.' ] .   X     O O                                                                                                   : * * : .     X                                                   : - e :   O                                                                                                                                                                                                                                                                                                                                                                                                                                                                                                                                                                                                                                                                                                                                                                                                                                                                                                                                                                                                                                                                                                                   O O     : * * : .   X           9 q w :           O                         O           - e - :                                 : : * :   O                                                                                                                 ",
"                                                X   . . $ ] ( _ C $   . . $ ` ' d.l .     X                                                                                                       . * * * *                                                         . : : - :       O                     X           O       X                                                                                                                                                                                                                                                                                                                                                                                                                                                                                                                                                                                                                                                                                                                                                                                                                                                                                                                                                                                                                                                                           . * * : ; .           . . 9 - 4 : .                           .               X . : : : ; O                           . . : 9 3 ;                                                                                                                     ",
"                                          X O         . % ] _ [ ] % $ . . % / ' ' ] $                                                                                                               : * * <     O             O                                     . : e : -                   .                 . . . . .                                                                                                                                                                                                                                                                                                                                                                                                                                                                                                                                                                                                                                                                                                                                                                                                                                                                                                                                                                                                                                                                         O   . . : : * $ + . .       . $ * : : ;   .             O     X         O             . : : = = .   . . .         . O     . $ $ : * ; ; . .                                                                                                                 ",
"                                                @   O . . ] / _ _ Y _ ) ) / o.{ X.v.$   X     O O                                                                                                   : * * *             X                                           o 4 - e : . O                           X . . c ] [ ] ] / f..                                                                                                                                                                                                                                                                                                                                                                                                                                                                                                                                                                                                                                                                                                                                                                                                                                                                                                                                                                                                                                                               O       . . = : : e - - - : : * 4 : 4 : 1 ;   .           O             .           X     . * : e e s - : : : * : : - : : : : : - * 4 : : ;   .   .     O     O                                                                                                 ",
"                                                      . $ t.] ..o.} ../ T E } { ( ] $ .     O                                                                                                       * 9 * : .   O                                                     : : - :                       O       . . $ g.' _  .X.( ( .                                                                                                                                                                                                                                                                                                                                                                                                                                                                                                                                                                                                                                                                                                                                                                                                                                                                                                                                                                                                                                                                           : * - q e - - - 4 - : * : ; 3 ;                                                 * : q q : - q - - - - : - - - e - : 4 : : ; : ; .                                                                                                                   ",
"                                              O       O . c M ) ( Q E E E ( { _ [ g.$         O                                                                                                     < * * *                                                       X . - - : :         O         O     X     . . $ [ ) _ { | Q ) .                                                                                                                                                                                                                                                                                                                                                                                                                                                                                                                                                                                                                                                                                                                                                                                                                                                                                                                                                                                                                                                                       . . * : - - e 9 s e s s : : 2 ; 2 ; .                             . O   X   X     . ; : 9 - e - - : - : : : - : - : - : : : : ; 5 ; .                                                                                                                   ",
"                                                O   O . . x M c ) [ ) ) ) ) ) t.c k $ X     O O                                                                                                     * * * 1     O                                                   . - - 9 : . .                   O         . $ x ] t.) ) ) t.                                                                                                                                                                                                                                                                                                                                                                                                                                                                                                                                                                                                                                                                                                                                                                                                                                                                                                                                                                                                                                                                  X         = = 3 : : : - - 4 - * ; ; ; ; ;                                               . ; & : : : : : : : : : : : * : : : - ; 1 ; * 2 #                 O                                                                                                   ",
"                                                O         . . . .   . . . . . . . .     X X                                                                                                         * * * * .   O                                                   . s - e :                                   O . . . . . . O                                                                                                                                                                                                                                                                                                                                                                                                                                                                                                                                                                                                                                                                                                                                                                                                                                                                                                                                                                                                                                                                           . o X       . . .   . . .   . O   .                                               . . .     . X O   .   X   . X     . O .   .                                                                                                                         ",
"                                                @     .   . .                               O                                                                                                       : * * :               X   O                                       : - : :                   O                                                                                                                                                                                                                                                                                                                                                                                                                                                                                                                                                                                                                                                                                                                                                                                                                                                                                                                                                                                                                                                                                                   O                             .     .                               .                   .                                     .           .                                                                                                                 ",
"                                X                 O             O O O   O                                                                                                                           : * * *       O     X                                           . 4 : e : .                               X     O O O   O                                                                                                                                                                                                                                                                                                                                                                                                                                                                                                                                                                                                                                                                                                                                                                                                                                                                                                                                                                                                                                                                                   X       X                                                                                       O                                                                                                                                               ",
"                                                    O   O         O   O O O               .                                                                                                       . * * * :                                                           - : : :       O                           O   O     O   O                                                                                                                                                                                                                                                                                                                                                                                                                                                                                                                                                                                                                                                                                                                                                                                                                                                                                                                                                                                                                                                                                             X                                                       X                                                                                                                                                                           ",
"                                                    O               X                                                                                                                             . : * * *                                                         . : 9 : : .                                                                                                                                                                                                                                                                                                                                                                                                                                                                                                                                                                                                                                                                                                                                                                                                                                                                                                                                                                                                                                                                                                                                                                                                                   O                         X                                                                                                                                   ",
"                                                O                                         .                                                                                                         1 * 9 :     O                                               X   . : - - : O                                             O                                                                                                                                                                                                                                                                                                                                                                                                                                                                                                                                                                                                                                                                                                                                                                                                                                                                                                                                                                                                                                                                     .                                                                                                         O   O     O                                                                                                                                         ",
"                                O                             X                     .   X   . .                                                                                                     * * * : .                                                       . : - : * . .                                                                                                                                                                                                                                                                                                                                                                                                                                                                                                                                                                                                                                                                                                                                                                                                                                                                                                                                                                                                                                                                                                                           O .         .   .                                                                           X                                                                                                                                                       ",
"                                                      X                                                                                                                                             : * * 1     O                                                   . - - - :                                             X                                                                                                                                                                                                                                                                                                                                                                                                                                                                                                                                                                                                                                                                                                                                                                                                                                                                                                                                                                                                                                                                                     .   .             O O                                                                 X                           O                                                                                                                             ",
"                                  O                                                         X                                                                                                       : * * *                                                         o 4 - : : .       O                                                                                                                                                                                                                                                                                                                                                                                                                                                                                                                                                                                                                                                                                                                                                                                                                                                                                                                                                                                                                                                                                                                             X                                                   X                     X                                                                                                                                                                 ",
"                                                  O                 O   @     . . X                                                                                                               . * * * * X   O             X                                       : - e :   O                   X     O .           O   O                                                                                                                                                                                                                                                                                                                                                                                                                                                                                                                                                                                                                                                                                                                                                                                                                                                                                                                                                                                                                                                                                                       O                           X                                                                 O                                                                                                                             ",
"                                                                    + O     $ $ $ $       O                                                                                                       X * * * *       X           O                                     . : : - :       O                   O .                 X O               X                                                                                                                                                                                                                                                                                                                                                                                                                                                                                                                                                                                                                                                                                                                                                                                                                                                                                                                                                                                                                                                                                                                                                                                                                             X                         .           O   O   X   X                                 ",
"                                O             X         X           O     + x ) r.x X X O O                                                                                                         * * * : .   O                                                   . : e : -                           .   .               O O O                     O O     .                                                                                                                                                                                                                                                                                                                                                                                                                                                                                                                                                                                                                                                                                                                                                                                                                                                                                                                                                                                                                                                                                                                                                                                                 O .         O X         X                           O                                           ",
"                                      X         .           o         O     l _ [ l .   O     X                                                                                                     1 * * ; .                                                       o 4 - e : . O                         .                       O O   X                                                                                                                                                                                                                                                                                                                                                                                                                                                                                                                                                                                                                                                                                                                                                                                                                                                                                                                                                                                                                                                                                                                                                                                                                                         O O     O   O     .     X   X X                                               ",
"                                            . .   . .       .       O   X . ` ( _ l .                                                                                                               : * * *     O                                                     : : - :                           O       X         @   + .   .               O                                                                                                                                                                                                                                                                                                                                                                                                                                                                                                                                                                                                                                                                                                                                                                                                                                                                                                                                                                                                                                                                                                                                                                                                                     X   + O       O   O O               X       O X                                       ",
"                                              O     O     O           O     ) ....] .                                                                                                               : * * :                                                       X . - - : :         O           X       O               . . .           X     X                                                                                                                                                                                                                                                                                                                                                                                                                                                                                                                                                                                                                                                                                                                                                                                                                                                                                                                                                                                                                                                                                                                                                                                                                           X . .           O     X                   . . O O O                                 ",
"                                          X     O     X X           O     . ) ( ( ) .       X                                                                                                     . * * * :     O                                                   . - - 9 : . .                       X             X     $ $ $ . .   . . .                                                                                                                                                                                                                                                                                                                                                                                                                                                                                                                                                                                                                                                                                                                                                                                                                                                                                                                                                                                                                                                                                                                                                                                                                               $ . $ . . . . . . . .   . . . . .   o . . $ $ + .                                   ",
"                                              O                       O . $ ] ..' [ . .                                                                                                             : * * * O   O                                                   . s - e :                         O         +         . C f.[ ] ] C ] ] ] M .     O       X                                                                                                                                                                                                                                                                                                                                                                                                                                                                                                                                                                                                                                                                                                                                                                                                                                                                                                                                                                                                                                                                                                                                                                                                 +         . c ] ) ) ] ] ] ] _ ] ] ] ] [ _ ] ] ] / ] ] ] ] C . .                                 ",
"                                                      O           O     . . ] [ ] ] . . X                                                                                                           * * * *                   O                                       : - : :                   O                         . f.d. . .[ ] [ _ [ ] $ O                                                                                                                                                                                                                                                                                                                                                                                                                                                                                                                                                                                                                                                                                                                                                                                                                                                                                                                                                                                                                                                                                                                                                                                                                 O   . . ] _ | ( _ _ _ _ Q { [  ._ { } { { _ _ _ E .._ t..                                   ",
"                                                O     O         X         . X . . .       O                                                                                                         1 9 * :                                                         . 4 : e : .                                 O         . ] ' o. .[ /  .{ { ] $   .                                                                                                                                                                                                                                                                                                                                                                                                                                                                                                                                                                                                                                                                                                                                                                                                                                                                                                                                                                                                                                                                                                                                                                                                                   . $ ] ( Q Q ( _ _ _ } E { ' _ | } { ( ( _ ..T } ( ] .                                   ",
"                                X                       .           O                   O                                                                                                         . : * * * X   O                                                     - : : :       O                                     . ]  .^  .] ] ..Q ( [ . .         O                                                                                                                                                                                                                                                                                                                                                                                                                                                                                                                                                                                                                                                                                                                                                                                                                                                                                                                                                                                                                                                                                                                                                                                                     X O     . [ ! Q ..) t.] [ ) / ] ] ] ) ) [ ] ] ) ) E Q ( ] + .                                 ",
"                                                X           X       .         X X           X O                                                                                                     : * * :     O       X                                           . : 9 : : .                 O                         . ]  . ./ $ $ ) _ _ ) .             O                                                                                                                                                                                                                                                                                                                                                                                                                                                                                                                                                                                                                                                                                                                                                                                                                                                                                                                                                                                                                                                                                                                                                                                                       O   . t._ / ) $   . . . . . .   . . . . . . $ ) [ ' g.. O                                 ",
"                                                    o . $ . . $ . . . . $     X X       O                                                                                                           * 9 * * .                                                   X   . : - - : O                             X     O       . [ { ( ) .   l _ _ ) .           O                                                                                                                                                                                                                                                                                                                                                                                                                                                                                                                                                                                                                                                                                                                                                                                                                                                                                                                                                                                                                                                                                                                                                                                                   X           l _ _ t..     O       O           X   . c _ ' f..                                   ",
"                                                  . k c ] [ ] ] ) ] ] ] x $           O .                                                                                                           < * * ;     O                                                   . : - : * . .                                 O       . [ ^ T [ . $ ] T { _ . X         O                                                                                                                                                                                                                                                                                                                                                                                                                                                                                                                                                                                                                                                                                                                                                                                                                                                                                                                                                                                                                                                                                                                                                                                                       O     . ] ( ( ] . O + O     X           X @ X . t.R ) ] .                                   ",
"                                        .       . $ C ] [ _ ( _ ( ( _ [ ] $ .   X     . . X .                                                                                                       * * * :                                                         . - - - :                   O               O O O       [ { } [ . . ) { { / .                                                                                                                                                                                                                                                                                                                                                                                                                                                                                                                                                                                                                                                                                                                                                                                                                                                                                                                                                                                                                                                                                                                                                                                                                         . ] _ ..y.. O O O O               O       r._ E [                                     ",
"                                      .         . . c ] ' { } { } | _ ) ` $ . O   O                                                                                                                 * * * *     O                                                   o 4 - : : .       O             O             . X     . ] { { ] .   ] _ | ] .           O O                                                                                                                                                                                                                                                                                                                                                                                                                                                                                                                                                                                                                                                                                                                                                                                                                                                                                                                                                                                                                                                                                                                                                                                                     O O O . _ Q Q ) .   O O           X     O O . $ _ ( Q _ .                                   ",
"                                          .       . c ' _ _ _ ] / ( _ ( ] % .                                                                                                                       : * * : .     X                                                   : - e :   O                               O O         ( { { )   . ) | Q ] .             O                                                                                                                                                                                                                                                                                                                                       .   .       .   .     .     .         . .                                                                                                                                                                                                                                                                                                                                                                                                                                                                                                                                                                                                                                                               .   .   .   .   .   . .                                                                                                                               O     + [ { { ) .                       O     $ ) } { ) .                                   ",
"                                    X X     O . O $ ] _ ( ) $ $ $ [ ~ ' f.$         .                                   .               X   X         O         X                                   * 9 * ; X   O                                                   . - - : : .                                 .         . [ { { ) . . ) E ! ) .       X     O                                                                                                                                                                                                                                                                                                                                     $ $ $ $ . . $ . $ $ . . $ . . . $ .   . $ $ $ $       O                                                                                                                                                                                                                                                                                                                                                                                                                                                                                                                                           X                                         X                     X     O   X       O           +       $ $ $ . . . . $ $ $ $ $ % .     X   O                                                                                                                         . [ _ { ] .                             + ' _ { ` .                                   ",
"                                          . O O . . ) _ _ ] .   $ t.' [ f..         .                                 X                                                     O                     X : * * :                                                         . : - - : O                           .   .     O     . [ { { _ . . u.E { ) $ O           O                                                                                                                                                                                                                                                                                                                                 O + k ) [ ] C c ] ] ] ] c c ] ] t.) ) l x M ) _ ) x X         X                                                                                                                                                                                                                                                                                                                                                                                                                                                                                                                                                                                                                                 X         o x [ ] t.] ] ] ] g.] ) ) ] v o               X                                                                                                                 . ] {  .] .               O   O         . ] { { ] .                                   ",
"                                O                 . l _ ( ) .   . l _ _ M .   X       .                             X                                                                               : * * *     O O                                                   : : 9 :                                             . ] { ( )   . ) E ( ] .                                                                                                                                                                                                                                                                                                                                               O . ] _ ( _ ] ] ] ' _ ' ] [ [ ( _ _ ' ' ] ] ( ( | c .         X                                                                                                                                                                                                                                                                                                                                                                                                                                                                                                                                                           X                                   X                                 O O       X C d.[ ) _ ] ] [ [ ] _ ] g.c .     O                                                                                                                           . [ { _ ] .                             . ] { { ] .                                   ",
"                                .           O     o r.R E Y $ . % ) _ ) ] .   X             X                               X                                     O   . . .                       X * * * : .                                                       . e : e : .       O         O       . O           X   . ] _ ( ] .   c _ ( ] .         X   O                                                                                                                                                                                                                                                                                                                                   . u.| E _ ) ] ] ' ] ( ' ] ) _ ( _ ' ' g.] { { ( ) $     .                                                                                                                                                                                                                                                                                                                                                                                                                                                                                                                                                                                                       X                             O   X     . ` ^  ._ [ [ _ _ _ _ _ / [ ]         O                                                                                                                           ] ..{ ] . X               O           . ] { { ] .                                   ",
"                                O     X     O O   . ) ! ! o.` ] Y _ { ( ] .               O     X   O       O                                                                                       * * * :     O             X                                     . : - : :                           O         X   X   O ] {  .] . . ] ( ..) .           O                                                                                                                                                                                                                                                                                                                                   X . u.Y Y _ l M c c ) c c c ] ] f.g.g.] c z ..{ ..] $   .                                                                                                                                                                                                                                                                                                                                                                                                                                                                                                                                                                                                                                               . $ [ j. . ._ { | ( ( ( [ _ ' ] .             .                                                                                                                   . ] { { ] .       X         O           . [ { _ ] .                                   ",
"                                O .               $ ) E Q ! ( [ [ _ {  .] $ X         .       O O       O       O         O                                                                       . : * * * .                                                       . : - e : .     O               O                 X   . ] _ { ] . . ] / { [ .       .                                                                                                                                                                                                                                                                                                                                         . u.R E l $ . $ $ $ $ $ . . $ . $ $ . $ % ` ( / ` $     .                                                                                                                                                                                                                                                                                                                                                                                                                                                                                                                                                                     X   O       O         O                                           O       . `  . .{ _ _ Q { ! E E / [ g.$     .                                                                                                                           . ]  .{ ] .                             . ] { { ] .                                   ",
"                                O               . $ ) _ } | _ [ _ /  .' ] $ .     .           X                     X             O O                           X   X     X               .         : * * *     O                                                   o : - s :                           O     X   X       . [ { ' [ . . ) (  .] .         .                                                                                                                                                                                                                                                                                                                                       . ) _ _ ] . . . .   . O   O   o X       . ) [ _ ] . .                                                                                                                                                                                                                                                                                                                                                                                                                                                                                                                                                                                 .                                                   O   O   O   . $ f.'  ._ _ _ { Q { E ( { ..] .     O   O   .                                                                                                                     ] { _ ) .                             . ] { { ] .                                   ",
"                                  X           O   . M ) ( _ ] ] ] ] f.] c $         O .   O                                               O O   X   O   O   O                                       * * * 1           X                                               - - : :                       O O                   . ] { _ ` . . ) (  .] .       .     O                                                                                                                                                                                                                                                                                                                                   . ) _ _ g.$ .                           . ) _ [ ] .   .   O                                                                                                                                                                                                                                                                                                                                                                                                                                                                                                                                                                                             .         O       O   O   O   O                 . f.[ ` ) ) ( ( Q ( E ( _ _ ] .   .               O                                                                                                             . [ { { ] o                               ] { { ] .                                   ",
"                                .                   . . $ . . X   . . . . .                     X                             .                                                                   X * * * : .   O                                                   . : - : * . .                                   O     $ '  ._ ) . $ l E _ ]         . .                                                                                                                                                                                                                                                                                                                                       $ ' { ' ] $     .     O O               . [ _ ( ] .         X                                                                                                                                                                                                                                                                                                                                                                                                                                                                                                                                                             .                                                                     .       & k ] c ) M ) _ { _ ..( { _ [ .         O         O                                                                                                   O           ] X.{ ] .       X                     . ] { { ] .                                   ",
"                                                                        O                           X   .   .           .     .     .   .       .         .     .   . . . X O   . o                 ; * * *     O                                                   . e - : :                         O   O       .       . ` ( } / $ $ a _ _ ] .   X     O                                                                                                                                                                                                                                                                                                                                       $ ] ..' [ $         O O   O         .   . [ { { ] .                                                                                                                                                                                                                                                                                                                                                                                                                                                                                                                                                   .                 . . o .       .     .     .   .         O     .     .     .     .   X   . .   . . $ $ % $ $ % Y ..{ / { E _ ] .                                                                                                                                 . [ _ { ] .               O             . ] {  .] .                                   ",
"                                                            X     X           O           X         & ; * : - : : : : 1 : : : 9 ; : : ; : : * ; : : : : : * * : - s : : - - : - ; &                 : * * :                                                         O : - : : .                       O O       .     . . . g.X.Q ..) ) ..Q ' g.o       O                                                                                                                                                                                                                                                                                                                                         . ] ( _ ] .         O             .     . [ { { ] o                                                                                                                                                                                                                                                                                                                                                                                                                                                                                                                                                                       ; = : : : : : : : : : : : : : : : : : * : ; ; * : : ; ; * : : : * : * = : : : : : * * * % 0 (  . .{ E E _ ] .                     X                                                                                                           . ] { ..) .                 O           . ] { { ] .                                   ",
"                                            .     O   X               O   O     O O               o 1 4 - - q q : : : : : - q 9 * * * * * * * * * * * * * : * : q q q q e e - : ; : . .     O X   . * * * ; .   O         X                                         . : - e :       O                           .     O   . ] ` { } [ _ Q ( ` ` .           X                                                                                                                                                                                                                                                                                                                                       ] _ _ ] .             O   O O         . [ { { ] .                                                                                                                                                                                                                                                                                                                                                                                                                                                                                                                                                   .       X   X       ; - - - : e - : e : : : : : : : : : 9 : * * * * * * * * * * * * * * r * * * * : : : e : * 9 '  . .{ { ( { ] .                                                                                                                                 . ]  ._ ] .                             . ] { _ ] .                                   ",
"                                                O O   O   O .   O   .   O .   O O   O             . * - q q q q : : : : - - - 9 : * 9 * : * * * * * * * * * * : - 4 - - e - : - : * .               : 9 * ;     O                                                   o * - : : .     O                 X           .       . c.g...( ' ' / X.' f..       X                                                                                                                                                                                                                                                                                                                                         . ) ( _ ] .           O     .           . ] { ( ] .                                                                                                                                                                                                                                                                                                                                                                                                                                                                                                                                                   X     O           o * : q q q - - e : : e - - : - - 9 : : * * * * * * * 9 : * * * : * 9 : * : : ; ; ; = ; * & 9 '  .{ { ( _  .] .                 X                                                                                                                 ] } { ] .                             . ] { { ] .                                   ",
"                                X           .                 . .           .   .               . . - - q s q q : : : < 3 : : - : * * * : * * * : * : : * : : * : : : - - e e e = ; .               * * * *                                                           : - : : O                                       O     V c z ` g.g./ ] C C .       O                                                                                                                                                                                                                                                                                                                                           _ { { ] .     X     . .       X       . ] ( | ) .                                                                                                                                                                                                                                                                                                                                                                                                                                                                                                                                                               X       ; : s e - : : : - * : : : : : : : : : * : : : * : : : : : * * * : : * ; 5 : ; 3 3 ; : < < % [ ~ _ _ { { ' ] .                                                                                                                                 . [ _ { ] .                             . [ { { ] .                                   ",
"                                      O                                                   O   . .   2 : : * $ .             O     .   O       .   X     .             . O $ $ * : : . . .     O     : * * ; O   O                                                   . - - : : .                 O                   O @ X   . $ .   . $ . $ . .           .   .                                                                                                                                                                                                                                                                                                                                   . `  . .] .         O         O           [ | { [ .       O                                                                                                                                                                                                                                                                                                                                                                                                                                                                                                                                   X       .         X     . . * : ; $ . . . . O       .       .         .             .           O     . .         .   $ [ .._ R ( ( _ ] .                                                                                                                                 . ]  .{ ] o       O                     . ] { { ] .                                   ",
"                                                      X               X                     O       2 1 : : . .                 O             O             O             . & < : * .               : * * * .           X                                           . : - - : .                                 O         X   .                     X   O                                                                                                                                                                                                                                                                                                                                         . [ { ' ] .   X                         . ] Q { [ .                                                                                                                                                                                                                                                                                                                                                                                                                                                                                                                                                         O           . * - : ; .                                   O               O           O     .       . . . ] ( ( ( E |  .] .             .                                                                                                                   . ] _  .]                   O O           ] ' { ] .                                   ",
"                                                                                                    : : * : X                     O     O                           O       : : : : .     . X       : : : : .                                                       . 4 : e :   .                                                                                                                                                                                                                                                                                                                                                                                                                 . ] Q ( ) .               X O     O O   . ] { { [ .   O O                                                                                                                                                                                                                 .                                                                                                                                                                                                                                                                                                                                     O         - q - :           O                                                                   .   . [ } _ { ( ( ..] .           O                                                                                                               X     . l [ ' y..     X             O O         t.' ' f..                                   ",
"                                                                                                    : * * :       O               O         X                               : - : :                 : : - : .       O                                               . : : : : .                                                                                                                                                                                                                                                                                                                               X                                                                                     [ ( ! ) $ X   O           O O   O O O . ] { { ] .   O                                                                                                                                                                                                           .                                                                                                                                                                                                                                                                                                                                           O           4 e e :       O                                                     X             O       . ]  .{ { Q ( ( ] .           .                                                                                                                     . ) / ' ` $     . . $ . . . . $ . $ . . . ) _  .g..                                   ",
"                                                                                                    * * * * .   O               O                         O O   O           ; : : ;             X   : - 9 : O           @                                           o - - : :                                                                                                                                                                                                                                                                                                                                                                                                                     . [ { E ) .   O O   X X     O   . O O   . y.( { )     O                                                                                                                                                                                                                                                                                                                                                                                                                                                                                                                                         O             O           - e e :           O         O                                           .       O           ] { E E { ( _ ] .       O         X                                                                                                       O       . v.} } ..) r.t.[ ] _ ] ) ] ] ` [ [ ) r.R E { _ ) .                                   ",
"                                                                                                  X : * * :                   X     O                           O   X       2 2 3 2                 : 9 e : .       X                                                 - - : * .     O                                                                                                                                                                                                                                                                                                                                                                                                             . ] ( ( t.. +                       . . . u.T ( ] .       X                                                                                                                                                                                                                                                                                                                                                                                                                                                                                                                                                   .       X   - q q e           O                                                       . .             . ] ( ( ( E {  .] .                                                                                                                           O   o . [ ( Q T _ _ ( ( { ( { E _ _  . .{ _ R E ! ! { [ .                                   ",
"                                                                                                    * * * :     O                             . .       .           O       - 4 - 2 O       O O     - q q : .                 .                                     . : - e :                                                                                                                                                                                                                                                                                       X                       .   X   .                                                                                               t._ _ ) .     O   .                   . t._ _ u..                                                                                                                                                                                               X               O                   O                                                                                                                                                                                                                                                                                                           O           O   O     X 9 q e : .       O                                                     .   .                 ] _ _ { ! | ( ] .                 X                                                                                                       O O . . $ g...X.{ _ _ E E ! Q { E _ _  . .{ { _ ( ( { ( f.$                                   ",
"                                                                                                  . : * * ; .                       X           .     . O   O   O         . - e e - .     O       . e e 9 : .                                                       . e - : : .                                                                                                                                                                                                                                                                                                       O                                                                                                           . t._ _ / % $ . . . . . . . . . . O .   $ j ( _ ] . . O .   .                                                                                                                                                                   .   .   .                     O         X           O                                                                                                                                                                                                                                                                                                                                     - e q :     X                     O                                                       . ] ..( ( ( ( ( ] .                                                                                                                       X         $ x ] ` / ] ) ) [ _ ) _ ) ] ] ] ] ` ] ] ) y.[ d.f..                                   ",
"                                                                                                    : 9 * 1     O                                           O             . - - q :               . - - : :       X                                                 O : - e :   O                                                                                                                                                                                                                                                                                                             O         O                                                                                       . $ ) T ! ( ] ] ] f.' ] [ ) [ ] ` ] ] f.f.] _ { ( ] $                                                                                                                                                                                 O O                                   O                                                                                                                                                                                                                                                                                                                       .           O           - q q 9 O                                                                         X       . [  .( | { ( [ ] .                                                                                                                             X     . . . $ . . . .   . . . o     . . . .   $ . . $ O                                   ",
"                                                                                                    * * * *               X               . .                       .       : 9 9 : .               2 * : :                                                         . : - e :                                                                                                                                                                                                                                                                                               X             O       O                                                                                               $ ] ( ( _ [ ] [ [ ' _ [ _ _ [ [ [ ` h.] g.( { _ ] .                                                                                                                                                                                                               O       O   O .   O   O O X                                                                                                                                                                                                                                                                                                                 O           4 9 q :       O   O             O                                                         . ] _ _ ( _ { _ ] .                                                                                                                         X                                                     . O   O                                 ",
"                                                                                                    * * * :     O                         .                           O   . : q q - .         X     s : : 1     X     .                                             o * - : : .                                                                                                                                                                                                                                                                                   X                         X       X                                                                                             X k M u.t.x c M ] t.] ] ] t.] g.] ] f.S C ] ] t.k =     X                                                                                                                                                                           O                                       .   .                                                                                                                                                                                                                                                                                                                             O           4 e 9 :           O                                                 X                     . ] ' [ ) _ _ _ ]                                                                                                                                           O   O O   O   . .     O                   X                                   ",
"                                                                                                    1 * * * .   O                                   X       X X           . = - - :     .           4 - : ;           O     O O                                       : - e :                                                                                                                                                                                                                                                                                   O               X                                                                                                                   . $ $ . . . . . $ $ $ $ . . . . . . . $ $ $ $ $         X                                                                                                                                                                   O                                                       X                                                                                                                                                                                                                                                                                                       O               .           - 9 e e       O                   O                                                       . C ] ] ] ] _ ] c . X       X   X     X                                                                                                             X   O     O O   O   X .                                                               ",
"                                                                                                    : * * :                             . .         X             X X   X   - - e : X               : : ; ;     . O . O                                             . - e : -       O                                                                                                                                                                                                                                                                           .                                 X                                                                                             @     . . .   .   . . .       O .   X       . . . .   X @                                                                                                                                                                       O                           X       X                                                                                                                                                                                                                                                                                                                                           O         . : e e : .     O                                                     O       X             . $ $ $ $ 9 8 8 r .                                                                                                                                                           O                   X                                       ",
"                                                                                                  . * * * ; .   O         X                       X       X   X             ; : = ;         O     X : : : * .     .     @   X                                       . : - : : . O                                                                                                                                                                                                                                                                                     O                                                                                                                         O     O   O                                   .           X   O                                                                                                                                                                   X     .       .     O                           X       X                                                                                                                                                                                                                                                                                                         O           O   X       - e q :         O               O                                   .         .         X     . . . 9 9 w e   o                                                                                                                                   X           X     O O   O O   .   .                                               ",
"                                                                                                    : 9 * ;                           O   O       X         . . .           : : * ;               O * : * & .     .         X                                       . : - : :                                                                                                                                                                                                                                                                                               X .       .   . .       .                                                                                           O O . . O O X           O   O O             .   .             .                                                                                                                                                                           . .   .     .   .         X   .                     X                                                                                                                                                                                                                                                                                                                 O           - q q :         O                                                   O       .             @         * * 9 -       O     X                                                                                                           .         . .             X       O   O   . X . . O O   .                                       ",
"                                                                                                    * * * *     O                           O       X   . . $ $ . . $ . . . % 9 9 % . . $ . $ . . $ 7 9 9 9 $ . . . O .                                             . : - : -                                                                                                                                                                                                                                                                                           . .     . . . . . . . . . . . . .   . .   .                                                                                 O       O                     .           O X . X     O   .                                                                                                                                                                               O . . . O .   .   . X       . . O . . . X                                                                                                                                                                                                                                                                                                             .           O           4 e q :           O               O                                   .             O         . X   & : 9 - .   O O                                                                                                                   O                                 O     O     . O . O .                                       ",
"                                                                                                    : * * * O                   O       .       X       . . C c ] ` ] / ) j [ ..[ ..) ) ) ] ` ` ] l [  ._ [ ` l ] g.C V $ .                                         . s - : : .                                                                                                                                                                                                                                                                                   O     O     $ . . . . . $ $ . $ . $ . . . . . .                                                                                     X                 .                                     .                                                                                                                                                                     O   . ; ; ; ; ; ; ; : ; ; ; : : : : : : : : : * ; 1 ; .                                                                                                                                                                                                                                                                                                                     .         X - e 9 e .   O     O                                                                 O   @           ; : e -                                                                                                                                                   O   O                                                                 ",
"                                                                                                  X : 9 : * .                 O           O         X   . + f.[  .{ { [ _ T ..} { } /  .{  ._ [ ' '  . .{ { ( [ ' [ ] f.. o   .                                       : : e : X .                                                                                                                                                                                                                                                                                 X     . . . V A S S M c C c.] c M f.M C S A A   .         X                                                                               X         O   O           X       O     +                                                                                                                                                                                   . ; 2 : * : : ; * : : ; - : : 4 e - : - : : - 4 ; .   .                                                   .   .     .     .     .       .       .       .       .                                                                                                                                                                                       O                   O       - q e :                         O                                   X                       . O     ; : e s     X                                                                                                                     X   X               O     O       O         X     X                                           ",
"                                                                                                  . : 9 w - .         O             O                 O . $ ] ( { } ( [ _ ' { { } | ( {  . ._ _ [ ( | ( { ..' ' { { ' ] . . O         O   O                         O : : : ; .                                                                                                                                                                                                                                                                                 O O     . . $ c ] ] [ [ ' ' ' _ [ _ ) ) _ ] ] S .           O                                                                                                                                                                                                                   O .                                   O O   O                                   X       O ; - q : & : : : : : * : : 9 : - : ; : : 5 : - : .         O           X       O             O     O . $ $ $ . . . $ $ . . $ . . $ . . $ . $ . . . $ . $ . . $ $ . .     X         .                                                                                                                                                                                               9 q q -           O               O                                                               . * : - :                                                                                                                                                                                                                         ",
"                                                                                                    : q q 9 .         O .             O   O     .         . ] { { } / ] l ] ' _ _ _ / [ ` ] ) ) ) R [ _ ` ] ] [ { { _ ] .     X                     O             .   ; : : ; . X     X                                                                                                                                                                                                                                                                               O   . $ c.c ] ) ) ] ] ] ] ) ) ) _ [ ] ] c $ . .                                                                                                                                                                                                                                         X             X             O O                                             : q e e : : * = : : * : : - : : : ; : & : - - 3 .       .   X O     O                 X       X   . k t.] c ] c c ] c ] c M ] ] c c c c c c ] ] c c c C c c ) ) l d o               O                                                                                                                                                                   O O           O           - e e : .     X                                                                                     * : : :                 X                                                                                                                                                                                                       ",
"                                                                                                    : - 9 : .   X               X     O O O                 ] [ ( ) $ . . . q 0 % 9 $ + . . . . . $ * 9 9 % $ $ ) ( _ l .                   X                     . . * - 4 *                                                                                                                                                                                                                                                                                           . . . d S k = $ . . . . $ $ . $ % g S S . .                                                                                                                                                                                                               X                                   O                   O                                               : e e = . . . .   . . X . .   O .   . . * : : 3                                             @     $ S ] / [ [ ] ) [ _ _ _ _ _ _ _ _ _ _ ( [ _ ( ) _ _ d.d.[ _ | [ x .                                                                                                                                                                                     .           O       X O - q q :           O             .                                                                   : : : :                                                                                                                                                                                                                         ",
"                                                                                                    * : * :                 X                             . ] [ ) x .       : = : *               . & * * * $ $ ) _ _ ) .     O                         O     O . . . : - : : .           X                                                                                                                                                                                                                                                                       O           &         X X           O . $ .               . .                                                                                                                                                                                                       O O   O   O   O                     .                                                               : : - : .     .     O     .   .   .     ; - - * .                                         O   .   . l _ ( [ ( [ ) ) ) ( ( / _ _ _ _ ( _ ( _ _ _ _ ( [ [ `  ._ ..[ t.$ .           X                                                                                                                                                                                   O     X     - e q :           O                                                                                 : : - * .         X       .                                                                                                                                                                                                     ",
"                                                                                                    ; : : <             .             X       X           . ] _ [ ] .       i s : ;     O         . ; ; : : : 9 _ ! { _ 9 * * : - : - : : : - : e : : : : : : : * : * - s - 2 O .                                                                                                                                                                                                                                                                               X       X                     @ X         .   .               X                                                                                                                                                                                                           O       O O O     .                                                                             : : - * .                           . . ; - - :   .                               X     O O O O . $ n _ / _ j l n n n c c ) t.M ] c ] c c c ) M l ] ] f.` ) ..| _ ` $ .                                                                                                                                                                                 O                         - e 9 :           O                                                                               . : : : :                   .                                                                                                                                                                                                     ",
"                                                                                                    : : 9 : .       .     .   X .       .   .     X       . ] _ [ ] . X     * = - *   X   X     . . = * : 4 e r ( Q } _ 9 : - : e - e : e - e - q 9 - - - - e - : 4 : - - * - .                                                                                                                                                                                                                                                                                         X           O         O O   O   O     O                                                                                                                                                                                                                               O           .   .                                                                   .       : : e ;       X     X X               . ; e : * . O                                     + . O   . . M _ ) ` % $ . $ . $ $ . . . . $ . $ . $ $ $ . . $ $ % 7 Y _ _ ] $ . O           O                                                                                                                                                                                 . O     X   - q e : .   O                   O                                                                   : : - ;                                                                                                                                                                                                                         ",
"                                                                                                    : e : : . . X . . . . . . . .   .   . . .   . .       $ _ ( { ) $     . : e * &   O       . O + 2 2 2 - - 7 _ { { / r * * * : : - - - : - : : - - - - - 9 : : : : : : : 4 .                                                                                                                                                                                                                                                                                               +   O   . O O O O O   O O . O O           X   X                                                                                                                                                                                                                               .     X O             .   .                                                 O : - : ;                     X         X ; : : : O             .   X     .                   X     $ l ) ) l $ . .   .     .         .           O   . . . $ n [ ] x . .   .                                                                                                                                                                                                     . - e q -           O             O                                                                   : : - :       .               X                                                                                                                                                                                                 ",
"                                                                                                X . e : 9 e = : : : - 9 : : * : : * 2 2 - : : : : : : : < % ..{ T ..% : : = 9 9 * : .             . ; 2 2 3 - 9 _ { } / 9 ; ; : : ; : : ; : : : : : : 3 : : : : ; 3 ; : : ; <   .                                                                                                                                                                                                                                                                                 O     X             O . . O .   .   .   . .         X                                                                                                                                                                                                                                                       .                                                           : - : *   X     X O   X         O       : : : : . .                 .   .     X                 . $ l ) u.f.$ . .     O         O         O O             . N l t.c $ .           O                                                                                                                                                                                   O   O       - e e - O     O                                                                                     : * : * .                 .                                                                                                                                                                                                     ",
"                                                                                                .   : : * * : : : : - - e - : : : : : : : - - : - : ; : : 7  .{ { _ 9 * ; * * : * &                 X   .   . $ ) _ { ] .         O   .     .       .       .     . .   . .                                                                                                                                                                                                                                                                                                                         X   O   .   .                                                                                                                                                                                                                       .           X             O O . . O O . .                                               .       X : : - :     O       O         O       . ; : : : .                     O O   . . +       X         . n ) ] ] $ O O .   O       O     O         O           . M ) ) c .   O                                                                                                                                                                                             O   O       - q e :           O                                                                               . * : : *                                                                                                                                                                                                                         ",
"                                                                                                  o : : : : : : ; : - e - : : : : : : 3 - 3 : * : * 2 ; : 9 _ } T _ 9 e : ; ; ; ; & .   .                     . ) _ ' ] .                                 X                                                                                                                                                                                                                                                                                                     .   O         X           X                           O .                                                                                                                                                                                                           .     . .                 O O . . X   .   O O   O                                                     : e : 2 .       O     O     O       .   ; : : :         X     O   O   O     O             O     . $ l ) ) f.$                 O       .   O       O     . . M ) ) c .               X                                                                                                                                                                   O O           .         O - e q -         O               O                                                                   : : - : .                                                                                                                                                                                                                       ",
"                                                                                                . . : : : < : ; 2 3 2 : : : < 1 : : 2 2 2 : : < ; ; 3 ; 1 * [ | ..[ 7 : : 3 2 ; ; ;   O O                     $ ] _ ' g.$   .                                                                                                                                                                                                                                                                                                                                     O O             X   X         X                           X                                                                                                                                                                                                   O O     O       X   X   X O X                                                                             : - - :   .     .   O           O     O : : * :                     O             X         O . . . M ] ) M . O                                         . . t.] [ ] . .                                                                                                                                                                                   .                       - e q :   X O     O                                                                                 : e - :                   .                                                                                                                                                                                                     ",
"                                                                                                              .     .   X .       .     O     . .   .     . / ( _ / $ . . O . .   .   O O O                   . ` _ ' [ .   O                                                                                                                                                                                                                                                                                                                                                           X     X             X                                                                                                                                                                                                                     @   O . O                           X     X       O       O                                             : s : : .     .   O O     O   .     .   ; : * < .       O     O   O   @ O X   X         X O   O   . l ) ] M .       X                                     . ] ( ' C $ .   .       O                                                                                                                                                                                   O     X     - q q : .                       O                                                                 . : : : ; .                                                                                                                                                                                                                       ",
"                                                                                                X                               .         .   .     O     . ] ....] $   O   .         O   O           X       o ] ( _ ] .                                                                                                                                                                                                                                                                                                                                         O                                                                                                                                                                                                                                                             X X                                     X     X         O     O                                           : : - :     .   O X       .         . . ; : : : .       .                         X         .   . $ ] [ ) ] $ .                                   O     . . ] ) [ ] $ .             .                                                                                                                                                                   O             .           e e q :       O O                                                                                   : : - :                   X                                                                                                                                                                                                     ",
"                                                                                                                                                          . ) _ [ c .                 O                       . ] _ ' ] .                                                                                                                                                                                                                                                                                                                                                       .     O     .   .             X                                                                                                                                                                                                                     X O . . $ $ . o   o . . . . $ $ . .                       O                                         . : : 4 : .                     O         : : : : .       . X             O   o . . $ . . . . $ . $ % j _ ] ] $                                           . $ M [ [ c $ .       X   O .                                                                                                                                                                                 O           : 9 q :                                                                                             : * : :                                                                                                                                                                                                                         ",
"                                                                                                    X     X     . O   O   X             O                 . ` _ _ ) .     X   .   X     @       O .           . ] _ ..] .                                         X         X                                                                                                                                                                                                                                                                                                 O                 O                                                                                                                                                                                                                               . . V c g.[ [ / [ ] ] ] ] [ [ [ ` [ ] c.c C $   X                                                         : : : *     X     X                     : : : : X                       . . x x ] g.] ) ] ] ] ` j Y ..{ ' g.. .   X                                     . . c _ [ c $ .         X                                                                                                                                                                                       O       O - q q :           O                                                                                 : : : *                 .                                                                                                                                                                                                       ",
"                                                                                                    O               O                 O         . .       . ) _ _ ) .         . .             . . O   .       . ) ( ( t..   X                                                                                                                                                                                                                                                                                                                                                         O             O   O                                                                                                                                                                                                                       . . c.[  .'  .[ {  ._ { ' _ }  . . .(  .[ g.. . . .                                               .     X : : : : .                             O ; : : : .                   . . . $ g.[ [ ` ' ( { ( ' ' j._ / ' ' ] $                 X     X                     $ f.` [ ] .                                                                                                                                                                                                 O   X       - e q : .     X   O               O                                                               . : * * :   X         X                                                                                                                                                                                                           ",
"                                                      O                                     X                                       O O             O     . t._ _ ] .         O         X                     . ] ( { ] .                                                                                                                                                                                                                                                                                                                                                                                                                                                                                                                                                                                                         . [ | } ^ [ [ '  .'  . . . . .d.j.Q } { ] .   .                                               . O   . . ; * ; : o                           . . : : : 2                       O . . ] [ / [ [ '  . .' ' '  .[ ` ] S $     o       X   X   X O             O     . $ g. .' ] $ .     O                                 X     .   X                 o                 O             X   O                                                                                       O           - e 9 :           O             O                                                                   * 9 q e   X                                                                                                                             O                                                                                       ",
"                                                                                                              X                                   X O O   . n E E ] .                               .         o ] { { ] .                                                                                                                                                                                                                                                                                                                                                                                                                                                                                                                                                                                                       X   ) T } { ` c ] [ ] ] ] f.] t.c ] { Q J ] . X                                                           ; ; : &   .   .     X     .           $ * : : :   .       .               $ ) ..{ g.v [ ] ] g.[ ] g.] f.x M $ .               @                   O       $ ] ' ' ] $ O           X                     O O @ O   . $ . .   . . .   . . $ $ $ . . .   . . . . . . $ . o       .   X                                                                                   O           - q e : .                                                                                           9 0 8 9 . . . $ $ $ $ $   X                                                                                                       O               O     O                                                                       ",
"                                X                                 .               .               O                             X                         . ) ( E ) .   O                           O         . ] ( { ) .                                                                                                                                                                                                                                                                                                                                                                                                                                                                                                                                                                                                         . t._ } / $ . $ . . . .   . . $ 7 ( } ..t..           O                                             . . ; : * e : - - - 2 - : : 3 3 ; : ; : * : e - - : o .       O         O   + $ ] ( ( ` % . . .   . . . . . . .         X                           X   X X   $ f.] ] c .         O                           O   X   x ] ) j t.) ] ) ) l ) ] [ ' ] l ) ) ) / ] ] ` [ ] t.d . . . +     X                                                                   O             .         . - e e :       O   O                                                                               . n.C.C.A.V.V.V.V.V.C.Z.M.$                                                                                       .       .                                                                                                       ",
"                                                                        .               .                                                           O     . [ { ( ) .   O                 X                   . [ { { ) .                                                                                                                                                                                                                                                                                                                                                                                                                                                                                                                                                                                                         . ] ( ( ] $     X               $ _ ( ( t.      .                                                     O ; ; * - q q 9 e q s - 4 - : : : : * : * : : - : .         X             . . ) Y ..] $   X         X .     .         O . .     O                           . l ] ) M .       O               X         .           c.g...{ | ( E ( ( _ ( ( { ( _ _ _ ( _ ( { ' { ( ( ) t.$ . + O                                                                                       O       X   - e q : O       O               O                                                                 $ A.S.a.a.z.2Xq.0.a.S.D.A..                                                                                                                                                                                                       ",
"                                                            O                 X                           O     O                                         $ _ { ! ) .                               .         . ] { { ] .                                                                                                                                                                                                                                                                                                                                                                                                                                                                                                                                                                                                         . ` ( { [ . o       X   X     o . u.E Y c                                                       O       : : 4 - e e e q s s - q q - : * ; : * 9 * : * :   X         X             $ ] / _ ] .                     O     .                                     X   $ c ] ] M .           O         @   O           O . O . g.( ^ ^ } _ ( .._ _ _ _ { { ' _ _ { ! Y ( ..{ { Q _ t.$ .   O X   X                                                                                 O           - q q :       X             .                                                                     . C.l.S.0.z.z.z.l.S.l.l.Z.$     .                                                                                                                                                                                                 ",
"                                                                                                  O   O                                             O     + _ { E ) .   O                                     . [ { { ] .                                                                                                                                                                                                                                                                                                                                                                                                                                                                                                                                                                                                         . ] _ { ] .   .                 . ] [ _ t..     .                                               X   X   2 ; ; : - e e - - 4 - : : - : ; * ; * * & : & ;                 X     O O . t._ _ ] $         X         .     O   O     X O . . . . . . . .     X o     . $ ] ] ) M .                                 . .       $ g. . .X./ [ [ ] ] ] ] ] ] [ ] ] ] ] u.R ) ) / ../ _ ) $ . . O                                                                           .           O           4 e q : .     O   O                                                                               . n.C.V.A.C.C.A.V.A.Z.Z.M..   O                                                                                                                                                                                                   ",
"                                                        O                                   O     O           O                           .         X     $ [ { ( t..                     X                   . ] { { ] .                                                                                                                                                                                                                                                                                                                                                                                                                                                                                                                                                                                                         . ] ) [ ] .         O O   O     . ] ) ) ]         O                                                     .   . . O .   .     . . .   .   . O .     . . X           .               . t._ ) ] $ .                 X     X       X     . $ . . $ . . $ . $ . . . . % 7 / [ ( ] $ .         O             O O         O   . . ] ' ' ] $ . . . . . .   . $ . . . . . . $ $ % ] ) ) x . .                                                                                           .           - e e :           O                                                                               . 0 0 8 0 $ $ . . $ + + $   X O                                                                                                                                                                                                   ",
"                                            X         X     O         X   O   O       X                   O     O   O                   O             X   . ] { ( ] .   O                             .       o ] { _ ] .                                                                                                                                                                                                                                                                                                                                                                                                                                                                                                                                                                                                           ) _ _ ] .             O .     . l _ ( ] . X   .                                                   O   X   .                   .             .                                 + $ c [ _ c $ . O . O             X     O         . x S t.z c M ] C ] ] g.] ] ] ] ` X.' _ c.$   O                   O                   . '  .[ c.. .                           X     $ C ] ] M . .       X                                                                   O                   O   X   - q e 9                                                                                             * 9 * 9                                                                                                                                                                                                                         ",
"                                                                                                                            X     X O O O                   ] _ E ) .                     X                   . ] { { ] .                                                                                                                                                                                                                                                                                                                                                                                                                                                                                                                                                                                                         . ) ( ( ) .             O       . ] ( _ ] .     .                                                                         X           X                             .           O $ t.) _ l . O                                 . . C ] [ ` ( ` [ ] [ [ [ [ _ ` ' '  .' ' f.$ .           O   O     O                   . [ _ ' ] .     .             .     O     O O $ C f.f.c .                                                                                                       X 9 q q - .         O               O                                                               . * * q 9       X                                                                                     X             X                                           X                                                                 ",
"                                                              .                       .                           O                 O   O     o     X X   . ] _ ( u..   O                             .       . ] { { ) .                                                                                                                                                                                                                                                                                                                                                                                                                                                                                                                                                                                                         $ _ ( ( ]         X             . ] ( ' ] $   .                                                                       X                                         X O             . . c ) _ c $               X                     $ ] ' ..[ [ ] ] d.` [ ' ` [ ] ] [ ' d.f.c . .                       O                 o [ _ ' [ $           X                 O O   . C ` ] c . .         X                                                                     O           O           - e e - X                                                                                           * * q e                                                                                                       X                                       X                                                                         ",
"                                                  +   . .                                                     .     .     o         O O O         X       . l _ ( r..   O                                     . ] { ( ] .                                                                                                                                                                                                                                                                                                                                                                                                                                                                                                                                                                                                         $ _ | { ] .           O   .     . ) {  .' $ . .         X                                                                               O           O     O                       . c / _ c . .                         . . .   . $ ] / _ [ Y ] ] ] ] ` ] ] c c c x c f.C x . X         O           O         X           ] _ _ ] .                                 . $ ] ) [ ) $ .                                                                             O             O     X     - q e -           O                                                                                 & : - -     O .                                                                                 X                         X           X X                   X                                                                   ",
"                                          X             . . . O O     .       .           .       .     . .     .                       O O O   $ .   .   $ ) ( ( u..                               X           [ { { ) .                                                                                                                                                                                                                                                                                                                                                                                                                                                                                                                                                                                                       . $ _ E { [ .                     $ ] { { [ .                                                                         .   X       O               O     . O .         .         O   . t._ _ c .                 X   .       .     . $ ] ( _ ) 7 $ . $ $ $ + $ $ . $ $ . . . .               O           O             X   . ] { _ ] o       O               O           . ] ( _ ) $         .                                                                                   O           4 e q :       O                   O                                                                 ; 2 4 2         .   .                                                                                                                                 X                                                                         ",
"                                                  o   * ; ; : : : : : * : : : : : * : : : : : * : ; ; : : * : : : ; 2 ; : &   X             . $ . $ $ . . % Y { ( ] .   O                                     . ) { { ) .                                                                                                                                                                                                                                                                                                                                                                                                                                                                                                                                                                                                         . ) _ _ ] .               .     $ ] { { ] .             X                                                       .         .                         O   . .                 X   . + c _ [ ] . .                   X             . $ ] _ [ l $ . .   . .         .   X .   o         X       O           .           @   . ] .. .] .     O O                           $ ] ) _ n $ .         .                                                                     .                   X   - e 9 :     O   O                                                                                   2 2 4 4 .         O   .     O                                                                             .                 X     . .       .                                                                                   ",
"                                X                 X   ; * : : - : - - : 9 - : - : : - - : - - : : : : : : : : : : ; : ; ; & .   .   X O O   . x t.c.] ] l l ..} E ] .                               O .       o ] { ..] .                                                                                                                                                                                                                                                                                                                                                                                                                                                                                                                                                                                                           ) _ _ ] .   .     X       .   . ) ( _ [ .           O                                                               .   .                             X         O             O $ ] ) _ c $                                     $ ] ] ] c $               X                                         O                 . ) { { ]         O O                     X   . t._ _ ) . X   O   O O                                                                                 . O         - q e : .                       O                                                                   : - q 4                     . O                                                                 .             . X     . .     .             .                                                                                   ",
"                                                  . . : * : * e : : : : 9 : : : * : : : : : : * * : : 9 9 : : : : * 5 * : ; . .             . S ` / ] [ ) ) } Q ! ) .     O                                   . ] { { ] .                                                                                                                                                                                                                                                                                                                                                                                                                                                                                                                                                                                                         . ] _ _ ] .                     . ] _ _ ] .       X                                                           O                                                     O           . . ] / _ l . X                                 O $ f.[ ] c $         O             +   +                 O   X       . . .             . [ { { [       O O .           .             . c ' ) c .                                                                                               O         - e q -         O                                                                                   * * 9 -     O                                                                                       . X .         X .   O   .   . .   .   O     .   .     X X                                                                   ",
"                                                  O . : * : * : : : : : : : : : : : : : : : : : : : : : : : : : 4 : : * : : .   X       O . . c ] [ ' ] ) ) Q } { ] .   O       X                             . ) { { ] .                                                                                                                                                                                                                                                                                                                                                                                                                                                                                                                                                                                                         . ] ( ' ] .                     . ] ( { ] .             O O O                                                                                 X                                   $ t.( _ ] $                 X                   $ ` [ ( c . .   O O   X   X             O                                   O         . [ { { [ .     O   .       . X         X     $ g.' [ ] .       O                                                                       O                       . - e - - .         O           .                                                                     * * 9 9 .     O O   X                                                                             . ; ; : : ; ; * ; ; : ; ; ; ; : ; ; : : ; : : ; # .                                                                           ",
"                                                    . : - e :       .     .     .     .       .         .   .     . * * * : .               . ] _ _ ' ] m M ..Q | ) .     . O                           O     . ) E } _ .                                                                                                                                                                                                                                                                                                                                                                                                                                                                                                                                                     O         .   .     O                               . [ _ _ ) o     O   . .         $ ) | E ) .               O                                                                                                                   O   $ M _ _ c .                                 O   $ ] _ [ l .       O                                                                   . ] ( ( ) o         O                         . c ) [ ] $ O                                                                                                     . ; - 5 ; .   X . .   .   o     . .             .         .   X O         O     X   .         .       : * * i   .         O   O     O                                                                     : e - * ; : : : 3 : : : : : : : * : 1 : e = : :                                                                             ",
"                                                    . : e - : .                                                   . : * * ;               . . c [ _ ` $ . . / | { ' .   O X     X       O               O O   . n E } _ +                                                                                                                                                                                                                                                                                                                                                                                                                                                                                                                                                         X     X     . .               .   X             $ ` [ [ l .       .   .   X     . ] ..Q [     O X           O                                                                                                                     $ ] / _ ] .                                     $ ] _ _ c $ .                                                                     O O . ) ( ( u..                     X             $ ] _ _ ] $     O                                                                         O                       . ; : : : = * : : * ; : - : : - : : : < : : < < : ; < : < < : : < : : < : ; < : : ; : ; < < : < : < : : : : : . .   X       O                                                                             : q : e = : : : : - : : : * : : * : : ; : * 9 :         O                                                                   ",
"                                                    o - - e :                                         X     O       : * * :                 . M ( ' ] $ . . [ { | ] .                     X     X       O O   . l _ / _ .                                                                                                                                                                                                                                                                                                                                                                                                                                                                                                                                                               ; ; ; ; : * : * : : : : : * : : : : * * * * w 8 w 9 $ & 5 2 ; o   O       . ) ( ! [ .   O     X     O                                                                                                                       . l ( _ c $                                   O . c ( _ c .                                                                           . ) ( E ) .   O                             . $ ] _ _ ] . .                                                                             O                   .   . ; : - - - e : s e - e - - - - e : e : : - - : : : - - : - : : - : : : - : : : - : : - - - - - : - - * : : : .               O                                                                           * - - 9 = * 3 3 : : : : : : - : * : ; ; e 9 9 :                                                                             ",
"                                                      : q e :                                   O                 X ; * * *     X       . . . c [ _ [ $ . . [ { { y.  X O X           X                 O O   . ] _ _ ] .   O O                                                                                                                                                                                                                                                                                                                                                                                                                                                                                                                                                         2 1 : : : * 9 * * e * * : * 9 * : 9 * * * 9 q q s 4 : : & ; 4 O O   O   X O t.E T ) .     O     X                                                                                                                           $ t._ ( c . .                                   $ t.( ) c .                                                       X               O   . ) E ( ] .                                   . M _ _ ] $     O     O                                                                                           . ; : : - - - - - - - - e s : e : e - e : 4 - - - s e s : e - - e e - 9 e - e e - e e s : e - : e : s - e : 1 .     O   O   @                                                                             : e 9 * . .   . .   X   O . .   . .   . * * e :       O                                                                     ",
"                                                    o : - e :                                                       : * 9 *                 $ c [ _ ] $ . . ) {  .] .                 . O                 O   . ] ) _ ] .                                                                                                                                                                                                                                                                                                                                                                                                                                                                                                                                                       X     . ; ; * * * * * * : * * * * * * * * * * * * * * : 4 = - & * ; 1       . .     ) _ ( u..   O O     X                                                                                                                       O   $ M ( ' C $                                     $ ] _ _ ] . .                                                                     O   . ] ( ( u..   O                               $ ] _ _ ) $                                                                                                       . ; ; : 4 : : : : : : : : * * : ; * ; * : : * ; * * & : : * * ; = : * * * ; ; : : : : * * ; : * : * = * : ; &                                                                                           O : e - : .   . . .       . . .   . .   . : s - : .                                                                           ",
"                                                      4 q - : .                                               O   . : * * :     O         . . c ) _ ] $   . / ( { ) $ . . . . . . . $ . $ $ $ . . . X . . . . $ ) _ _ ]     O                                                                                                                                                                                                                                                                                                                                                                                                                                                                                                                                                 O         3 : < : : ; ; * : * ; * * ; ; : * : * ; & & e 9 7 7 g % 9 * & .   . $ $ . % R _ ( ] .     O           .                                                                                                     O       .       $ ] / _ c .                                   . . ] _ _ c . O                                                     X                   . u._ E ) .                     X           . . c ) [ ] . .   O                                                                         O                   X       .   X .   . X . X   .   X O . .     o   .   .   o .     o O .   .     . o   . .     o   . O   . o . . . .                                                                                             : : : ; .                   .         O * - - :       X                                                                     ",
"                                                      e e : ;                                   X                   1 * 9 :               . . c [ _ l $   . ] ..{ | ) ] f.h.] / u.r.] [ [ ] ] ] ] ] ) _ [ [ [ ] ( | _ r..   .                                                                                                                                                                                                                                                                                                                                                                                                                                                                                                                                                         . ; * : : .     X   . .     .     .       . . t._ _ _ ] 8 7 9 9 x M t.) ) ] ` | { ( ) . O O                                                                                                                                   . t.( _ c . .                                 O . ] ( _ c .                                                           X           O   . ] E E ) . O O                               $ ] _ _ ] $                                                                                                         . X     .                                                                                           . .                   . .                                                                           * 4 : *       O O   X             X     ; - : 3           .                                                                 ",
"                                                    . - - - : .                                             O       : * * * .               . M / [ g.$   . ] E Q Q _ '  . . ._ ) E _ { {  ._ _ _ _ E Q } {  .' { ( R n       .                                                                                                                                                                                                                                                                                                                                                                                                                                                                                                                                           O       . .   : : - 4 .                       O         . y.( Q { [ 0 8 0 9 ] ) [ / ( [ ..Q } { g.$                                                                                                                                       . t.( _ ] .                                     . ] ) [ ] . .                                                                         . ) ( ( ] .                                   . ] ) _ c $ .     O                                                                                       X         X   X                                                                                                 O                 . . $ $ X                                                                     . * - : = .                   O           ; - : :     .                                                                       ",
"                                      X             . : - - : X                                               O     * * * *               . . M _ ' ] .   . ] | Q | { '  . .} E E E { { | { / { {  .Q ! ! Q [ ' _ { ) M .   .                                                                                                                                                                                                                                                                                                                                                                                                                                                                                                                                                 O         : : e :         O   O   O     O     O     $ ] { { } [ 0 0 w 7 ] [ _ / [ [ [ ( | ' g..                                                                                                                                       $ ] ( _ c .                                   O $ ] _ _ c . .                                                                   O     . ] _ E ) .                   X               $ c _ _ ) .                                                                                                 X                                                                                         X                       . O   O     o c c ] c                                                                         : : : :           O                 X   ; - : :                                                                             ",
"                                                    . : - e : .                                                   O * * * :               . . c [ / ] .   . ] { Q ..] ] g.` / _ E | ( / ` ] ] g.] ( | Q T ..` ] [ [ l m X                                                                                                                                                                                                                                                                                                                                                                                                                                                                                                                                                           . . : : : : .   O                   O         . x ] [ ) j 9 9 9 9 l z ] ] ] z ) [ [ ] c .                                                                                                                                     . . M ( _ c $                                   . . ] _ [ ] .                                                                         O . ) E ( u..   O                             . $ t._ [ ] $ .   O                                                                                                                                                 X                                                                         c _ [ ] .                                                                       : - 9 :               X                 ; : : :       .   X                                                                 ",
"                                                    . e e - ;                                       X       O       : * * *             .   . M [ ( ] .   . ] _ ..Y $   . . % ] ) [ ` % $ . . . . . l E R ) $ $ $ . . .       O                                                                                                                                                                                                                                                                                                                                                                                                                                                                                                                                                       . : : - :                                     o . . $ . * * * * $ . $ $ . . . . $ . $       .   X O .                                                                                                                         $ ] ( _ ] .                                     . t.) _ ] .                                                     X                     . ] E E ) .   O                               . c ) _ ] . O                                                                                                                   X                   .                                                                   O       .     O   . ] _ { ] .                                                                       : : - : .           O     X O           : s e : .   .                                                                       ",
"                                                      : - - : .                                                     ; * * : .       .       . c ] ) f.$   . ] ' ' z . X     . z ` ] c $     .   X   n R R t.. + . .     X                                                                                                                                                                                                                                                                                                                                                                                                                                                                                                                                               O     O       X : : 9 :                                       + O     o * 9 = .     o           . . X                                                                                                                       X               . M / [ C $ .                               O   . ] / ( c . . O                                                                   O   . ) ( ( ] .                     X             $ ] _ _ ] $ .   O                                                                         X                             .                                                                                               O       .   O     . ) { { [ .                                                                   X . : * : :         O                     . : - - :                                                                             ",
"                                                    . : q - : O                                                 O   * * * :               . . M [ ( ] .   . ]  .{ ] .   X   $ t.[ [ g..   X     O . ) _ [ c . . O O     @   O O                                                                                                                                                                                                                                                                                                                                                                                                                                                                                                                                                       . : : : -                           X         O     O   < - : :     O           X .                                                                                                                                   .   O   $ c _ _ c .                                     $ M ( [ ] .                                                                           . ] ( E u..   O                               . t.) _ ) .                                                                                       .                 O                                                                                                     O     .     O   . ) { } ` .                                                                       : 9 - 4 X   .     O   O   .     O     . : - : : O                                                                           ",
"                                                    . : - e :                                               O     . : * * *               . . c ` ( f.$ . . ]  .( ] .   X   $ ] _ / ] .     X + O . ) E E l $ O O       X     O                                                                                                                                                                                                                                                                                                                                                                                                                                                                                                                                       O     O           ; : : *                     X             O       O   : * * 4 .       O             X               X X                                                                                                                   . . M / _ c $                                   . $ ] _ _ c .                                                           O           O   . ) ( ( ) .                     X           . $ ] _ _ ] $ .   O                                                                                                                                                 X                                                   X           O   O   . ) ! } ( .                                                                     . 4 e - ; .       .       .   .     .     : e - :       X                                                                     ",
"                                                    . - e - : .                                 O                   : * * *           X     $ c [ ) f.$   . ] _  .] .       $ ] [ ' ] $           . _ ! ( ) .                 .                                                                                                                                                                                                                                                                                                                                                                                                                                                                                                                                       O O               ; * : :                                 O O         . ; 4 4 2 .           O O   O               O                                                                                                                           $ t.( _ ] .                                 O   . ] / _ c .                                                     X               O     . ) ( E ) .   O                               . ] _ _ ] $ O                                                                                     .           O O                                                                                                                   O     . ) ! { ]                                                                       . : e * * . O   .   . .   .       .   . . - q 9 :   X                                                                         ",
"                                                    O : - 9 :                                     O                 : : : :               . . c ' ( ] $ . . [  .} ] $   .   $ ] ' ( ] $ X         . [ Q ! u.+         X   O                                                                                                                                                                                                                                                                                                                                                                                                                                                                                                                                                           . * : : : .   O     X           O                 . X   : - 4 - .   X         O     X   X         .                                                                                                           X               . ] ( _ c . .                                   . ] _ _ ] . .     .                                                                   . u.E ( ] .   O                               . ] ) _ ] $     O                                                                                       O                                                                                                               O                 $ ) ( { ] .                                                                     O : - * : & ; ; : 2 : ; 2 * : ; ; ; ; ; ; e : - :                                                                             ",
"                                      .     X       . : - : : X                                 . . O   O           : : - : .               . c [ ( ] $     ] { { ] .     . $ ] [ ' t..           . _ { { ] .                                                                                                                                                                                                                                                                                                                                                                                                                                                                                                                                                                         . * : : :                                         X   . : - : 3   .                                                                                                                                                           . ) _ _ c $           O     O                   $ ) _ _ l . .   .                                               X                 O   . ] E | ) .                                   $ ] _ _ ] $ .                                                                                                                                                                                                                 O .       X $ g.' ` g.+                                                                     . : : : : ; 3 : : : - 4 : : : ; : : : : : : : : ;     .   X                                                                   ",
"                                    .                 < - 4 * .                                     O X     O O   X ; : - : .               $ c ( ) f..   . [ { { ] .       . ] [ ' ] .             ] { { ] .             O                                                                                                                                                                                                                                                                                                                                                                                                                                                                                                                                                           . : : 9 : .                               .             : - - : .                                                                                                                                                             . M ( [ c . .                                 . $ ] _ [ ] .     .                                                               O     . ) E E ) .   O                 X         X   . c ) _ ] .     O                                                                                                                                                                                                       X     .         . . f.d.h.f.. .                                                                   . ; < ; : : - 4 - : : : : : : : : * : : : 2 : : ; .                                                                           ",
"                                                    . : - - ;       O             O   O                           O : : - - .   .         . . M [ ( ] . . . [ { { [         . S [ ' c .           . ) { { ] .                                                                                                                                                                                                                                                                                                                                                                                                                                                                                                                                                                         . ; : : :                                             . * - : :                                                                                                                                                       .   O   $ t./ ..C . .                         .         . c ) [ c $                                                                           . ] ( E ) .   O                               $ ] _ _ ] $                                                                                                                                                                                                                   .           . c f.f.x .                                                                   X . ; : ; : : : : : : : : : 2 : : : : : : : - : ; =   .                                                                         ",
"                                      .     X     .   : - - : .     .   O   .   O       O                         . : : - 4                 . c _ / ] .   . ] { { ] .       $ ] ' ' c .     .     . [ (  .[ .           O                                                                                                                                                                                                                                                                                                                                                                                                                                                                                                                                                               : : : :                                 X       X   O : : : : . O                                                                                                                                                           . ] / ( ] .                 O     O     .       $ t.' ] x . . O         O O                                       X               O   . ] ( ( u..                                 . . ] ) [ ] . .         O                                                                                                                                                                                                         X         . $ $ $ $                                                                               .   O . .   . X .   .   . X . .   . O . .                                                                             ",
"                                    .                 : - : :                                       X         . . . : 9 - : X               . c [ ( c .   . [ { { ] .       . ] [ ' ] . .         . ] { { ] .                                                                                                                                                                                                                                                                                                                                                                                                                                                                                                                                                                         . 3 - 9 -                                 .             ; : : :                                                                                                                                               X               $ ] ( _ c $ .                         .         $ c ` [ c .     O                                                                     . ) E ( ] .   O                             . $ ] _ _ ] . O   O O                                                                                                                                                                                                                         o . .                                                                       X   X     .   . .     . .         .         .   O       X                                                                       ",
"                                                    . : - s : .                                   X                 * : - :               . $ c ( ( ] .     [ { { ] .       . t.[ ' t..           . ] {  .] .           O                                                                                                                                                                                                                                                                                                                                                                                                                                                                                                                                                             . : - - 9 .                                           . : : e :   .                                                                                                                                                         . . M _ _ c .                                     $ ] ' [ f.. .             O                                                       O   . ] ( E ] .                   X               $ M ) _ ] $ .                                                                                                                                                                                                             O .   .                                                                                                                                                     X                                                                 ",
"                                                  . . - - - : X                                   O   O   O X       ; * : : .               . c [ _ f..   . ] { { _ .     . . c ' ( c . .         . ] { { ] o           O                                                                                                                                                                                                                                                                                                                                                                                                                                                                                                                                                               : - : :                                         X   . * : - : .                                                                                                                                                             . t./ _ c . .                                 . . t.' [ c .       .                                                               O   . u.E E ) .     O                             . M _ _ ] $ .                                                                                                                                                                                                                                     X                                                                         X           X                                 X                                                                             ",
"                                      X             + : - 9 * .                                     O O O O         ; : - -     .           . c ( _ ] .   . [  .{ ]         $ t.[ ' ] $           . ] {  .] .                                                                                                                                                                                                                                                                                                                                                                                                                                                                                                                                                                       . X : : q -                                 O   X       O : : 9 : O       O                                                                                                                                             .       . ] ( [ ] $                     X     X         $ c / [ c . .                   O                               X                     . [ _ ( ) .   O               X               $ ] _ _ ] .     O                                                                                                                                                                                                                 .           X                                                                                                                   X             X                                                                       ",
"                                            X     . . s - 9 - .                                 O .   .   O         : : 9 *                 $ M ( ( c .   . [ { { [ X       . c ' ' ] .           . ] { { ]             O                                                                                                                                                                                                                                                                                                                                                                                                                                                                                                                                                           X . : : - *                                 .       X   . : : : :                                                                                                                                                           O   $ t./ ( c .           .                         $ l [ ) M . .   .           .   . O                                               O   . ] E E ) .   O                               . c ) _ ) $ .                                                                                                                                                                                                                         .                                                                                                                 X     X                                                                                         ",
"                                                  . $ e q 9 * . . . . .   .   . . . . . . . . . . $ . . $ . . $ . . % 9 e :     .           . ] ] ( ] .   . ] { { ] .       $ c.[ ` ] .           . ] { { ] .                                                                                                                                                                                                                                                                                                                                                                                                                                                                                                                                                   X                       ; : : :                                               : - - : .                                                                                                                                           X         O       $ c ( _ c $         X     . . X .     . .     . $ ] _ ( ] .               X   .   X       X       X             X                     . ] ( | u..   O               X             . $ ] _ _ ] .     O                                                                                                                                                                                                                 .         X   O     O                                                                                               X     O   O     O                                                                                 ",
"                                                  . f e - * e c ] ] ] ] ] ] ] [ ] ] ] ] ] ] ] [ ) ) ) ) ] ] ] ] M x r w q -   X           . . M _ ( ] $   . [ { { ] .       . ] ' ' ] . .         . ] {  .[ .           O                                                                                                                                                                                                                                                                                                                                                                                                                                                                                                                                                             . ; : : :                                               : : e :   .                                                                                                                                                           . c _ _ c . .             = : : - - - - - : : : 9 ) { ( ) 9 : : : : : : : : : : ; ; .                                             O   . ) ( _ u..                                   . ] _ _ ] $                                                                                                                                                                                                                                   O     O                                                                                                                                                                                                   ",
"                                                  . A e e e 9 c ' { { {  .}  .{  .{ { {  .{ { { { E ( _ _ ( [ _ ] ) 8 w q 4                 . c [ ( c .   . ] { { ) .     . . ] [ _ c .           . ) ( { ` .           O                                                                                                                                                                                                                                                                                                                                                                                                                                                                                                                                                               ; * * * .                               .     X X   . : : - : .     O                                                                                                                                                       $ t._ ( c . X         . . * : : : s s - q e : 9 8 _ } { ] 0 * : : * : : : - : : : ;   .       X                                       . ) E E ] .   O                               . t._ [ ) . .         O                                                                                                                                                                                                                   O           .                                                                                                   O       O                                                                                     ",
"                                    X   .         . C w q q % ] _ { { { _ { ..( { { { { { ( { { | ( ( _ _  ._ ' ) ] 8 9 e :                 $ c _ _ ] $   . [ { { ] .       $ S [ ' ] . .         . ] { { ] .           O                                                                                                                                                                                                                                                                                                                                                                                                                                                                                                                                                             . ; : : <                                         X     : : : : X     O                                                                                                                                                       $ M ( _ c .         . . . : * : : - - - e - : - w _ } { [ w 9 : e - : : : - * * : ; .         O                 X                 O   . ] ! ( ) .   O           O                   $ ] _ _ ] . O   O O                                                                                                                                                                                                                             O     O                                                                                                                                                                                                 ",
"                                                  O C q 7 9 r M ] ] ] ] [ ) ) ] ] ] ] ] ] ] ] ] ) ) ) ] ` ] ] ] ] x r 9 q :                 . c _ / ] +   . ] { { '       . . ] [ ' t..           . ] {  .] .           O                                                                                                                                                                                                                                                                                                                                                                                                                                                                                                                                                   X         . & : * ;                                             . : e - : .                                                                                                                                                     .       $ ] ( _ f.$               : : : : * : ; : : 4 9 w _ ^ ( ] 9 : : : - : : : : - : 4 5 .   .                                         O   . ) ( E ) .                                   . M ) _ ] $ .                                                                                                                                                                                                                                                                                                                                                                         O                                                                 ",
"                                          .     . . C q q r % $ . . . . . . . . . . . . . . . . . . . . . . . . . $ % * : :                 . t.[ / ] .   . [ { { ] .       . c ' ' ] . .         . ] { { ] .                                                                                                                                                                                                                                                                                                                                                                                                                                                                                                                                                                           + . . .                                 O   X       . : - - :                                                                                                                                                               . M / _ c . .   .     .   ; ; ; & .   O       . $ ] [ ' c $ .     .   .   . : : - : .                                                 . ] E E u..   O                 X         X   $ ] _ _ ) . .                                                                                                                                                                                                               X                 .       X                                                                                                                           O                                                                     ",
"                                                  . C 7 9 9 9 .                                                     1 * : *     .           . ] [ _ ] .   . ] { { ] .       $ ] [ / c $           . ] { { ] .                                                         .                                                                                                                                                                                                                                                                                                                                                                                                                                                                                                             X   ; * * : .                                             3 - : * .                                                                                                                                                             $ c _ [ ] $         .   . ; ; ; ; .             . ] ) ` c..                 - : - * . .                           X               O   . ] ( ( ) .                                 . . ] ( [ ] $   O                                                                                                                                                                                                                                                                                                                                                                                                                                         ",
"                                              O   . C w 9 * * .                                                     : 9 * *     O O     O . $ ] ( ( M .     [  . .] .     . $ ] g.[ C $ .       O   ] _ ( ) $ O O   O                                                 . . o   .     X . . O .       . X   .           .     . . . +         O                                                                                                                                                                                                                                                                                           O       .       X .           X                                             X O   .                                                       O X   9 * 9 :                                   X         O : e - &       X   .         O O     X           O O   O           O     O                                   X           O   O O     O   O                     O   . . . c ] ] ` %           . . * * : ; O O         X $ d...' ] $                 : : - :                         X               O   O     . [ { _ [ $                         . .     X $ ]  .' f..                                                                                                                                                                                                                                   O           O                                                                                                                                                                                             ",
"                                                  . c 9 9 * -                                                 O   O * * * : X         O O . $ ] _ ( ) .   . g. .{ ]       . . ] ] [ C $ .         . ] ( ) ) . . O .                                               @ O : : : : * : : : : : : : : ; < : : : : ; : < < ; 1 ; * : : : *                                                                                                                                                                                                                                                                                                               . X     . O   X O       X O                                     O       . .   X                   . .     X               .     O     * 9 * :                                     .     X   - q q =         .             .               .       X     X                         X               .                   O                                         . . S C ] ] % .     X   X   * 9 9 4 . . .   X     $ ] ' ' ] $ .   O           : 9 : :                   X             X         O       . ] {  .] $       . .                 .       $ ] ' ' ] .       O   O                                                                                                                                                                                                                 .                               X                                                                                                                                                                               ",
"                                                    c w 9 * 4                                   X                   ; * 9 *               O $ ] _ / l .   . ` ' { ] .     . $ ] ` [ l $ .         . ) _ _ r..   O O           X                                     . : 4 : : : ; ; 3 ; * ; * : : : - - : : q - : : * * = - q - e : .                       O                                                                                                                                                                                                                                                                               .   O   X     O             O O       O O   O           X               O                 . X                       X     O         O X   X < 9 4 : .                                   .       o 4 w s $     X     .                 X     O   X                                   O                       O         .               O           O                     . A S x c.$ $   O X   X   & : e 2   O     X X   $ ] ] [ c $                 : : : * .                                     X O .   X     [ _ ' ] .         O   X   X X   O           . M d.[ c .                                                                                                                                                                                                                                                                                                                                                                                                                                             ",
"                                O             O   . c 0 9 : : .                                                     * * 9 :                 . M ( ( u.$ . . `  . .[       . $ c [ [ j % $ $ . . . $ Y T E r..               O .                                       ; - * : : 3 ; : 3 : : : < : s - e 9 e q e e : - : q w q q q *         O O                                                                                                                                                                                                                                                                                 X                   X     + X O   . . O       O O     .               X                             .   . .                         O O O . . O         ; * ; 2                                     .         - q q .         O   X         .                   X         X                   .           X       O .   O             .                                         +     . . . d $ . +           1 9 9 : O O           . c ] ) x .       O   .     : : : :             X   .                         O       . ] { [ z $ X     . + .         O .   .   X   . l ' [ t..                                                                                                                                                                                                             X       O   O   O   O                                       .                                                                                                                                                                   ",
"                                      .           . c 8 q * :   .                               O                   * * * < .   X     X     . x i.R Y $ $ $ ( ..{ ]       . $ c _ ( [ / ) ] c c ] ) X.} ! R $   O     X     O                                   O     - e e - ; ; : ; : ; ; ; ; * ; : - * - : : * ; * : : : e q e *   X   O                                                                                                                                                                                                                                                                                       .           .   . . . . . $ . =   . .       @                     X       X               X       X .   .     X                   O O O O O . O       .   O                                   .   .       . : q *         O   O             X       . .             X               . .       . .                 O O   O                                 O                       .   . . . . . .   O   X   1 * 9 *           X   $ c ] ) M .           O   . : e : ;                   .                     O O       . ] _  ./ % $ . . $ $ $ $ . . . $ $ . $ $ . . % ) ( _ c .       O                                                                                                                                                                                                             O     O O   O     . O       O             X     .   X                                                                                                                                                                   ",
"                                                    c 0 9 * 4 .                                               O   . : * * ;               . . M R _ [ ) c.l ../  .] .     . . t.[ _ ' ' [ _ _ ( [ ( Q Q E ) . .         X   .                                       . : - - * .     . . . . . O . X   . . . O . .   . . . . - = q :                           O                                                                                                                                                                                                                                                                     .         X o A x M $ . c.] f .                                             .         O         .   O                   .   .   O O O @   .               O                                   .           : * &       X   O                 X     . . . X   . .                 X   .                   X     O O   O       X                         O   O           O   O     @       X             .   * 9 9 - . .   . .   . $ ) y.) M .               . : : : : .                       O                 .       . M [  .[ j l c f.c.g.] ] c ] c c ] f.] ] c l j .._ ( c $ .                                                                                                                                                                                                                       O         . X   .                                                                                                                                                                                                   ",
"                                                    ] 0 9 * :                                                       : * * *     X         . . M ) _ / [ ] [ { Q ' ] .     . . ] [ _ ( ' ' / _ _ [ [  .} E u..               O                                     . . : : e * . .     . .                                 . ; 3 - *           O                                                                                                                                                                                                                                                                                       X         . M ` ) % % _ ) S $ .                                           .   X   O     X                         O . .   .     O           X X     . O O                                               1 &           O . O   O                             .     . O O                 O             O   O                                                             O           X         +   $ $ $ 7 8 8 9 $ $ . $ % $ % 7 ` [ ( ] . .               : : - : .                                                 . c ' ( } _ ] ] ) ' ` ' [ [ ] ) ' [ ' ' ' [ ] _  .( ' ] . .                                                                                                                                                                                                                                         .   O     O   O                                                                                                                                                                                   ",
"                                      O           . C w 9 % :                                                 O   O * * * *       .       . . M l u.( d.f.) / { _ ] .       . m l ] ] ] ` ] ] ] c ] ' _ ) M .   O           .                                       . * : : :   .   .     .                           X   . ; : - : O         O             O                                                                                                                                                                                                                                                                                   . M _ / R u.Y _ c . . .       X         O               X                 .               X         O X         . $ . . . . . . $ .       . O                                   O   X         , ,       O . O O O     O                                 O O                   O                   O       . $ $ $ $ . $ . $ . $ $ + $ $ $ . $ . + $ $ $ + $ . . $ $ . $ $ . . . .     X V C ] [ [ _ t.x c ] ) ] ] ] ( ..' / c.$ .         O   O : 9 - *                   .   X                   O .       M ] _ _ _ ) / ] ' [ ( _ _ _ _ ] ) [  .j.` [ ( ' ( g.c .           X                                                                                                                                                                                                                                       O                       X                                                                                                                                                                 ",
"                                              O     c 9 9 * 4 .                                     X               ; * 9 *     O . O     . . x M l ] g.g.j [ ( | ] .       X . . $ $ $ . $ . o   o $ $ . .                                                           < * : : .     O   O       X                         . ; : 9 :                                                                                                                                                                                                                                                                                                 @   O   X   . c ] / [ _ _ [ c.+ . $   .         . O .   .       X O O   O           . .                       . O           $ 7 8 t t 8 8 8 8 7 .         O                                             X ,       . O     O X   O O O   O                     O   O             X     O                 .   X   X   $ % 8 t t t t t t 8 t 8 t 8 t t t t t 8 t 8 t 8 t 8 t 8 t 8 t 8 8 8 8 8 % . . . f.d. . ._ ( [ ] ] ' ' ' ` [ ' ' ' ` f.$ . O             : * : : .                       O                 O       & x f.] ] ] M c ] t.] ] ) ] t.n ] t.] h.] c M t.c ] S x $   X     O                                                                                                                                                                                                       .   .                             X                                                                                                                                                                                         ",
"                                O                 . c 0 9 * 3                                                       ; * * :       .     . O   o . $ $ % $ % Y _ { ] .             .                                           .                                     . : * : 1                                           .   ; : - e     O     O               X                                                                                                                                                                                                                                                                 O O O O O .     $ x v./ ) _ ( ] x % . .         O       O   O         @ O O   O   X       .             X   X   O . .         . 7 5.q.:X:X|.,X2X1Xl.7 .   X                                         O         o           X                       X     X         O O       X O   X X O .         @     O       X     O 7 o.q.<X1X8X1X3X;X<X;X3X:X:X:X:X:X;X;X>X;X;X;X;X;X;X;X:X;X;X;X:X;X;X;Xq.V.7 .   f.` '  .( / ) ` ] [ [ [ [ ] [ d.' g.c . .       O     . : : * :                                             .       $ $ $ $ $ . . . . $ $ $ $ $ . . $ $ . . . . . $ . . .     O   O                                                                                                                                                                                                         O     O .                                 O O                                                                                                                                                                               ",
"                                                  . c w 9 * :                                                 O   . * * * : .     O       O     o . $ . . $ l i.E [ .                                           O                                                   . : ; : ;                                   O   O .   . : : : :           O                                                                                                                                                                                                                                                                                   O   O .   o   S h ] g.] ] c C S Z $                               X X   O 6     X             X .             O     X       . 8 8.4X'.0X0X0X_.kX=Xt % .     O                                 O       .       X O . .   X X X               O O O             @ O       . .         O O         O     .         X   . 8 q.bXxXrXyX'.'.'.wX_.0XqXqXtXqXeXwXwXwXwXwXeXwXwXeXeXeXeXeXeXtXeXeXtX}.9.7 . . V f.] ] [ ) r.l ] ] l c c c l c f.C x $                 : 9 : :                   .             O             o     . .     . .   O   . .   . O     . . .       .     .             O X                                                                                                                                                                                                 O X O     O .   X X   X   X @   X X     X                 X                                                                                                                                                                     ",
"                                              O   . c 8 9 * 3 .                                                 O   : * * * X               X       .       p R ( [ $     O                     X     O     O       O                                                 : * 1 ; .                           X               . : : e :       O                                                                                                                                                                                                                                                                                       O O O . .     $ 7 7 7 8 7 % % $ % $ $ $ $ $ . . $ . $ . $ . . $ $ . X   O O O       X                       O .         X X & t /.wXaXpXpXpXhXdXzXVX% . X .                                           .         . .           % % $ . .       .       X         O X . % % 7 % $   O   O       O               X     % t :XrXiXpXiXqXiXiXaXpXpXpXpXCXpXpXpXpXiXpXpXpXpXpXpXpXpXpXpXpXpXpXpXpX0X3X8 +   . $ $ 7 9 % 9 $ $ $ . $ . $ . . . . .               O   : : : ; .                                 X                 .                                                     @   O                                                                                                                                                                                                                 O .         X                       X O         .   . .                                                                                                                                                                 ",
"                                      .           . c w 9 % : . .                                           O     . : * 9 :         O     O           O X   ] _ _ _ .       X         . O .               O                                                         X : : : 1                                   O         . ; : - :       O   O             O                                                                                                                                                                                                                                                                   X   O . . o   X $ % 8 y y y t t t t t t t t 8 8 t t 8 t t t 8 8 8 8 8 % .   X         .                       .   X         . 7 3XyXqXpXpXpXpXiXqXyX6.7 .     =                                         .       O . o       . 7 #.<X3.u . X X       O   X     . + O   $ G 6.1.F %       O O   X                       % y &XdXpXpXpXsXiXiXiXiXpXpXpXpXpXpXpXiXiXpXpXpXpXpXpXpXpXpXpXpXpXpXpXpXtX<X8 .     . . < * & : .   .     X .   . .   . +                 : : : :                   X         O           X                           O               O                         O                                                                                                                                                                                                         @ X         .             X       . .     X     O     O   X .                                                                                                                                                                   ",
"                                            O       c w 9 * :                                         X             * * * :     X         O X   X         . ) ( _ ) .   O O           O   X       .     O     O   .                                                 . : - : ;   .       O                 O   O         .   ; : e :                                                                                                                                                                                                                                                                                             X     . $ . % 7 t 7.2X;X1X1X<X6.,X^.:X:X;X;X:X2X;X:X;X:X;X:X;X;X>X3X2.y .   X                                 O       X . . $ y &XiXpXpXpXCXpXpXiXwX9Xy .                                       O         .   O O         o % G %XxX:X$.u .   +   O   X     . . . $ $ y *.zX}.-.t .   O   O     O               X   . % t :XtXfXpXpXiXiXeXtXuXyXtXrXlXuXyXtXwXtXtXtXtXtXtXrXyXtXtXrXtXwXyXtXtX*X9.8 X   O     & & * ; .                                     O   : : - ;                                 . O         O     X   O     O   O   O             O   O O     O             O   X                                                                                                                                                                                                           X O . . $ . . . . . . . $ + $ . . . .                                                                                                                                                                                       ",
"                                O                   c w 9 * : .                                             O       ; * : : .       .   .   X     .     X . _ { _ ] . . O   X                     X                                                                 . : : - *         O X                 O               . : : - -       @   O               O                                                                                                                                                                                                                                                                         . 8 <X*XyXyXwXwX0X0XuXwXwX0XtXyX0XwX0X0XtXeXeX0X0XwX0X'.wXyXkX<X% X               .               .     X       . $ 8 x.lXpXqXiXiXsXpXpXCXpX0X;X%   O                                                         @   $ F @XxXiXrX*X-.t $     O O   O     . . % F :.'.tXeX}.$.7 .         .                 O     $ t ;XrXiXpXpXiXxX).oX;X.X>X>X<X;X;X:X<X:X:X;X:X:X;X:X;X;X>X;X>X;X;X;X;X>X4.8 .   O . X < * * :       O         X   X                   . - : : :           X     .                 O     X           X       . . O                   O                   O   O                                                                                                                                                                                                             . C c g.] ] / [ ] ] ] ] ] [ ] ] f.c x $ .                                                                                                                                                                                     ",
"                                                  . c w q : :                                                       : * 9 :       X . .                     ] _ ) M .   O O                                 X           X                                       .     : : : : . .                               O     . .   : : e 9   X                                                                                                                                                                                                                                                                                         O   . $ 7 9.%XtXfXiXiXpXpXpXpXsXpXpXpXiXpXpXpXpXpXpXpXpXpXpXpXpXiXqXfX-X%           X         O X           O       X   . % t BXrXpXiXqXyXxXiXCXpXCXiX*X8 $ .                                   X       O       O X     . 8 @.cXqXpXpXdX%X:.t $               . % F =.}.eXpXiXtX@XF % .   O                     O     $ 8 2X'.iXpXAXqX}.G y t 8 8 7 8 8 t t t t t t t 8 8 8 8 8 8 8 8 8 8 8 8 8 7 %   X   . . : * i : .     O             O X                   - : 9 : .                               .       X         X           .           .                                       X                                                                                                                                                                                                     . $ t.[ '  . ... ._ { ' {  .{ { ' f.] c $ . O         @                                                                                                                                                                         ",
"                                    .             . C w q - <       .   O   O   O   O   O   O                   . . : - * :                                 . . .                                                                                                 . O : * : :                                       O   . . ; * e :           O               O                                                                                                                                                                                                                                 O             O X   .           6 O % 8 ^.yXuXqXiXiXiXhXiXfXpXpXpXiXpXpXiXpXpXpXpXpXpXiXpXiXpXiXiXiXdX*X%                     O             O O         X $ F {.qXpXpXwX6.F &XuXiXpXpXrX6.7 .                 O       .     .     X       O   @     @ . 7 P {.qXpXpXpXiXtX%X#.8 .           + % F :.{.0XqXpXpXpX0X!.y -                               $ 8 ;XyXpXpXiXiX{.8 $ $ $ . . . $ . $ $ $ $ $ $ . $ . $ . $ . $ . $ . $ . $ .     .   . : : : : O                                         : : : ; .                                                                                                                                                     O                                         X X                   .                                                                                                   . ] { } ^ [ [ ' ' [  . . . .{ { _ ' ] .                                                                                                                                                                                       ",
"                                        .         . C w q - *   .       O                                           4 - 4 3 .                                                                                                                                   .   . 1 ; : : . .                 .               O         * * - -       X   O                                                                                                                                                                                                                   . .   X                           X   .   O @       .         O . t 1XwXiXiXpXqXiXpXqXfXpXpXpXpXpXiXpXpXiXpXpXiXpXiXpXpXpXiXiXqXqXvX6X7           .       O   O         O O O           $ 2XyXiXhXpX].t 7 G {.eXiXsX0X:Xy $   X           O       . O     .         o     O       $ 7 P ~.tXpXpXpXiXiXiXtX$XL %   . X     $ t =.yXuXqXsXpXpXpXqXyX-.y 9 .                     X     . 8 1X0XpXpXiXiX&X7                 O                                               . . * : ; -                                         . : e : :                                                                                                                                                     O                                       .         X   X                                                                                                             X . ) T } { ` c f.[ ] ] ] f.[ [ _ _ _ ] .           O                                                                                                                                                                           ",
"                                      X             f.w q * * X     X               X           O               . . - : - ;                                                                                                                                         . ; ; : : o .   .   X . . . .                   O       < ; - : O                     .                                                                                                                                                                                                           .   X X .       .         O     X     O     O .             % <XyXqXqXsXpXpXpXpXfXiXpXiXpXpXpXiXpXiXiXiXiXpXiXiXpXpXiXiXiXiXvXlX$X7     @               .     .   X   O     + . . X % 9XqXpXiXpXoX7 $ y :XqXpXqXdX}.y % O               O       .   O ; ; * - q w q * ; X . $ 7 @.*XtXfXiXiXiXqXqXiXtXrX*.8 O       . % G *XdXqXiXpXpXiXiXiXtXrX8Xt $ .                         $ 8 ;X0XpXpXpXpX4X7                     O                                         .   X : : : 3 . .       X                 X             : 9 - : .                                                                                                                       O     X X                                         O             o   . .                       O                                                                                                   . t.( | ( % . . $ . . . X . . ) { _ ] .                     O                                                                                                                                                                 ",
"                                        .         . C w w e * .         X   .   .       .   X . . . . . .   . X   . : e * ;                                                                                                                                         . : : : *     .   O     O     .         X   X           ; * : : .         O                                                                                                                                                                                                                             $ . $ . $ . . . . . . . . $ .     O   . .     O   O . 8 {.iXpXsXpXpXpXpXpXaXeX_.{.&X&X{.4X{.{.{.4X{.oX4X{.{.}.4X&X{.&X6X$XF %   2                                 X .   + . $ 8 W.sXsXpXaX4X7 . 7 9.'.pXaXqXyX1X7 . O O .                 X     ; 4 q q w w q : ; .   % G $XvXpXpXqXiXdXdXdXfXiXqX`.$.8 % $ $ % y ;XrXpXiXiXpXiXiXiXqXiXpX_.z.8 . X                       . 8 ;X0XpXiXpXiX&X%                                                                   . ; : ; :     O   X                                 - 9 - * .                                                                                                                       O O       . . . $ . . . . . . . . . . . . . . . . . . . . . . . . $ $ $ O X .                                                                                                                     . t.( _ _ .                 . ) _ { ] .             O                                                                                                                                                                         ",
"                                                  . S w r 9 % $ . . . . $ . . $ . . $ . $ . $ . . $ . $ $ . . . . $ = 9 * <                                                                                                                                           ; ; ; : O         O   @                 X .           * * 9 : .         O                                                                                                                                                                                                                           + c g.] ` ] ` ] ` ] h.g.` ] ) k .         .         $ 8 8.eXpXpXiXAXCXpXiXiXqX_.:Xt 7 7 7 % 7 7 7 % 7 % % 7 7 7 % 7 7 - % % % O                 X     O     .   .     .     $ 8 >XyXiXiXeX_.3X7   . 8 +XiXpXiXtX*Xt % . O .     O               O ; - - - q e 9 q *   . 7 #.%XqXiXqXqXdXfXqXpXpXpXpXuX`.^.@.G F @.{.rXpXpXpXiXiXqXiXiXpXpXsXuX*XL %   X     O               $ 8 ;X0XpXpXiXiX&X7                                                                 X . ; : ; * . . .         X   X                   X . : 9 : : .                                                                                                                               . $ C f.] ] ` ] ] ] _ ' ) ) ` ) ) ) ) ) ] ] ) ) ] / ] ] c c ] C .                                                                                                                         . ] / { [ . + .               ) _ { ] .         O O                                                                                                                                                                           ",
"                                                    C w q * e x S C ] c c f.S c C c c C S c C c M M M c M M m m x f 9 9 * :                                                                                                                                         . ; * : *   O   O                 X                 . . * 9 9 :       O                                                                                                                                                                                                                     X O       . l ' [  .' [ ' '  .' '  .{ ..] $   X               $ F +XeXpXpXpXpXpXxX}.&X X6.t %                                               O   X       X               . .       O   % F *XqXiXqXwX4Xy % . . 7 /.aXiXpXiX[.z.8 .   .       O O X         @ ; : 2 : : : - : ; . % y &XlXiXiXaXqXtX).).0XpXpXiXqXiXqX_.&X4X{.qXpXpXpXpXgX`.W.rXhXfXpXpXiXxX#X7                         . t :X0XpXpXiXiX{.7                     O                                 X             : 3 : : . .   .                                   : : : : .         X                                                                                                             O       . $ ` [ '  .' ' [ {  .{ { { { { { { { { { { { { { { { { ) _ g.] . . .                                                                                                                     . [ _  .[ .     X       X   . ) ( _ ] .             O                                                                                                                                                                         ",
"                                              X X O C 8 9 * e c.] ] ] ] ] ] ] ] ] ] ] f.] ] ] c ] c c c c ] M c c.C r q = :                                                                                                                                         . : : : :   .       O                     . .         . : : e -           O               O                                                                                                                                                                                                         X . ]  .{ { _ _ [ _ _ ' [ _ ( E ) $ .                 % |.qXqXiXiXfXqXuX6.8 9 % % $ .                                         o O O O X                         . .   X X O O 7 @XqXaXiXiXwX1Xt $   . 7 ,XeXqXqXeX_.9.8 .               .       O   . .         . .   $ 8 O.zXdXiXiXpXqX{.O.L e.yXfXpXpXCXCXpXpXeXtXiXiXpXpXeX&X$.L *.yXqXpXiXiXqX{.y % O                     . 8 ;X0XpXiXpXpX&X7                 X                                                 . ; ; * * . . . .   X                   O   X       : : : ;                 O                                                                                                           O O . $ ] ' { { _ ] ' ' _ _ { ( { { { _ ( { _ ( { { { { _ _ ( E ' ` .   O                 O                                                                                                   . ] ) _ ] .           O   O $ [ ( _ ] .           O                                                                                                                                                                           ",
"                                                    S q q 9 7 7 9 w w w 7 8 9 w w w 7 8 9 8 8 w 9 9 8 0 w 8 9 9 9 w 7 e 9 : .                                                                                                                                       O : : : : .     O O O       O               O   X       : : e - O         O                                                                                                                                                                                                                 O         . [ { { _ _ _ ) ) ] _ ) ) E _ ) % O   X       X     7 oXaXiXfXqXiXfX{.8 .         .                                   .   X       @                         .           O   7 7XpXiXsXpX_.2X7 .     7 F }.eXiXtX'.,Xt $     O O O           X     .       X         $ G :XrXiXaXiXpXqX&.8 % y :.yXqXpXCXpXCXpXpXpXiXiXpXqX*X<.8 % y O.wXaXqXiXiX}.<.% .               O     $ 8 ;X0XpXpXpXiX{.7                                                           X     .   : : - s * : : : : ; : : ; : : 3 ; : ; : ; : ; : : : : : 1 . O                 X                                                                                                             $ ] _ { _ ] ] c ] ] ] ] [ ] ] ] [ ] ] ] ' ] ] ] [ ] _ ( / ' ] $   .   O X                                                                                                                 r._ _ ] .             O   $ ] { _ ] .                                                                                                                                                                                       ",
"                                                  X S 9 : : 9 9 9 9 9 9 9 9 9 q 9 9 q 9 9 9 9 9 9 9 9 8 q w 9 q q q q q e :   O                                                                                                                                 X   . - - e ;       . O   .                           X   . = - - :     O                                                                                                                                                                                                                       O         . ] _ ..W 7 $ $ $ % % % p ) _ l $ .     X     X . 7 0.%XiXiXfXiXfXtX:X7                               O                     X             .   .             O     X   O O . 8 }.pXpXpXpX*Xt %       $ y :XeXpXdXyXE.y %     O O     O         O             X X     $ G oXqXpXfXpXfX}.y $ . $ F ;.uXiXpXpXpXpXpXsXpXiXiX5XU 7 $ . $ F #XqXqXsXiXyX$.% .                     . 8 ;XtXpXpXiXiX&X%                     O                                               : : : e : : : : : : e - e - - - - - e - e : - - : : * : 1 O     . .     O                                                                                                                   . ] _ _ ) $ . . . . . o .   . . . o . . . . o . . . . _ E _ [ .         O                                                                                                               . ) _ _ ] .           X     . ] { ( ] .                     O                                                                                                                                                                 ",
"                                                    $ - - i * q 9 - * q : e 9 9 9 : 9 q : : 9 - - * : q 9 9 q 9 q - q q 4 ; .                                                                                                                                       . : : : 1 O       .   .                   .   O   O     * 4 e -           O               O                                                                                                                                                                                                           $ ] _ _ ( ) ) u.r.] ) p y._ _ ) $     O     O   % F #XeXpXdXiXiXdX*XF %       X   O           O                                         .     .       O   .           +   % S.).sXpXpXqX#X8 .       . 7 9.eXpXfXtXjX:.7 $   X O       .   .       X     O           $ L {.qXpXpXqXxX;X7   O . $ F @XyXtXiXiXiXpXiXpXtXbX#.8 .       8 #.yXpXpXpX'.O.7 .   O                 $ t :XwXpXpXiXiX{.7                                                         .     .   . ; ; : : : : : : : - 9 - : - e - - : - - : e - e : : * ; ;                                                                                                                                   . M _ _ ] . .                                       . ) E _ [ .         O                                                                                                               . ) ( ( ] .             O   . ] _ _ ] .           O O                                                                                                                                                                         ",
"                                                X   . 4 * 3 * : : : : : : : : : : : * : : < : : 1 1 : : : : : : 3 : 4 - 3 ; O @                                                                                                                                   O . : - : <                       X                 X   . : - q :   X                                                                                                                                                                                                                         O         . ]  .~ { ( [ [ ( ' ( X. .( / ] $       .     . 7 =XvXpXiXqXaXiXrX6.8 $                                                                             O                   $ 8 2XwXpXhXiXyXO.%     X X     t yXpXdXtXqX`.t $   @   .   . .   O           . O   X       $ G &X0XiXpXgX6.8 $ O   . + $ 8 8.'.dXpXfXfXdXuX/.O.8 $         % G $XaXpXiXOXO.7 .   X                 . 8 :X0XpXiXpXpX4X7                                                               o   . = 2 : 4 : : : : 1 : : : - : : : * 4 < : : : : : : ; ; ; ; .                                                                                                                             O   . ) ) _ ) .   O O                                   . ) E _ ] .       O                                                                                                               . $ _ ( { ] .                 + ' _ _ ] .                                                                                                                                                                                       ",
"                                                    . .     . . .   .     .   . O .     .   .           . .         .   .                                                                                                                                           . e - : ;       . $ . . o . o .   . . . $ . o           2 - q : .       O           O                                                                                                                                                                                                       X         . v ' j.[ ' ] ' ' ' j.' ( ' ' S .   X   .   + . 8 kXAXpXiXeX0XqXyXy %                                                     .       X           . O         O             % y &XeXqXiXeX4Xy $         X   % 9XiXfXfXZXwX8.7 .   O O           O         O .           $ L =XqXpXpX_.F .   O         $ t ;.yXqXqXiXtX&XO.8 $ . O     X . 8 #.rXpXiX'.$.7 .               O     $ 8 ;X0XpXpXpXiX&X%                 O   O                                 .             +   .   .   . O .   O .   X . O . .   .   .   .   O .                                                                                                                                       . u._ ( ] .                                         . ) ! _ ] .         O                                                                                                               $ _ { { _ .   .             $ ) { _ ] .                                                                                                                                                                                       ",
"                                            O   X   .   O   + .                                           .               X   X                                                                                                                                     . 4 : : ;   o . v c ] g.[ ] ] ` ] ] ] ` ] c v $ .     . : e q :       O   O                                                                                                                                                                                                                           & x g.l ] ] z ] ] ] ] ] g.] c x .       .     $ t bXiXpXfXqXiXpX}.7           O               O           O                   X       .   . O     X         O     . . . 7 <XrXqXhXpXyX6.t $             $ y 5XtXpXpXqX`.y .     O         O                         $ L &XqXpXpX{.8         .     . $ K -.uXiXaX*XU 7 $ . O     @     $ G ~.iXpXqX%.% .                     $ 8 <XeXpXpXiXiX&X7                                                       O                   . . . .           X                                     X                                                                                                                       X     . ] _ _ ] .   O O       .   .               .       . ] _ ' ] .                                                                                                                         . ) _ _ ] .           O     $ ) _ _ [ .         O                                                                                                                                                                             ",
"                                      X     .   @             O             X                     X                 X                                                                                                                                               . : 9 : ; .   $ C [ ' { ( / { '  .{ {  .' ] f.$ .     . : q q :           O             O                                                                                                                                                                                                     X O       . $ $ . $ $ $ $ $ . . . $ $ .         o X . % S._.iXpXiXsXiXxX^.%     O                   O                       O                   O .                         . $ t }.aXpXiXpXyX2X8 .   . X       . 0 6.uXpXsXqXmX6.&   O     .       O                       % G 5XqXpXaX:X%         X X     + $ y ^.*X/.#.8 .   .             . 8 =.tXpXeX%.7 .                     . t :X0XpXpXiXiX{.7                                                                   X                               X                   .                                                                                                                                   O       ] ( _ ] .     O           O   O . O   O     O   . . [ {  .] .                                                                                                                         . l _ ' ] .                 . _ ( _ ] .           O                                                                                                                                                                           ",
"                                            .       O @   X           X                     X     O   O .     X X       . .                                                                                                                                         . : - : : . . . ] ]  .{  .} { { { ( _ _ _ ] x $       . : : q :                                                                                                                                                                                                                                 . X X   . . .   . O .   .           O             $ 8 >X_.aXpXpXpXeX#Xy %                                                     O .                             O   X       . 7 q._.aXpXpXpXrX0.7 .   .         . 7 D._.sXqXhXqX6X%   O           O             X           $ G {.qXtX{.P $ X   O X       + O O $ t y t 7 $ .     O O     . .   % #.yXiXrX$.7 .                     . 8 :XyXpXpXiXpX&X%                                                       .                       X           O                   O   O                                                                                                                                       O     . ) E E ) .                                         . ) {  .] .                                                                                                                         . ] _ _ ] $   .             . ] ( _ ] .         O O                                                                                                                                                                           ",
"                                                        X   +                       X                 O                                                                                                                                                             . : - : 1     $ ] ] ' _ _ ) ) ) ) ) _ ) _ ) M . .   X   < : : : .     X   O                                                                                                                                                                                                                                               X   X   X       X     . $ t <XwXpXpXpXpX0X9.8 $   O         O   O                             O                 X           X     .             $ y 7X0XpXiXpXiX{.t $ .       o     . % y }.iXqXqXpX}.8 . .   .   X       X   .                 . G oXqX0X4XG -   O       o     @     . $ . .     X     @     .     $ #.rXdX'.$.7 .     O               $ 8 ;X0XpXpXpXiX'.y 7 7 7 7 % 7 9 7 % 7 7 % 7 % % 7 7 % 7 7 7 7 % % % .           X     X                           O     O     X           O X   X   X                                                                                                                       O     . ) | ( ) .   O O                                   . ] { X.] .                                                                                                                         . ] _ ' ] .           O     . ) { _ ] .                                                                                                                                                                                       ",
"                                                          X         O                                                         X                                                                         .         .         X                                       O 2 ; : : .   . ] ( ( ) $ . . $ . . $ ] [ ] c . . X   O ; - * * .                                                                                                                                                                                                                                                                                 $ t 3XwXpXpXpXqX_.MX8 +   .           . . .         X       X     .           .                                         %  XqXqXpXsXqXuX X7 .             . . . 8 5XpXqXiXqX'.2X7 .                         X           $ L oXqXtX{.L $                                                     % &.0XiX}.$.7 .                     . t ;XwXpXpXpXiXqX'.'.`.}.'.oX+X'.*X*X&X{.{.&X&X&X{.{.OX}.&X*X&X{.&X9.%                                                                                                                                                                                                               ] [ _ [ .         O               O       .       . ] _ ..) . .                   . .   X         O                                                                                     g.' ' t..       O O       . ] { _ j .     o     X       X                 .                                                                                                                                                 ",
"                                    X                           . .         o   X           .   .       . .         . . . o                                                                       X   +               X     X                                   .     2 ; ; * . . . ) _ ( ] $   .     . $ x ' _ ) $ .     . * 9 * * . .     X   O     .       X                                                                                                                                                                                                                                                       . 8 :X0XpXpXpXaXbX3.8 .         X X   O . .           O             .         O           O               X @   O   . % 8 OXpXfXiXqXuX`.F 7     O X     O + .   7 6XtXaXqXiXuX`.y %                   O                 $ G &XqXtX{.L $                                                     $ *.eXiXrXO.%       O               $ 8 ,X0XpXiXiXqXiXpXpXpXiXiXiXiXpXiXiXpXpXpXpXiXiXpXpXpXpXfXfXiXiXpX&X7                                                                                                                                                                                                             . ] ..' ] .     O     .     X     O O     . . $ $ . . ] _ _ Y % . . .   . . .   o . . $ .   X @ O                 O                                                                     . g. ._ R . . . . . $ . . . $ [ {  .) .           X       X . .       X . . .     .   . .   X                                                                                                                                 ",
"                                              O                 O       O   ; = - : : : : : 4 e - - : 3 - : 4 : : : 9 q : =                                                                                 X     X                                               . . 2 : : e * * * _ _ { _ : : : : : : 7 [  .{ _ 7 : < - - q 9 = =       X                                                                                                                                                                                                                                                                           $ 8 :XyXpXpXpXiX{.y % .   .             .                         .       X         X       .               X     O $ 8 2XwXpXiXdXqX}.2Xt $   O X O   X   O O + $ y {.qXpXpXiXdX6X%   X   O     . .                   O $ G &XqXqX{.L %                                                     % &.qXaXyXU 7 . X             .     . 8 ;XyXpXiXdXiXiXiXiXiXfXiXqXiXiXiXfXpXpXpXpXpXqXpXiXiXiXiXiXiXsXpXxX7                                                                                                                                                                                                             . ] ( _ ] .   X           .             . c ] [ g.` ] [ ( / .._ [ [ [ ` ] [ [ ] c.j ] c V           .                                                                                   . ] ( Q E l r.] ) [ [ ] ) ) ) ( { { ` .                 . = = : : : : : 4 e - 4 : 2 : - = * &                                                                                                                                 ",
"                                                  .                       . - e q e s - e - q q e - - - s e e - : * q q q - .                                                                                                                                       . 2 - = e : * 9 _ { { _ e : : * - - w ' { { ( 0 9 : 4 - q 9 - : o                 X                                                                                                                                                                                                                                               X               . 8 :XeXpXpXpXpX+X8 $ .     .               X       O   . X         X     O   O   O           .           X   X     $ t :XqXpXiXqXqX4Xy % .     X         +     $ t :XaXpXAXpXpX{.7 X         .     .     O             $ G OXtXiX{.L $                                                     % *.0XiXyX@.7 .               O     $ 8 ;X0XpXiXiXsXpXdXdXdXfXqXiXpXpXdXpXpXpXpXpXiXiXpXpXpXiXdXiXiXpXpX'.7 .                                                                                                                                                                                                           . [ ( { ) .                       X     $ ] _ ~ ( ' [ ' _ { Q _ ' '  .{ { { ( ' [ _ [ ] c..     O                                                                                       . [ { ! E E E ( ..{  ._ ( E { }  .' f..       O O       . e q r - : : - q q q : - - - s e - 4                                                                                                                                 ",
"                                O                                         . : q q q q - - : : - e 9 - - - - : - : * * 9 e - +                                                                   X         X           X       O                                 . . . 2 : - - - * 9 [ } { / 9 - : ; : * 0 / { { _ 0 * : 3 : : : : ;           X O     .                                                                                                                                                                                                                                             O             O   $ 8 <X0XpXpXpXsX*X7       .         O                 . .       X     .     O   O O                               O $ t :XqXpXpXqXyX;X%                         $ t ;XtXCXpXpXCX'.7 X     O             O               $ G *XqXtX{.L $                                                 X   % *.qXiX'.$.7 .   O                 $ 8 3X0XpXiXiXpXpXdXdXfXpXfXpXpXpXfXdXpXpXCXpXfXiXpXpXpXpXiXiXiXiXeXXX7                                                                                                                                                                                                   .         . [ Q { [ .           O     O           $ [ ..} ( _ ' (  .Q { _ _ _ _ ( ( | _ [ ( / ( ( f.. O   . .         O   X                                                                       $ ` ' { ( _ _ {  . .{ _ _ ( { _ ' [ C .     .         . . - q 9 : * * - : - : * : : * r q * ;                                                                                                                                 ",
"                                                                X   X       * - s r - : * : : * : : : : : : 3 : < * 9 9 e - .                                                                   +             X .             .                                     . ; ; : * : ; - ( { { [ 9 - : : ; * 9 [  ._ ) % : 1 : : * & * ;                                                                                                                                                                                                                                                                                   . 8 ;X0XpXpXpXiX{.7     X                     O         . .             O             O                   .   o     $ y OXqXAXpXqX_.G % O         O       X X   . 7 0.[.fXfXpXpX'.8 .     O           .                 $ L {.tXiXoXG $                                                     $ *.0XiXyX$.7 .                     . t ;XwXiXiXiXpXsX).4X&X*X%X*X{.{.&X:X X{.}.{.&X&X{.'.{.*X-X*X&XoX X3.%                                                                                                                                                                                                   O         . [ { { ] .     X       O       X       $ / } { ( ) ] ' ( } { ] [ ] ] n ) u.] ] / X. ...v..     O   .         O                                                                         . C g.[ [ ) ] ] ] [ ] ] ] ) ) ] ] f.x .           .       : - e - ; * : : : * < < ; * 9 9 9 *                                                                                                                                 ",
"                                    O                     X               . * : = $ .   .   . . . .   . . . .     . & * - :   X                                                                     $ $ . . $ $ $ $ . $ $ . .                                         O   . . . . . ] _ ( _ $ .   .   . $ l _ _ r.$ X       . . o . .                 .                                                                                                                                                                                                                                                               $ t :XwXpXiXiXpX&X%         .         X     O .   O     .         O O     X         . .         X           .   X   7 1XqXfXqXsXqX Xy $ .   .   O                 $ 8 E.rXtXaXiXwX8.8 . O     X         O               $ G {.qXtX{.G $ O                                                   % &.qXiXyXO.% O               .     . 8 ;XrXpXfXiXpX_.y 7 7 8 8 8 7 % % % % 7 7 7 7 % 8 7 7 % 7 7 % % 7 % + O                                                                                                                                                                                                       X     ] { | ] .   O   O O O     O     O     . [  .{ ) $ $ '  .../ $ .   . . . . . . $ / ( ' ` . .   .           O                                                                           O $ . . . .   . . o     . . $ . . $ .       O O   .       * * * $ o   .             . = : : : .                                                                                                                               ",
"                                      . . .       .   X   .     .     X .   * : e * . .         . .                 : - : *                                                                       . x M ] g.] ` f.] t.t.x v o                                                     . ] _ _ ) .           . ] ) ) l $         X     .       X                                                                                                                                                                                                                                                         X                 . 8 ;X0XpXiXpXiX&X%               O   X       O   . $ % 7 7 7 % % % % % $ % % $ $ .         X                     . 7 ].fXiXiXpXqX|.t %     .       O O             $ -.*XrXqXiXeXOXy % O               X     O         $ L {.qXaX{.G %                                                     % *.0XaXyX@.% .               O     $ 8 ;X0XpXiXfXpX}.7 .   X                                       X     O 6 O                                                                                                                                                                                                         o ] { _ ]   O     O O   O               . ]  .{ [ .   ] ( [ ] .   X       X   . . v. . .[ $                   O                                                                         O O . .                       .   X     X O   O       X   ; ; : & .                 . ; 9 : :                                                                                                                                 ",
"                                  . ; 4 4 - : < ; ; : : - : : : e * : : ; * : * : * : ; 1 & : ; : ; 1 O   .     .   - : e 3                                                                       . ] ] [ _ ' [ ' ] _ _ ` ] .                                           X         . ] _ _ l .   .     . $ ] ) [ l .                                                                                                                                                                                                                                                                                 X           X     . 8 :X0XpXpXiXiX&X%         O             O O     $ 8 <X}.oXoX&X{.oXoXXXoX-X$XG 8 $ O     X X   O   .             7 q.'.iXiXfXpXeX|.t $             O   O .   .     $ t 6XrXpXpXiXiX:X7 O     .     X                 O $ G {.tXaX{.L $                                                     $ *.tXiXyX$.7 .   O           .     . t ;XyXpXpXpXpX}.%       O       O O                     O           O O                                                                                                                                                                                                     X       ) .._ ] .     X   .           X         ] ( [ ]     l _ ) l .   O O           . ] ' _ [ .               O   O                                                                         O                           .                   O .       , : : ;                   o : : 9 :                                                                                                                                 ",
"                                  . : e : - * ; : : : - e e : : q - 4 : : : e e e : : ; * * - e - : :               - - 4 : X                                                                     $ [ ( / E / ` [ / / ( ' ] $                                                     . ] _ _ ] .           $ f.` ( ] $ .   O   .                                                                                                                                                                                                                                                                                         $ 8 3XtXpXiXiXfX&X7   .                       O $ % a.'.qXiXpXpXpXpXiXiXpXiXvX[.q.7     X   O O   . .     O     % y {.eXqXiXiXpXqX/.F 8 % % % 7 7 7 7 8 8 7 7 7 7 7 8 G `.dXpXpXiXpXbX7       .       X                 $ G {.dXqXoXG $                                                     % *.eXiX'.@.%                       . 8 ,X0XpXpXiXpX{.%           O     .               O     O . .                                                                                                                                                                                                           O         . ) / / _ $   .   . $ .   . $ $ $ . . X . ] E / [ $ $ u._ R ) .   O O O     O   . [  .{ ] o     X                   O                                                                                     O     O O       X   X     O           X : - : : .                   - q - :                                                                                                                                 ",
"                                    * : e e - 3 : ; - e q e - : q - : : * : * 9 * 9 - : : 9 - q - : 2     O       . 4 - - 4                                                                       . ) / _ _ ) l z n u._ ( / .                                                     . ] ' _ ] .   .     . $ f.' [ ] $ .     O                                                                                                                                                                                                                                                                                           . 8 :X0XpXiXiXfX&X7   .               O     +   $ 8 q.yXiXpXpXAXpXiXpXiXpXsXiXyX2X7   O X @     O           O   7 6XqXpXpXpXpXpXiXxX%X4X5XoX{.}.&X&X&X*X{./.oX4X&X*X}.).eXpXpXfXiXCX+X8 . . . .     X                   $ G {.dXqX{.G $                                                     % &.qXiXyXO.% .   X           .     $ 8 ;X0XpXiXiXpX{.7             X   .             .       .             X                                                                                                                                                                                                 O       . . y.| | | ) t.M u.[ _ [ [ _ { ( ' [ ` ] ] _ | | ( ' ' T E Q _ $ . O O O O O     . [ { _ ] .               X   O                                                                                                 O   .           X                 e q - :       O           . - e : :                                                                                                                                 ",
"                                    * - q e ; & , ; : 9 - - : : - - : < ; : : e : e - e < : * e 4 : :             X : e 4 :                                                                       $ [ { | a 7 $ % 7 W | | ] .                                     X           O   . [ { { ] $         . . ] ' _ ] $     O   O                                                                                                                                                                                                                                                                         O         O     . 8 :X0XpXiXiXiX}.7     .   O                 . % 7 7.oXyXeXeXtXlXtXuXpXpXiXiXqX@X7           O   O       O     7 {.pXpXpXpXpXiXiXdXdXqXpXiXiXpXpXpXiXpXpXqXeXiXiXpXpXqXqXiXpXpXfXqXwXS.% .             O               $ G {.tXqX5XL $                                       X             % &.qXaXyX$.7 .                     $ 8 ;X0XpXiXiXiX&X7         X           .             .         . .                                                                                                                                                                                                       O   @   . $ ] T Q Q ( _ ) ( E { ^ { } { _ {  . ._ _ Q E ! { } { ! ! ! [ $   O O   O         ' { { ] .     X X         O                                                                             X         .   .     O   O                   X   O       q q 4 3 .       O O X       - : : : .                                                                                                                               ",
"                                    ; - - - .         . . .     . .       . * ; * = . . . . . : : : :               : - - :                                                                       . [ Q ! E / _ ( / E Q ( [ .                                                     $ ] { { [ .         . $ ] ] [ M $     O     O                                                                                                                                                                                                                                                                                       $ 8 :X0XpXpXpXiX&X7               O         o     $ 7 7.>X.X;X1X1X;X/.qXpXiXpXiX/.7           O         O     o 7 `.aXsXpXpXpXiXaXfXfXpXpXpXiXqXqXqXpXpXpXsXiXiXiXiXqXsXpXaXpXiXfXpXwX8.7 .     .             X         $ G {.dXqXoXG $                                                     % &.qXpX'.@.% .               .     . 8 :X0XpXpXiXiX*X8 O .     X               X O               X .       X                                                                                                                                                                                                         O $ t._ ..(  ._ E ( { }  .{ { { _ '  . .' _ E E R | {  .( _ ( ) .   O           X   ] { ( ] .   X             .                                                                               . O .   . . O . O     O   X     .                     e q - ;       O             - e : :                                                                                                                                 ",
"                                    : e - -     X                   X     . : - e - .       . : : : :               : 9 - : X                                                                     . [ { ! | _ _  .( { ! } [ .                                   .   O             . ] { _ ] $           . ] ) ) ) .       O                                                                                                                                                                                                                                                                         O                 . 8 :X0XpXpXpXiX&X7       X         .     X         % 7 8 8 8 t t 8 G 0XsXsXiXpX{.8           O           O . . 8 oXiXpXpXpXpXqXiXiXfXpXpXpXpXiXqXpXpXpXpXpXpXpXpXpXqXpXiXiXiXiXvXqXwXOXF .     .                       $ L oXtXqX{.L $                                                     $ *.0XiXyX@.7 . X   O               $ 8 ,X0XpXpXpXpX{.7 .   .                         X               .                                                                                                                                                                                                               . $ x ] ` ` f.f.] ) ) ) ' ] ' ] ] ] ` [ ] ] ( { ( _ [ ] ] ] ] z .     O   .       . [  .{ ] .               O                                                                             X     . O O   O         O O                         .     - e : :             X       : : * :                                                                                                                                 ",
"                                  X - s q s .   X             X       X   . : : : : . .       ; 9 9 *   X         . : 9 e :                                                                     @   ` T E Q { ' ' ( { E T z . @                                                   . ] _ _ ] .           . ] ( _ ) $ O   O                                                                                                                                                                                                                                                                           X                 $ 8 3X0XpXpXpXiX{.7               .           O     O . . . . % % % 8 {.qXqXiXfXcX7           O         O   $ 7 q.}.iXqXpXpXCXpXiXiXpXpXpXpXpXdXtXiXpXpXpXiXqXfXpXpXpXpXpXpXpXpXiXiXdXqX7X% O           O               $ G {.qXqX}.G $                                                     % &.qXiX'.$.% . X             O     . 8 ;X0XpXpXiXpXXX%   O             O O       O               X     O                                                                                                                                                                                                         X X O   . $ . $ . .   . . . . .   o   . $ . $ $ [ { ( ] . .   . $ .     X     .         [  .{ [ .           .   . O X                                                                                                                   .           X   3 - : :                   . - 9 : :                                                                                                                                 ",
"                                    e q q e .                     X         : - : -       X   3 : 9 : .             : : 9 :                                                                       . C ] ] ] ` ] ] ) ) ] ] c                                         X             . ] _ ( ( $ .   o . . $ ] _ ) ) $               X                     X                                                                                                                                                                                                                                                             $ t ;XwXpXpXpXiX&X%               O           O O O                 % 7XqXiXiXpX{.%   . . .     X   .   O   $ y :X0XqXaXpXpXpXyX*X4XoX5X`.}.&X&X&X*X{.'.{.{.&X7X&X*X*X*X{.}.0XiXfXiXpXpXyX7   .                         $ L {.dXqX4XL $                                           X         - *.0XiXyX$.7 .     O               . 8 >XwXpXpXpXpX{.%             O       O               .             . .                                                                                                                                                                                                         O .         O O                           . _ {  .] .   X O .   X X     .         o f. . .[ .     O   .                                                                                             X   X                               .           : - : : O     .   O       . : : * :                                                                                                                                 ",
"                                  . : * : : .           X             X     9 9 : : X       . : * 9 ;               : : - :                                                                         . . . . . . .   . . . .         O .     X                                     . ] ] _ _ _ ] ) ) ) _ _ _ _ ) M .         X                                                                                                                                                                                                                                                                                       O $ t ,XwXpXpXpXfX*X7           O     . .                       X X   % oXiXpXpXpX{.7   . . . X     . .   O @ $ F OXqXiXpXpXiXbXy 7 7 % 7 % 7 7 % 7 7 7 7 % % 7 7 % 7 7 7 7 t q.yXpXpXpXpX'.t $ .     X               X   $ L *XqXeX}.L $                                                     % &.wXaXyX@.% . X       X           . 8 2XwXiXiXiXpX}.7   O                                                                 X                                                                                                                                                                                                                         X         . ] { { ] .   O         X           X   . ' { { [         O O                                                                                 .                             X                             - q e :                     : * : : .                                                                                                                               ",
"                                    : * * * X                               : e : *           : : * :     .       . : : : :                                                                       O                   X         X   O           X       .             . .       . $ c [  .{ { ..( _ { { { _ ' ] n . .       O                                                                                                                                                                                                                                                                         O O X     X     $ 7 8._.pXpXpXfX-X8 $ X         O +   .                         O   % oXpXpXpXiXoX7                         7 @X0XaXiXsXqXgX@X7         X                                 $ t }.AXpXpXpXyX6.8 $ o                       $ L *XeXqX}.L $                                         X         . % &.'.iXyXO.% .                     $ 8 :X0XpXiXfXpX}.7   O         X                                                                   O                                                                                                                                                                                                     O           O     . _ E { [ $ O   O       X     . O @     . ' ( { ] .     X O .                                                                                         . O     X X   O             O             O         e e e -           O         * : q *                                                                                                                                 ",
"                                    : * * *     O                   O     O : e : :         . : * : :   .           : : - :                                                                       X         O       .     O O X   X     . .                                       $ c ] ' _ ( (  . .}  . .' ' ] c.$ .     . O                                                                                                                                                                                                                                                                   . O   O . O           + $ t xXpXpXaXqX%Xt $       X O .     @ O         X   X . .   O O   7 }.pXpXpXiX X%           O           $ y *XqXaXqXqXeX/.y % .   . X                                   . 8 *XqXpXpXiXqX6Xy $     X                   % L {.qXeX}.L $                                                 X   7 &.wXiXyX$.7 .                     . t :XeXpXpXiXpX`.% X         O                                                                                                                                                                                                                                                                             O         @     . ) { { ) .     O .     X     O .       . y.} { [       O   O                                                                                     X               O .     O       .           O       X   - q q :                     : : 9 *                                                                                                                                 ",
"                                    * * * :                           O     : - 9 *           : : : : .             : : 9 : .                                                                                   .     O O       +   X                       .   X                 $ x x ] [ ] ] ] ] ` ] ' ` ] c x $   . O   . O                                                                                                                                                                                                                                                                 .       O .     X   X     7 ].iXqXiXqXyXVXt % . +       O   O   O           . O   . + .   7 }.CXpXpXpXoX%         X X         . 8 w.yXiXqXsXsX_.2X8 .   .   O                                     7 1XtXsXqXpXaX[.9.% @ X   O                 $ L &XqXqX{.L $                                                     % &.'.iXyXO.7 +   .   .             . t :XeXpXpXiXiXXX%         .     X                                       + O   X   O                                                                                                                                                                                                                     X     X       O   . ) E ( t.O X                 .       X . [ / { ' .       .               O                                                                     O   O o O           + O   @                   O   X       - e - : O         O         - : 9 * .                                                                                                                               ",
"                                    : 9 * * .   O                   O       - 9 : *     O   . : : e :     X         : : - - .                                                                                 X             X               O     .                                 $ . . . . . o   . . . $ . . o     X O                                                                                                                                                                                                                                                                             X .           @ X   % 6XdXiXiXhXqX0X/.y 7 . ; .   @     O .     X O   O       .     % {.pXpXiXpX{.7         O   O     O . 8 2XyXpXiXqXpX[.l.% .       @ X                                   % F &X0XiXqXqXuX:X%   X     @               $ L &XqXeXOXL $                                                   . % &.wXiXyX$.% .   X             .   $ t :XeXpXpXiXpXXX%         . O . O   O                                     .       O O           . .                                                                                                                                                                                                                 O O   . ) _ E r..                   .   O   X . t.[ { [ .       O     X           O                                                                 @ O                         X       O                       - e s :           X         - : q :                                                                                                                                 ",
"                                    * * * :     O                         O - e * * .     .   : - : : X .           : 9 - 4 .                                                                                     X   . . . . . . .               O                             X             X                           O O O                                                                                                                                                                                                                                                                       O O       .     O X $ VX[.iXqXiXpXfXtX:X0.8 % + O   O       O O         O           % &XpXiXiXpX{.7           O         $ t /.qXpXqXiXpX}.t $ .   +                                         $ 8 MX`.aXiXiXiX{.t .     O                 $ L &XtXqX&XL $                                                     % &.0XiXyX$.7 .   X             .   $ t :XeXpXpXpXiXoX7           . O .             O             O               O O O O X       X                                                                                                                                                                                                             .           O   . ] ( _ ) $ . . . . $ . . o . $ + . .   . l ' ' ] .       O                                                                                       . .   . . . .   . . . .                     .       X   - q q :                     : : 9 :                                                                                                                                 ",
"                                  X * * * :       O                 O O     - 9 * *   X     . : - : * .           . : : e : O                                                                       O       O     . . x z ] [ [ ] C $         +           X                               .                       X                                                                                                                                                                                                                                                                                 O             + O     . 8 >XwXiXsXiXiXqXtX`.:Xt $ X   +   .                 X         % *XfXiXiXpX}.7             O   O   7 :XuXpXCXpXiX0X:X7   X       +                                       . 8 yXpXpXpXsX0X2X8 $   O     X           $ G &XqXqX{.L $                                                     % &.wXeXwX@.7                   .   $ t :XwXpXpXiXiX&X7 .         O                                                 O   O                                                                                                                                                                                                                                 O   O . ] ( Q ( ) l ] ) [ ] ) ) ] ] ` ] ] c r.) ( }  .] .                                                                                               c ` [ [ ] l ) ] ] [ ] f.O                   O         . - e e :                     : : 9 :                                                                                                                                 ",
"                                    * * * ; .                               : e : *     O     : - - ;               ; : e - .                                                                   O O   O   O       . $ t.[ _ T ..[ c.$ X   X   X O   O         X               O       .                   . .           O     O                                                                                                                                                                                                                                                                     O         .     O O   . $ t  XwXqXpXsXpXpXiXtX:Xt % % % % .               .   . $ & $ t *XiXiXpXpX&X7   . .             . 8 {.pXCXpXpXqX}.G %       X     .                                       % {.sXiXpXpXaXoXy % O                   $ G &XeXqX4XL $                                                     % &.eXiXwX+.7 o               .     . 8 >X'.iXfXiXiX&Xt % $ + . . . $ . . . $ $ . $ . $ . $ . $ . $ . $ . $ . $ .     O                                                                                                                                                                                                                                     O   . ] } } { .._ _ _ | ( ( ( { { {  .( ) _ ( Q } ' ] +                         O                                                                   . v._ | { { .._ ..{ { { ] .                   O   O       - e e -       O             : : 9 : .                                                                                                                               ",
"                                  . : * * :                             O   : e * * X     .   : * : 3               & * e - .                                                                   O O O   O   X     . $ t.] ' ( { [ f.$   X       O         X       X             O                   O   O   .                                                                                                                                                                                                                                                                                   O   O             .   O .     $ 8 >.uXfXiXpXpXsXpX0XOX/.2XF t 7 .             . % t t y F |.wXpXiXaXqX7X%   o   .     X   O $ t +XiXpXpXpXeX:Xt $                                                 X   % <XeXiXpXpXqX_.G $     .               $ G 4XeXqX4XF $ O                                         X         7 &.eXqXwX%.7 .         X     X X   $ 8 6.wXqXpXiXiX[.G t t 8 8 8 8 8 8 t t y t 8 t t 8 t 8 t t t 8 t 8 t t 8 8 7 o   +         X                                                                                                                                                                                                                               . g.' { ( ..[ _ _ _ ..E ( { { { { _ _ ) _ { { [ f..                     O                                                                         ] _ { ( | { { | T } _ ]       O               O         - q q 2         O           : 9 9 :                                                                                                                                 ",
"                                    * * * ; .   O     X             O       : - * :         . : ; : ;               ; * : :                                                                           O   O       . . x l ] [ [ ] M .         X   O                           .     O     O                                                                                                                                                                                                                                                                                                     O       X             O .       $ 8 $XrXqXpXpXCXpXCXpXqX0X{.:Xw.9 % - 7 7 7 7 8 0.;X:X X{.jXiXpXiXiXdX#X7       O O       $ 7 8.'.iXiXpXpX0X6.7 .   O                                           X     % y {.qXpXiXqXeX|.& @                   $ F :X0XqX XF %                                                     % *.qXiXwX%.8 .   .             .   . 8 <XyXiXpXpXpXgXQ.1X<X<X>X>X;X<X;X:X:X:X:X:X;X:X:X;X:X;X;X;X:X;X:X;X:X;X;X4..   .   X                 O                                                                                                                                                                                                                     c ] [ ] ) l M ] ] [ ) [ [ ] [ [ ] M t.] ] [ ] C .       X X                                                                                 X . ] T Q _ ( ] ] ( { E T ] . X                 .         O - e q :                     * : : :                                                                                                                                 ",
"                                    < * * *                           O     : 9 * ;           : * : :   .         X ; * e :                                                                                       X   $ . . . . . $   X       O   .                         O     O     O   O       X           .       .                                                                                                                                                                                                                                                                         O             X   O   .         $ t 1X0XiXpXiXpXpXqXqXiXiXeXwXXXoX*X}.}.}.4X*XyXrXuXyXuXqXqXpXpXaX[.>X% O +   O   O X . % y  XwXiXsXiXpX{.y .   X                                               . . $ 7 s.wXpXiXiXiX&X%     O               $ y  XeXqXoXt $                                                     % !.qXiXyX2.8 $   O                 $ t 1XtXpXiXiXsXiXwXyXxXuXwXwXrXeXqXwXiXeXtXwXwXwXeXwXeXwXwXeXwXwXwXeXwXrXtX:X%       .                                                                                                                                                                                                                       .   X   .       $ $ $ . o     . . . . . . . . . . .   . . $ $ % O   X             . O     X                                                                   . g. .{ ) % . . $ / .. .g..       .           O   O       - e q 2         O           : : 9 *                                                                                                                                 ",
"                                    * * * 1     O                     O     - q 9 :       .   : i : : . .   .     . * : 4 ;                                                                                                 X           X     .   O           .                       X X X                             .                                                                                                                                                                                                                                                                               X   X                   @   $ 8 BX[.wXtXpXpXiXaXpXpXsXiXiXiXpXpXpXpXiXiXiXpXpXiXiXqXsXpXpXqX:Xy $ +   O O     @   % |.rXqXfXfXfXqX{.7 X           .                                     O + . $ $ 8 zXpXfXiXiXnX8   X           O     $ t :X0XtX:Xt $                                     O           .   % #XqXiXwX;X8 $ .         X   . .   $ t #XrXfXpXiXpXiXpXqXpXpXpXpXpXpXpXsXiXpXpXpXpXpXpXpXpXpXpXpXpXpXpXpXpXpXpX&X7     .   .     O         X                                                                                                                                                                                                                 X     . .                 .           X         . .                   O                                                                           . [ '  .] .     . ]  .' [ .                   O       X   - q q :                     : - e * .                                                                                                                               ",
"                                    : * * *                                 e 9 : *     O . . ; - = =   .     . . . : 9 e :                                                                                   . .         O     @             X           .                 X   .           .       .                                                                                                                                                                                                                                                                                             O               X               +   . 7 t 9. XqXpXiXqXqXiXiXpXaXiXsXpXCXCXpXiXpXpXpXiXpXqXiXqXfXyX0.7 $ O       O X     7 7XdXpXfXfXdXrX1X% .             .                                   X   .     7 6XdXiXfXAXrX0.7                   . t ,X0XyX:Xt $                                     X         O     % &XiXpXeX1X8 $           X     O   $ t NXyXgXqXpXpXiXiXiXpXpXpXiXpXpXiXqXiXqXpXpXpXpXpXpXpXpXpXpXpXpXpXpXpXpXfX&X7     .         O     .                                                                                                                                                                                                                         . . X                                       .   O         X       .                                                                             ] ' ' g.. X X . g.' ( ]       O                         e q e :       X             : 9 : *                                                                                                                                 ",
"                                  . * * * :     O               O   O       : 9 : * X         : e : e * : : : 3 & & 9 : q =                                                                                         . O     O O         . .                                   .   . X       . . .                             X                                                                                                                                                                                                                                                                     . .                               @ X . 7 y 6X_.yXrXyXxXzX'.wXwX0XqXiXqXyXrXtXtX0XeXyXyXrXxX%XNX7 . + O       X       - =XvXlXvXrXzX6Xy %     O     X                                             o   % MX%XyXtXlX%X>X8 . O X       .     $ 8 :X0XtX|.t .                                               .     % 4XpXpXwX<X8 .               O .   . 7 q.).).0XyX[.yX0X0XqXtX0XyXqXqXyXwXyXyXyXeXtXtXtXtXtX0XtXtXtXtXtXtXtXwXrX:X%   O O .     O     .                                                                                                                                                                                                       X O               X             X         .   .     X   .     O       X               .                                                                           . ] '  .] .     . [ { [ ] .                   .           - e e :           O         : : 9 :                                                                                                                                 ",
"                                    * * * : .     O                         : 9 9 *         . * - * e = : - : : : = 9 9 9 * O                                                                     O             X     X         O X   O         X                     X       .                                       X                                                                                                                                                                                                                                                                                     X                   +   X       . $ 7 8 <X3X<X6.0.F 6.;X;X<X;X;X<X<X>X,X|. X;X;X4X<Xt 7 .   O O   X .     X   % w.1X:X@X:X>X5.7 . O O .   X O O                                       O       . 7 k.8. X X;.a.8 . @               . 8 ;X0XwX;X8 $ X                                                   % &XpXpX0X1X8 $               .   O   % 5.s. X;X;X-.6.6.3X;X.X;X:X:X:X:X:X;X<X;X;X;X;X;X:X;X;X;X;X;X:X;X;X;X:X|.7.$ O O O     O                                                                                                                                                                                                                               X   O   O O           O                     O   O O                 .                                                                             . ] ( { ] .     . [ { _ ) .                   O   O     X - e q -                     : : * * .                                                                                                                               ",
"                                    ; * : *   .             .       O     O * * : * .     .   : : : e : i - * : e % 9 9 r :                                                                           X                   X       .   .                                               X                             O   O                                                                                                                                                                                                                                                                         X       .           X         . .     X         $ 8 t t 8 % % 8 t 8 8 8 t 8 8 8 t t t 8 t y 8 %         O     . X       . 8 t t t t 8 % .       O     O O                                               . $ 7 8 t 8 8 7 % O                 . 7 0.,X:X0.7 .                                     O         .     $ q.{.'.:X0.7 .         X .   .   @   . % 8 t t t 8 8 8 8 8 t 8 t y y t t t t t 8 t 8 8 8 8 8 t 8 8 8 8 8 8 t t 7 . O O X       O O X                                                                                                                                                                                                             . X               O   O   O         O               O         @                 . O                                                                           . ) Q } _ $     . / } { ] .                               - e - 4       O             : : : *                                                                                                                                 ",
"                                    : : * ; . . . O O .   . .     .   . . o = : 9 * . . . . $ & : : * r - * : ; ; = 9 7 * *                 .         .           .       X                                                                                                                                                                                                                                                       @                                                                                                                                                                                                                 . $ $ . . . . $ . $ . $ . $ . . $ $ . $ $ . .                           . $ $ $ $ . .                                                                     . $ $ . $ . .                     . $ % % $ .                                                         % 7 7 % $ .                           . . $ $ . $ . . . $ . . $ $ $ $ $ $ $ . $ . $ . $ . $ . $ . $ . $ . $ $ .                                                                                                                                                                                                                         X           X                 O                                                                                                                                         [ | E Y % . . % Y ( | [       O                         - e e -     O     O     X   s : * :               O O O X                                                                                                           ",
"                                  . ; ; : 5 = - : : : < : : : : ; 1 : : ; * * - - : : : : : ; * * : * 9 % $ .   . + 9 9 e :   O       O         .   .         X .         X                                                                                                                           O O                 .   O O                                                                                 X .                                     . .                                                                                                                                                                                                                                                                                                                                                                                                                                                                                                                                                                                                                                                                                                                                                                                                                                                                                                                                                                     . ] E ( | ` c ] j | E E ) .     .             X   O     . : : : : .               O   4 - * &             X   . O                                                                                                             ",
"                                  . : : : - * s 9 : : : : : : : : : * * = : e 9 - - 9 e e : - : : e 9 9 9 = : 1 : * 9 9 - :       O         o     . .   .   .   . .                                     X .               O                                                                     O     O O                     O O O     X .       O       .                                                                     O   O                                                                                                                                                                                                                                                                                                                                                                                                                                                                                                                                                                                                                                                                                                                                                                                                                 X .                             X                                                                                                                                           . ] ( ( _ ` ] ` [ _ { ..] .                   O         . : : : :   O   X .         . s e : * + O .         O   O     X                                                                                                       ",
"                                .   ; : * - : : : : e : : < : e : - 2 : 9 : - - q e e - : - s : * : - 9 9 : 3 ; 2 * 9 7 e : O               ; ; 1 : 4 3 4 5 : 2 ; & X       .         X         .                                                                                                                           O     . O O       .       X O                                                                           O   .     .     X                                                                                                                                                                                                                                                                                                                                                                                                                                                                                                                                                                                                                                                                                                                                                                                             .         . .                                                                                                                                                                 X . ] _ ( _ d.g.g.g.' / _ ] . O O X                         : : : : X       . $ $ . . . q 8 w 9 . $ $ $ $ &   O O                                                                                                               ",
"                                  . ; : : < : : * : : : : : : : * ; : - - : : e - - - 4 : : - * = e % 9 r : ; ; ; = r 9 q : .     X         ; : 3 : : * * : - - : ; .                           O     O     O             O O                                                                               .                 O O   O           O       O                                                                         .                                                                                                                                                                                                                                                                                                                                                                                                                                                                                                                                                                                                                                                                                                                                                                                                                   .         O                 X                                                                                                                                               . c t.] ] ] z z c ) y.] c     O               O         . - : * *     X o x ] / ) c c ] [ _ _ ] g.] [ ` k .                                                                                                                   ",
"                                      . . . . .   .   . .   .   . .   . . + * : : - : * 3 < : : * s 9 * 9 : ; 2 ; * 9 9 9 :   O       O   . ; : : - : : - 4 - - - ; .                                               O       .                                                                                                     O                 O O O                                                                                                                                                                                                                                                                                                                                                                                                                                                                                                                                                                                                                                                                                                                                                                                                                                                                                     .   .                                                                                                                                                                             O   . $ $ . $ $ $ $ $ $ . . O                             O : : : *       . ) _ { _ ] ) [ { { { ' ` _ .._ ] .   O     X     O O                                                                                                 ",
"                                X           .                         .       . O .   .     . . . : : 9 * $     . . * 9 e *                 ; : : : - * : : : e - ;                   X                   O X                                                                                                   O                               O   O     O   .                                                                         X                 X                                                                                                                                                                                                                                                                                                                                                                                                                                                                                                                                                                                                                                                                                                                                                                               .                   X           X                                                                                                                                                       O       X .       X   .   O                   O   O       : : * 1 .     $ ) ( E E ) [ ' { { ( [ _ { { { ) +         @     O                                                                                                   ",
"                                                                              X                   : 9 * = . O .   . % 9 : = O X   O       . : - - * . . . + = - 4 : .         X .                               X                                                                                             . .   X       .           .                   .                                                                         X           X                                                                                                                                                                                                                                                                                                                                                                                                                                                                                                                                                                                                                                                                                                                                                                                         O           X         .                                                                                                                                                               O                         O       X                     . - : : :     . . [ _ ../ ) ] ] [ ) ) ) ) { Q { ) $               O X                                                                                                 ",
"                                                                          X     X               . : : * : o       . * * * :             . . : - : : X   . . * : - : .         .                 .                                                                                                               O       X   . .       .   . .                                                                             . X     o                   O                                                                                                                                                                               X                                                                                                                                                                                                                                                                                                                                                                                                                                                                                                                                                                                                                       .   .     X                                                                                                                                                         O     X                   X O                           . ; : s 4       $ ] '  ._ $ . e 9 0 9 $ $ ] _ ( ] . .                                                                                                                 ",
"                                                                                                  : : ; :           * * * ;     O           : - : : .     X : * : :   .       X                       .               .   . . .                                                                       .   X     .     X     + $ $ . $ . . $ .                                                                   X O         . $ . . . $ $ .                                                                                                                                                                                             X X                                                                                                                                                                                                                                                                                                                                                                                                                                                                                                                                                                                               O   O         . . $ + .   . .                                                                                                                                                         O O   X                       O O     X         O           : : s 4 O O   . ` { ' / % . % 9 0 0 $ $ / _ _ ] .             X                                                                                                     ",
"                                X         .                                                       ; : ; <           * * * *               . : 4 : :         ; : e :                           .                 o   . A S S x .                                                                                 .           k ] ] z y.t.] ] ] C . X       X   X                                                       X     . x t.] c x x . .   O                                                                                                                               X                                                     O                                                                                                                                                                                                                                                                                                                                                                                                                                                                                                                                                                                                               . $ c f.f.A .                                                                                                                                                               O           O . .       O   .               X     O     O & : q : = : * 9 [ { ..| / l g.] ` l ] ] ..{ ( ] . X       X                                                                                                         ",
"                                    .           X             X                                   ; * ; :           * * 9 :               . : - : :         ; : - : .                 X                       . . . . S S ] ] $ .                                                                     .         O O O   X   c.[ d.( ` / (  .[ f.$       .                                                 O             .   . S [ / [ ] c.$ $ .       O                                                                                                                                                                                                                                                                                                                                                                                                                                                                                                                                                                                                                                                                                                                                                                           .           X X     . $ f.h.` S     .     X                                                                                                                                                               . . O                                           & : 9 e - e e 9 _ Q T / _ _  ._ _ _ _ ' { { _ ] .   O             .                                                                                                 ",
"                                        .     .               .                                 . ; : ; 1     O     * * * :             X . - - : :         : 4 : ; X                                 X           . $ S C c g.% .                                                                 O             . O O X   . t./ _  .[ _ ( ( ` l .         .                                             X       X       X . . C [ {  ._ ] $ .               .                                                                                                                                                                                                                                                                                                                                                                                                                                                                                                                                                                                                                                                                                                                                                                         O             X . $ C d.f.S   .       X                                                                                                                                                         X   O     .       X X   O                 O           : : 9 * * & & 9 / | | { _ ( ` { T {  .{ { ( ) c     O         O .                                                                                                   ",
"                                          X               .         .                         . . 1 : * :           : * * * .   X         . e q : : X     . - - 4 : .     X                                       . . A S c.x $                                                                             X   O O       $ v. ./ [ ) ) ..' ' g..                                                       .   O             . . ] ( ^ _ / ] $ . .     O                                                                                                                                                                                                                                                                                                                                                                                                                                                                                                                                                                                                                                                                                                                                                                                       O           $ c f.C A . .                                                                                                                                                               X               O           .               O   X       & & 9 * : ; 1 9 ] ) _ ) t.g.[ [ ) ) [ _ [ t.c m .     O         O O                                                                                                 ",
"                                                                                                  : : * :           e 9 9 * .       X     . : q - :       . - s - :                         .   .     O               . .   . .                                                                 O   O     X     . O       . ( ( ..) $ % / _ ' ] o       O .                                                     X       . $ . l ( | _ ) c . o       X         .                                                                                                                 # X                                                                                                                                                                                                                                                                                                                                                                                                                                                                                                                                                                                                                                                     O . O             . . . . . .   X                                                                                                                                                       O                   O     O       O           O             . .   .         . $ . .   . . $ . . . . . .   .       .                                                                                                             ",
"                                                                        X                       . : : : : o       . : 9 * :                 : q - 3         - e e -       X                 .     .   O     X             .                                                                         .           .   O     . ( } ( ) $ % / ( ..]         . .                                               .               . $ c _ { / _ c .                                                                                                                                     # @                                                                                                                                                                                                                                                                                                                                                                                                                                                                                                                                                                                                                                             X                   X   X         .                                                                                                                                                                                                               O         o       X   X   O .   o     O                   X   O o                                                                                                             ",
"                                                                                                  ; : * :           : : * ;         O     . - 9 - - .       : : e :         O                                                             O   X     O O                                         O         X     X +       $ [ { ' ] . $ [ ../ c         .                                               .                 . . c _ ! { _ ] $         O       O                                                                                                               X                               O   O .       X                 O X         . .     O .   X       . . .         O         O           O               .   .               O                                                 X O                                                             O     O O                                                     X                             O                           X     O   O             O                                                                                                                                                                                                                                                   . .   .           . .   X       . O . O                                                                                                                                                                                                                                                                                                                                             ",
"                                                                                                  ; < : : . O O   . : 9 * :                 - : : 9       . : : e :           O               O                                 X         O                   O         X                           O           . + O   X + [  .d.] . $ / | ' t..     .                                                                 . . . c ) E { _ ] .   X   O   O     .                                                                                                                                                 O     .                           X       .       . X       O O     .       O             O O             X               O             O O                                               O O O   .       .     X O                                         O O     O O                                                   .       O   X                                                   O   O               O X                                                                                                                                                                                                                                             O O O     . .   . + + .     .     O O .                                                                                                                                                                                                                                                                                                                                             ",
"                                                                                                  : : : :         . : * * *           O   O : 9 e : .     . : : e :     O     O                                                           O                                                               X     O . O     . ) ( ' ` % % T } _ c .     O O                                                     O X         . . M ) ) _ _ ] .                                                                                                                                                             O     @   O               X       . O X                     X       O .                 X       O     . .             .       O X           X   O   O                                                             .                             .         .                                                             O     .                                     O   O O O         X             .                                                                                                                                                                                                                                                               O .   . $ . . . $ $ % $ . . . $ .   O O           O                                                                                                                                                                                                                                                                                                                                 ",
"                                                                                                X : : : : . O   O . : * * * .       X       : : : : .       * : e - .                       O                                       X   O   . . . + X O   X       X                                       X     O         . ] [ [ y.p a ..| _ t..             X                                   X                       . . c ) E ( ) ] $ .                                                                                                                                                           .     O         X               . .                 X                   O X X   X       .       O   .       X   O X         @     O           O     .                                                                     O       X       O . O O       X     .                                                                     .             O   O O   O O   O   O     .             .               .                                                                                                                                                                                                                                                 O             . m M t.M c z z C c t.t.x .                                                                                                                                                                                                                                                                                                                                                   ",
"                                                                                                . : 9 : 4 X       . : * * * X   .   X     . : 9 * :       . : * q *       O O                                                               $ . $ . .       X O             .                                     O @       l ( / _ ) _ _ ( ) c .     O                                                                 . . . M R ! { _ ] $ .             X       O     .   .   X                                                                                                                 O     .     X         .                           .   O   O         O           O X                   O     .     X   O . . . O O O O O O . .         O O                                       .   . .   . O         O       .                 O   O   O                             O                                       O   O                     O O     O   O O   O                     .   . .     .     .                                                                                                                                                                                                                                             O         X     $ ] ) _ ) ] ] v.[ ) / ) t..       X         O                                                                                                                                                                                                                                                                                                                                 ",
"                                                                                                  : : - : .   O   . * 9 9 :           O     : : : : .       : : - :                           O                                 O   X   O = c c ] V = X                                             .           . O       o x ] ] [ [ ) ) _ ] c . .     O                                                     O X           . c _ { { ' ] $ .                         .                                                                                                                                 .             X   .   O O                 .       O O O                         .             X   O O       O O O .   . O   O O     . .       O                                             O     .     O         O   . .       X   X   O   O   O                                   O O                                   O O               .                                           O       .         X O .                                                                                                                                                                                                                                         O   .             . ] _ / _ _ ] ) / ( E ( ] .               O                                                                                                                                                                                                                                                                                                                                   ",
"                                                                                                  - : : :         . : * * * .         O   O - : * :         : : e :           O                                                 O         . l ] ] z .         @                               O                 . O       $ x ] ] c ) l l ] c M .     O                                                                 . . . S [ ' ' ] C . .           .   o           O   O   . O                                                                                                                     .               X         O                               X     O O                 O         O               O                     . .         X                                         O O O                 O                         O O                                                                                 X                       O         .   .                   O                     O O                                                                                                                                                                                                                                         O             X . _ { } ..) l c l ..} ( [ . X               O                                                                                                                                                                                                                                                                                                                                 ",
"                                                                                                . : 9 * :           * * 9 :         O       : - * * .       < : q - O     X   O             O                                             . ` _ _ ] .                                             O .         X   O X       % $ $ . % % $ . . . .       O                                                       X             A c ] ] C S .                 .                                                                                                                                     O                               . $ % % % % % 7 7 7 7 % 7 7 7 7 7 7 % 7 % % 7 7 7 % .   X   . O       O     X             . . . . $ .                                                         O     O     . . . $ $ . . . .                   O         . $ $ & . . $ . $ $ $ $ $ $ $ $ + . . $ + . $ . $ $ + . $ . $ $ + $ . .         O         O .     $ $ $ $ $ $ $ % $ $ % $ $ $ . $ . . . . $ $ . $ . . + O                                                                                                                                                                                                                                                         X     . [ { { Y % . . % Y { { [ $     X           O                                                                                                                                                                                                                                                                                                                                 ",
"                                                                                                . : : : *           * * * * .       O       : 9 : :         : : 9 :       O   .                                                   O       . ] { { ] .                                                     O   O O           + . . O . $ .   . .                                                                             .     .   . O         X O   O         X     X                                                                                                                                           O     o     . $ t 2X&X*XOX{.{.).&X5X{.&X*X{.}.'.`.+XOX].5X}.*X4Xq.G..   O O       O       X   X   .   . 7 7 8 8 8 7 .       O   O                                             @   O     % 7 7 8 8 8 8 % .             .     X   @   . % 8 t t y t t t 8 t 8 t 8 t t t 8 t t t t t 8 t 8 t t 8 t 8 t t 8 t 8 7 $ .         X       + . $ t t t t t t 8 t t 8 t 8 t t 8 8 8 8 t t 8 t 8 8 8 8 8 7 .                                                                                                                                                                                                                                                           O . [ { ' ) $ . . $ ) _  .` .                                                                                                                                                                                                                                                                                                                                                   ",
"                                                                                                  5 : : ;           * * * *     .         O : : - - .       : : e : .                         O                                         X $ [ { | ) $                         X                   O   O           O O         .     .               X       .                                                             .     X                 O       O O             X O                                                                                                                               .   .           o $ % y 4X[.tXpXpXpXpXsXpXpXpXpXaXpXpXpXpXiXpXpXpXpXpXqX}.MX~ $ O         O O         .       $ } w.,.-.;Xw.8 . .     O   X                                                   . y w.6.>.6.w.w.J $     O               X   . 7 o.2X;X:X1X1X1X;X<X>X3X;X:X:X:X:X:X;X;X;X;X;X:X;X;X;X:X:X;X:X;X:X;X;Xq.4.8 .     X O   O     O $ u 7.;X;X<X:X;X;X;X>X>X>X>X;X>X;X;X;X;X:X,X,X.X|.|.,X:X<X<.7 $ .   X                                                                                                                                                                                                                                   O                 . ` ' [ ] .     . ] ' ' ] .   O                                                                                                                                                                                                                                                                                                                                               ",
"                                                                                                . ; * * ; .       . * * * ;         X O     : 9 : *   . .   : * - -       O O                                                             . ) Q Q [ . O                                           O       O X       X   X                     O   O     .   .                                                                 .   .   O   O o .     O     O       X       X                                                                                                                                           O     . 8 :X}.eXqXqXpXiXaXpXpXiXiXsXiXiXpXpXpXhXdXqXiXpXiXqXiXdX'.;XF .       X O                   % <X-XyX0XrX%X3.8 .   O O           .                                       .   % P -XyX_.wX'.}.1.% X           .       X   . 8 q.7XyXyXyXyX'.'.wX_.wXtXqXqXtXeXwXwXwXwXwXeXtXwXeXeXwXeXwXwXeXwXwXtX}.>Xt $ O     O   O O   . $ K :XyXwXwX0XyXrX0XyXrX0X'.wXwXeXqXqXqXqXqX'.wXwXeXaXqXrX&XO.F % .                                                                                                                                                                                                                                                       . g.' [ ] .     . ] [ ' ] .     .                                                                                                                                                                                                                                                                                                                                             ",
"                                                                                                  : ; : * .   X     * * * *               . : : 9 : .     . - : e : O                       O                                             . ) | ! ] $                           X       X X                                     X O   X   X O             .                                                                     . O O         . O                             O O                                                                                                                     X           . O     o 7 q.rXhXqXiXiXqXaXpXdXgXtX0XwXeXeXqXuXyXrXrXyXeXqXiXiXiXpXiXnX^.8 . .               . .       7 2.lXqXpXpXtX8Xy %     O       .                                           . . y !.dXiXpXiXqXxX;.%     O             X     % y 1XrXpXiXiXqXiXaXiXpXiXpXpXCXpXpXiXiXiXpXpXpXpXpXpXpXpXpXpXpXpXpXpXpXeX:Xt %     X         O   % L yXqXiXqXpXpXpXfXpXfXiXaXeXiXiXpXCXpXpXpXiXiXpXpXpXpXqXrX{.O.t $                                                                                                                                                                                                                                                 . O     ] / ' c.  X X   f.[ ` ] .   O           O                                                                                                                                                                                                                                                                                                                                   ",
"                                                                                                  ; : : : .     O . * 9 * *           O   . : q r = .     . = r e :       O                                                           O O . [ ( E ) .                                   .           o     .                                                 .                                                                   .     X       .       X         .   .   .                                                                                                                                           O O   . y :XtXiXpXpXpXpXiXqX0X].6X3X;X|.:X X|.;Xq.2X;X&XxXpXsXpXpXpXqX`.L 7 $ X     O                 % L [.dXiXpXfX~.G %   O X                                               X   . $ F 5XfXpXCXpXiX-XO.$   O                     % y @XtXCXpXpXiXpXiXqXpXpXpXpXpXpXpXpXpXiXpXpXpXpXpXpXpXpXpXpXpXpXpXpXpXrX$Xt $                 . % L tXpXiXiXiXpXpXiXiXqXtXdXqXiXiXpXpXpXpXiXiXqXaXfXCXpXsXiXaXW.U 7 .                                                                                                                                                                                                                                               .     . ] [ [ [ . . . . ] ' ' ] .     .                                                                                                                                                                                                                                                                                                                                             ",
"                                                                                                . : * - * +   . . $ 9 9 9 :         X     O * 9 q = .     . - q q -           O               O                                           . ) E _ ) .   X               X             . . . . .     .   O . . . .   .   . .     . X                                                                                             O         . $ . . . .   . . . . . . $ .       X                                                                                                                                 X O       % >XcXiXiXpXAXpXpXeX}.;XG y t t 8 t t t t 8 8 t F !.yXqXiXpXpXpXeX X7.$         .     O   O X   $ t ;XuXiXpXaXrX@X8 . .           O                                   X     $ 7 L zXiXpXpXpX0X^.y .                   X   . % y :XtXAXpXpXpXiXqXeXuXyXtXtXtXtXuXrXwXtXtX0XtXeXtXtXtXeXrXtXtXeXtXtXtXOX2X8 .       .   X       % L yXpXpXiXtXwX[.}.*X5X=X*X=X&X&X*X{.{.&X&X=X&X&X%X_.aXiXiXiXlX>.t .                                                                                                                                                                                                                                     O                 ] _ { ( % . $ % / { _ t.                O                                                                                                                                                                                                                                                                                                                                   ",
"                                                                                                  : e 9 s = : ; ; $ r 7 9 : O         O     : 9 e e ; ; ; ; 9 e e :       O   O                                                 X   .     . t.E E ] . O                         . o ; & ; & ; ; : : * : : : : : : * : : : - : : & $ . . O   X       X                                                                                 X . m ] ] ] ] ] ] [ ] ] t.C x A $ $             X                                                                                                               O O                 7 6X0XqXiXpXqXfXeX5XF 8 $ $ $ $ $ . . . $ $ . . $ % t  XuXpXpXdXtXqX:X%       .       O     O     7 7.`.iXpXpXdX*Xt $ .             O                                 O   O % F ;.yXiXiXpXiXxX@.7 .                   X   O $ t ;XyXiXpXAXiXmX). X:X>X>X<X>X;X1X:X:X;X;X:X;X:X;X;X;X:X;X;X;X:X;X;X;X9.V.7   X   O X         o % L '.iXfXdX_.&.F 8 7 % % 7 7 7 7 7 % - 7 % 7 7 7 8 G ^.wXqXqXtXE.L 7 .                                                                                                                                                                                                                                 O O         O . o . ) / { ( / ) l ) { } T ]   o . .         X                                                                                                                                                                                                                                                                                                                                   ",
"                                                                                                o 4 : = 9 - - 2 e = 9 9 9 : .             O : - = : 2 3 2 : : : : : .                       O                                           O   M ) l M .   O .                         # ; : * ; : * : - - - - 9 9 : * 9 : : 9 : : : & .     .                                                                                       o     . C [  . .{ ' _ ' _ ' [ ] c S $ . . +                                                                                                                                 X   X       8 &XfXiXiXpXfX0X&X0.7 $     O   O                   % y #XtXpXiXiXqXOX8                 O O O     . y ).aXiXpXAXkX3.8 $                                               O   + % L oXrXaXqXaXdXW.t $ .   O               O     $ 8 2X'.iXpXpXqX[.G y t 8 8 7 8 8 8 t t t 8 8 8 8 8 8 8 8 8 t 8 8 8 8 8 8 % $       .             % L }.iXiXdX{.P 7 .         O . .                 . % y >X'._.tXrX@XG 7 .                                                                                                                                                                                                                                                   t._ } { [ [ [ ..{ { _ ] .                 O                                                                                                                                                                                                                                                                                                                                 ",
"                                                                                                . = : : * - : * : - - - : = .           X . = : ; : : ; : : : : < ; O                                                                         . .                                   : : - 4 & : : - : : : * 9 : 9 = : : : % 9 * * 1     O         O O       X   . O               X   X   X                                       .   . $ S '  . .} _ _ _ _  . .] C S $ .   +                                                                                                                   O         X     X       X % 4XiXiXiXpXaXkXNX-           O                     $ 7 VX%XfXpXiXiX_.y % . X           O         X 7 {.iXiXpXpX0X1Xy $           O               .                     O   7 O.yXiXpXpXqXtX*.7   .                         $ 8 2X_.pXpXpXiX{.t $ $ . $ . + $ . $ . $ $ . $ . $ . $ . $ . $ . $ . $ . .                       % L }.iXpXqX{.O.%           X                       . $ 7 G W.qXqX0XE.P 7           X                                                                                                                                                                                   O     O                                             c.'  . .[ [  . . .' ` c.. . .                                                                 O O   O   O       X   @                     O                                                                     O   .                                       X         O                                                                                                     ",
"                                                                                                . ; ; ; : : 3 : : ; ; * ; = . .           . = ; ; ; ; : : : : ; ; X . .               X                                                                               X           . : - q s o & : - : < * : : : * ; ; & * & i 9 * &   O   .   X   O O O @                                 O                                     .       . M ` ] [ [ ] ] ] ] [ [ f.k V $ . .                                                                                                                     .           O O           % oXiXiXqXpXqX=Xy $           O       .   O X       . % 8 $XrXiXpXpXwX,.8 .         X   .           % 1XqXpXpXpXeX&XL %         X   o               .   X           O +   $ t E.tXiXpXiXgXbX#.%                             . 8 :X0XpXpXpXiX&X7                     O                                                   X   . % P '.sXpXqX}.O.%                                       . t Q.eXiXeX0X*.7     .                                                                                                                                                                                                   O                             .           A ] j.[ ] ] ` [ ] t.c C . .                                                                 O                     O   O O O .                                                                                     O                               . .             X .     O                                                                                                 ",
"                                                                                                        .   . . . . O .   .         X     O . .   . O . .   . . . .                                                                                                     O         . * - e : . . .   .     X . . . .       . & * * * X . .           O       X       O                 O   O                                     X         . . . . .   .   X . . . . . . .     O                                                                                                                           O O       O     u {.iXpXsXpXuX6.8 $             O                     . % F nXqXpXpXwX>X8 .         o   .           % L ).qXpXiXdXrX!.t $ X X       +             .                     . % L }.iXqXiXiX0X(.y .   . O     X                 . t :X0XpXiXpXpX&X7                                                                             . % P yXpXpXqX{.O.%                                     . . t /.eXqXiXeX^.7 .                                                                                                                                                                                                         X       O                               . $ $ $ . . $ . . o   .           O       .                                       .           +   O     O   . X     O O     X         X                                                                                                           .                       X                                                                                                 ",
"                                                                                                X                                                 .     .   .     O                                                                                                                 * : e - .   .                           & * * * .     .         O                               O       O .                                 O   @ O X       .               . . .         X               X                                                                                                 O X       X   O       . . ..{.pXqXpXiX).F % .       O               X             % y  XwXqXpXtX6.8 . @           O           $ t >X_.sXiXaXiX-XG % X     @           X     .           X         . y -.xXiXaXqXaXyX%.7 $   . X                       $ 8 ;X0XpXpXiXiX{.7                                                       O           O         . % L }.iXpXqXyXO.%                             O         . t Q.iXiXqX0X=.8     .                                                                                                                                                                                                           O         O   O       .       X X     .                     X           O   O                                           X                   .   .           O                                                                                           X       X         X     O   O . O                                                                                                                     ",
"                                                                                                                            X                       .         X                                                                                                                     : - q - .           X           O     . ; : 9 - . . .   X       X O X         X X                   .                                       O O   O                 O                                                                                                                                         .       O O O X     . % C.}.pXpXiXsX`.8 .   o                         .         o t |.wXiXpXtX2X8 .     X     O             . 7 3.'.qXiXiXpXyX2.8 $     X X                           .     X   $ L {.qXiXaXqXiX}.U % . O         X                 $ 8 :XrXpXpXiXiX{.7                     O                                       X                 % L '.pXpXqX{.O.%                   X                 . . t Q.eXiXiXqX!.7 .                                                                                                                                                                                                                                     O   .         . .             X     X O     O                                                     X                 X . . . . .       O               O                                                                   X                           O X   O O O . O                                                                                                                   ",
"                                                                                                X         X                 X   X         X                       .                                                                                             X         O         : : - : . X O     X         O           ; * - : . O O           . . . .   .   X       . . . . . . . .   O                                       O O O   +       . O O   O O     X X     O                                                                                                                   O               .     . 7 z._.pXpXiXiXoX7           O                   .           8 3X+XqXpXtX:X8 $         X               . $ y oX0XqXpXiX0X6XF % +       O                     . . . O     O % O.wXqXpXiXiX0X~.y $ . X                     O     . 8 :X0XpXpXiXpX&X%                 O                                     O                     . % L }.pXpXqXyXO.%         X                 O           $ t Q.iXiXpXtX!.8   .                 .                                                                                                                                                                                                   O   O     X       O O   X O   .                   X   X   O         O                                                 . . . . . . . . $ $ .         +                                                                                                           X                                                                                                                                     ",
"                                                                                                                X                                   X                                                                                                                     O       . * * q : O               .   . O     o   * : : :           X   . $ $ $ $ $ . $ . . . $ . . . $ $ . . .                                                                               X   O                                                                                                                   . O                   $ 8 2X0XpXpXsXiXoX$ X X .                 O     .           o 8 ;X'.iXpXtX:Xt $ O               X           7 2.yXiXpXiXqX_.L %                                 .         $ t E.aXpXpXpXiXyX#.7 . O           O                 . 8 :X0XpXpXiXiX&X7                     O                                                       . % P }.pXpXqX'.O.%                                     . $ t W.qXiXiXtX!.7   .     X                                                                                                                                                                                                     .                 X           O   O     O   O     . +     .   O                                                                 M t.] ] c c ] ] ] x A $ .             X     X .                                                                 O   . O           .       O   O         .       X                                                                                                               ",
"                                                                                                            .   .                                                                                                                                                                   : : - :     O                         . * : : ;   X           + v g.] ] c C ] ] ] g.] f.t.c ] l ] S x o   X                                   O   .     X         .       X   X     X       O                                                                                                                         O O         $ 8 3X0XpXpXiXdX{.%                 O   O   .   O .     X   $ t :XwXiXfXtX<Xt $     X     O               . $ L ].qXpXqXeXuX*.8   X     O               O   O   O   O     % P yXiXpXCXpXiXE.G .   X   X                         $ 8 ;X0XpXpXpXiX&X9                                                       O                 X     % L }.pXpXqX}.O.%         O                           . . t ).qXiXiXqX!.8                                                                                                                                                                                                           . . . .       .                         O O         O .   . O . . .   O                                             O             . c [ ' _ [ [ ' { [ ] S . .   X                                                                                     O   O O .   .   . . . .   .       . .   .                                                                                                                     ",
"                                                                                                O     O   O O       O         O                                                                                                                                           O       . ; : - :     X           .     .         : : : :     X         . g.[ [ [ ` ] [ ` ` [ [ ` [ ] ] / [ ] C .                                     . .               X                         O                                                                                                                                         . t :X0XpXpXpXiX&X7         X                 .             $ y 1XwXpXiXrX:Xt % O               X       O O $ t @XqXpXpXiXqX4X% .     +   X .     X                   X $ y E.tXpXpXpXpXwX:.7     O .   O                       . 8 3X0XpXpXiXiX&X%                                                           X                   % P '.pXpXqX}.O.%                                     . . t ).iXiXiXtX!.8   .                                                                                                                                                                                               O       $ $ $ . . . . $ . $ $ . . . .   .           @             O         .                                               O             . ) _ } { ` [ { { ' ' c . .                                                                                       O +       X .   . . . $ . . $ . $ $ $ . $ .       X                                                                                                             ",
"                                                                                                                  O                                     O                                                                                                                           : : - :                   X .         . * * : :           X . . ` ( ( _ ` f.[ [ d.[ [ [ ] ] [ [ ' ` ] $ .                                             X   X                         O         O                                                                                                             X           X         $ t :X0XpXpXiXiX&X7 O                             X   O     $ y 4XrXiXiXtX:Xt $                             . 7 w.yXpXiXsXsX_.t . . . O O             O   O @       X   % 6.xXtXiXpXqXqX_.L % O X . . O         O               $ 8 :X0XpXpXiXpX&X7                     O                                             O         . % P }.pXpXqX}.O.%                                       $ t /.iXpXiXqX!.8 .           X                                                                                                                                                                                 @         o x c ] c M N x c c ] ] ] ] c x . .                                         .                                                 .     . y._ Q { ` ] / .._ [ ] .                     .                                                                     O   .     . A S M t.] ] t.] ] ) ) ] ] c k $             O O                                                                                                   ",
"                                                                                                        O             O           X                                                           X                                                                                   . * : - : .                             . ; * q - X             . ` ' X.i.] S C ` ] ] f.f.] ] / _ _ ( ] $ .                                                       X   O O               . .     .                                                                                                                                   . t :XeXpXpXpXiX&X7 .   X X                 X               $ t :X0XiXpXyX:Xt %                 X O         . $ G _.iXpXpXiXwX>X8 .     +   .             O             8 5XdXqXiXiXaXeXW.F $ O     .                 X         $ 8 ;XtXpXpXiXiX&X7                 X                                     O                       % L }.pXpXqX'.O.%                             O         . t Q.qXpXiXtX!.8                                                                                                                                                                                               O         . x [ ' ( ] ] / [ [ ' .._ ' [ g.$ .   .           O                                                                   O             . l _ E ) $ $ $ ) _ _ ] $ .                     X                                                                           . . M c ] _ / / E E _ ( / { [ ] c $ .         O                                                                                                       ",
"                                                                                                O                       O     O                                   X                                                                                                       O         : : - :                         X       : * q e             . . ] ( / H $ . . . $ $ $ . . $ 7 / _ ( ] $ .                                   . O         X   .   O         X     .                                                                                                                                                 $ 8 ;XeXpXpXpXpX{.8 .               O     X                 $ t :XwXiXiX0X;Xt $                               . 8 ^.qXdXpXsXqX&Xy . X O                         X   . . 8 [.pXiXiXqXeXwX*.7 .   O   .   O O                     . t :XyXpXpXiXiX{.7                                                       O                 X   o % L '.pXpXqX}.O.%         X                           . . t /.iXpXpXqX!.8   X                                                                                                                                                                                               X     . z .. .[ ) ] [ ' / ( ' {  .` ] $ .       .             X                                                             O   .     O O   l _ ( u..   . ) [ ) ] $ .         X                                                                                       . . m u.) _ { | | ! ( {  . .' ` l $                                                                                                                   ",
"                                                                                                                                                            .                                                                                                                     X : : : :                               . : * q q .         O O . ] ....) $ .     . .   .   . $ l ) [ ] $                                       O O               O   .                                                                                                                                                             $ 8 >X0XpXpXiXiX&X7 .   O X                 X           O   $ t >XwXpXiXwX;Xt $         .                       % 2.'.qXqXiXqXdX1X$ X     .             O   O X     o $ F _.pXfXfXiXqXyX*.%       X                         O   . 8 <X0XpXpXiXpX{.%                                                                             . % P '.pXpXqX}.O.%                                       . t Q.iXiXiXqX!.8                     .                                                                                                                                                                                   . ] X.^ j.j l ] v.] g.) [ [ ] c..                 X           .   .                                                             O O . ) Q J / $ . $ ] [ ( c .                                                                                         O .     . . . c.] [ [ ' ( { _ _ [ ' / [ f.C $ .                                                                                                                 ",
"                                                                                                                                                                                                                                                                      X             : - e :     .                   X       : * q 9               . ) ( / ) $     X           . . n [ [ ] $ X                                         . O   X   O   . . .                                                                                                                                                         O   $ 8 >XwXpXpXpXiX{.7     O                                   $ t :XwXpXpX0X>X8 $           O               .     $ L ].wXiXsXpXiX5X$     X           X     .         . 7 3.'.qXiXiXpXtX%X%.%                   O                 $ 8 ;X0XpXpXpXiX4X7                                                       O           O         . % L }.pXpXqX}.O.%         X         X       O           . t /.iXiXiXqX!.8     .                                                                                                                                                                                         X         $ ` `  .` % $ $ $ $ $ % j _ / c .     X                 .                         O                                                 O ) | X.' $   . ] [ ( ] . .   O   O                                                                                     o     . x C ] ] [ ] ] c ] ] ] f.c c x .                                                                                                                   ",
"                                                                                                                                                                                          X                                                                               O         : - : :     O           .   O   O     . - : q 9       O       $ ] ( / ) .             O   . $ c [ [ ] $                                         X             . C f.f.c . .                                                                                                                                     O           O . . $ 8 8.eXpXpXpXqXoX7                   O       . .     X     $ t :X0XpXpXwX;X8 .             O     O         X   $ t ;XwXpXpXpXpXoX%   .   .             . . .   X   $ 8 MXwXsXpXfXsXrX=.F $         O                           $ t :X0XpXpXiXpX&X7                 O                                     O                       % L }.pXpXqX'.O.%                         .           O . t Q.qXiXaXqX!.8 .                                                                                                                                                                                                   .   . f.' d.] $ . .   X . $ ) [ [ t.$ X         O                                 O   O                                   X         O   . ) ( { ` . o . x [ ( ] $       O O   O                                                                             O       X   . . . $ . $ . .   . . . $ . +                                                                                                                     ",
"                                                                                                        .       X   .                 X                                                                                                                                           . : : : : . . .   X           O         O : : 9 :           X   . ] ( ..) .       O O O       . c ` [ ` $ .                                                   . $ ] [ d.g.$           X                                                                                                                                         O   . 7 >X0XpXpXiXpX{.%                   O       .   X         $ t :XqXpXpXwX;X8 $                                 . 7 3.[.iXfXpXpX+X8 . . .             O O   .   X   $ t 1XqXsXpXpXiXyX$.7 $ X     O           X                 . 8 ;X0XpXpXiXpX'.t 7 7 7 % % 7 7 7 % % 7 % 7 % % 7 7 % 7 7 7 % 7 % % O                     X   . % L }.pXpXqX}.O.%         O                             . t /.qXiXiXtX!.7     .                                                                                                                                                                                           X   .   . f.[ [ l .           $ ) ) ] ] $                                     O     O   O O                                               O   ) ( X./ .   . c [ ] ] . .     O                                                                                   O   X     O       .                   .       X                                                                                                               ",
"                                                                                                                                                                                                                                                                                  . : 3 : : . .                   O       . ; 3 * * .         O   . [ ( ( ] .                   $ c _ _ ) $                                                       $ [ '  .` $ .                                                                     .   X               X                                             O           O   $ 8 ;XeXpXpXiXpX4X7                                         $ t :X0XpXpXwX;X8 $                           O O   . $ y *XdXfXiXiXyX0.7 . .     .       O     X       $ P &XqXpXpXpXeX=.t + .                     O               . 8 3X0XpXpXpXiXeX_.{.'.'.oXoX+X'.oX*X{.oX{.&X&X&X{.}.oX}.*X&X{.{.&X9.%                           % L %XiXiXeX*XP % .         O   .                   O   $ t /.uXdXiXaX!.8 .                                                                                                                                                                                                       . l [ g.c..         . $ ) t.) M .                                                                                             X     . ] ( _ )     $ ] [ ( c $     O     O                                                                               O                                                                                                                                                             ",
"                                                                                                                                                                                                                                                                    O         O   . : : * : $ $ .       .   .     X . . . . $ ; * * . .           . ) ( ( ) .                 . . c _ ) ) .                                           O O O O     . f.' ' g..                                                                       . O         .   O       .                                                         . 8 1XyXpXpXpXiX&X%                 O         X         X   $ 8 ;X0XpXiX0X;Xt $   X                         O .   . 8 =.kXrXiXpXqX XF $                             % O.[.qXpXpXiX_.%.%   .         X O                         $ 8 :XtXpXiXiXiXiXpXpXpXpXpXpXiXpXpXiXpXpXpXpXiXdXpXpXpXpXfXfXpXiXpX&X%     O               X   o % P yXiXiXqX*XP %         . . . .       X         .   . % F Q.tXiXiXtX!.7   .                                                                                                                                                                                               X     . ) / ( ` $   . . . $ % Y ) ) t.. .                                                                                                 . ] ( E ) . . . ] [ ' c .                                                                                                                                                                                                                                                         ",
"                                                                                                                                                                                                                                                                    O             . ; : : 4 - : : : : : : : : : : : - - - e e s = *   O   X       . [ ( ( u..                   $ l _ _ ] $   O                                         O         . t.] h.f..                                                                   X     .               X     .                                         O               . 8 :X0XpXiXpXiX&X7                     O                   $ 8 :XtXpXiXwX:Xt .             O             O       . 7 L &XqXpXpXiX[.+.%       O         O       .   7 +.0XiXsXpXqX^.F $ O O         O           O               . 8 :XrXiXiXiXiXpXiXfXiXiXqXiXiXpXiXfXpXCXpXpXiXiXiXpXiXiXqXiXiXiXpXyX8     O                   . % L yXpXpXdXkX+.%   X O O             . . .       . . $ F +._.eXiXiXeX=.8               X                                                                                                                                                                                 O       . v.} { X.) r.] t.] _ Y .._ ) g.$ .                                                                                       O         . ) ..E ) $   $ S [ ' ] . .                                                                                                                                                                                                                                                       ",
"                                                                                                                                                                                                                                                                                    ; ; ; : : : e : - - - : - - - - - - q - q - - ; .             . ] _ _ ) .   O               . ] [ _ u.$                                             O   O     . x M f.V .                                                                       . . . . + . . .   . . . . .                                                       $ 8 ;X0XpXpXiXpX{.7         X                               $ 8 ;XeXpXiXyX;X8 $                             X       % t ;.tXpXpXiXtX@X8   X                       $ y E.eXqXpXpXwXO.7 $ . .                                 X   . 8 :X0XpXqXiXpXiXdXdXdXdXqXiXiXiXdXiXpXpXpXpXiXiXpXpXiXiXfXaXiXpXpXyX7 .         O             . % L '.pXpXfXlX+.%   .     . . .   . $ . $ + . . . $ $ t +.+X0XiXiXtX].@.%   .                                                                                                                                                                                               O   o . [ ( { Q E _ ( { { ( {  .' / g.$ $ .       X                                                                         O             . ] _ ( ) . . $ ] [ ` t.$                                                                                                                                                                                                                                                         ",
"                                                                                                                                                                                                                                                                                  . ; 3 ; ; : : - - 9 : : : : : : : : 9 - 4 e - : ;               . ] ( ( ) .                 . . l _ _ ] .                                           X O           . $ . .   X                                                                   o M ] [ ' [ ` d.` f.f.] ] ] c .                                   X                 . 8 ,X0XpXpXiXiX{.7                                         $ 8 ;XtXpXpX0X;Xt .                             X   X   $ 7 2.tXCXpXpXqX5Xy $ .         O     X     . 7 P _.dXiXaXqX{.8 . . + .             O     X           O     . t :X0XpXaXpXpXpXiXdXfXiXfXpXpXpXdXdXiXpXpXpXpXiXpXpXpXpXiXiXpXiXeXXX%                           % P yXfXpXqX0X&.8 $ % % % $ $ $ $ $ % 7 % % % % $ 7 y :._.gXiXiXtX{.O.8 $                                                                                                                                                                                                 O   . . $ g.d. .{ _ _ E E Q | [ ' ] ] f.$ .                                                                                                 $ [ _ _ ) . . . f.[ ' ] .         O                                                                                                                                                                                                                                               ",
"                                                                                                                                                                                                                                                                                  . # ; ; ; 2 * : : : : : : : : : : : : : : : - = & .   O   O     . [ ( ( ] .                   . c _ E r.. .                                             .           o . .                                                                       . ] `  . .' j.g.[ ` ~ .._ [ ] .                                                     $ 8 :X0XpXiXpXiX&X7                     O                   $ 8 ;XeXpXiXwX;Xt $                   O           O       7 3.yXpXpXpXpX{.L % . O                   $ F =.yXiXiXiX0X|.% X                                           . 8 3X0XpXiXiXpXsX`.4X5X*XkX%X{.{.=X/. XoX}.}.&X&X}.yX{.{.-X&XoXoX X7.%                       X . % L }.iXpXiXqXE.O.L L I K I I K K I I I I I P I I L &.}.eXpXpXqX_.O.t $ .         .                                                                                                                                                                                     X   O     . c ] / / u.] ) _ _ ) ] ] f.] C $ $                                                                                                 $ ] { { ) $ . . ] [ / c .     O                                                                                                                                                                                                                                                   ",
"                                                                                                                                                                                                                                                                                    . +   . .   X       . X       . .     X   . o .               . ) _ { ) . .                 $ c _ ) ] $                                             O         X                                                                               . ` ' [ ] . . . . . % / ( X.] .                                   X           O     . 8 ;XtXpXpXiXpX&X%                                         $ t ;XeXpXiXwX;Xt .   O       O                   O       % K ].eXiXiXpX0X#.t $               .     % O.{.eXpXpXqXoXF $   X         O             X                 $ 8 :XyXpXiXiXpX_.F 7 7 8 8 7 7 % % 7 % % 7 7 % 7 7 8 7 - % 7 % % % 7 . O                         % L yXiXpXiXqXeX0X'.}.OX}.}.}.'.}.}.}.}.zX'.}.zX*XyX0XqXiXiXuX).P 8 $ +                                                                                                                                                                                                     O X     . . . $ . . . .   . . $ . $ .           O                                                                                       O . [ _ _ ] . . $ C [ ' ] $     O       O                                                                                                                                                                                                                                           ",
"                                                                                                                                                                                                                                                                                            . .                                   .   O           . ] _ _ ) .                 O . l [ _ ] $                                               O X               O                                                                     . ] ' ` t.. X       . [ _ { ( .                                                     $ t :XwXpXpXpXiX&X7                 O                       $ t 2X0XpXiX0X;Xt $                           X         . $ 8 :.yXeXpXpXeX:XG $                 . . t *.tXiXpXpX0X;X8 .           . O                               $ 8 :XeXpXpXfXfX&X7   .   .                             O             O 6 O           O         . % L }.pXiXpXqXiXpXpXpXpXiXpXpXpXqXiXiXpXiXqXqXiXiXiXaXiXpXqXoXP 8 . . O                                                                                                                                                                                                   X                               . .       X                 X                                                                               $ [ ( _ ) .   . f.[ [ c . .       O                                                                                                                                                                                                                                               ",
"                                                                                                                                                                                                                                                                                                                                      O           . ] { ( ) .                   $ c _ _ ) $                                                 O                 O                                                                   $ ` ' ' ] .         . ] _ ( ] .                                                     $ 8 1X0XpXiXpXiX&X%                     O             O X   $ 8 ,XeXpXiXwX;Xt $             O                       O . % P `.0XiXpXiX{.L $ X         +     $ % I %XiXiXiXpX'.3.% O   O       . .         X     O               $ 8 ;X0XiXpXpXpX}.9               O O                     O .     X   O O O           O         . % P '.iXiXdXqXiXpXpXpXpXpXpXpXpXiXqXqXqXaXtXqXqXeXeXaXtXvX~.P t $                                                                                                                                                                                                                         O   O   O                                 X                                                                       O         . ` ( [ l .   $ c [ / ] $                                                                                                                                                                                                                                                         ",
"                                                                                                                                                                                                                                                                                                    .                                       O     . ] ( ( ) $                   . l _ R t..                                             X                   .                                                                     . ] { { ] .       X   r._ ( [ .                                     O               . 8 ;X0XpXpXiXpX&X%                                         $ 8 :XeXpXiXyX;Xt .                               .     O . $ t =.wXpXiXqXtX&.8 O   X           . t -.rXpXiXiXqX4X8 . .   O         .   O   X                       . 8 ;X0XpXpXpXpX{.%         O O   O             X   O         .                                 . % L }.pXiXiXiXqXiXpXpXpXpXpXpXpX_._.).Q.E.E.Q.E.(.*.E.E.!.P 8 +   O @                                                                                                                                                                                                                 X     O O O   O X     X     X           X       .                                                                               . f.( _ l . X $ x [ ' c .     O                                                                                                                                                                                                                                                   ",
"                                                                                                                                                                                                                                                                                                        O         O O                 O           . ) _ _ ) .   O             . $ l [ _ ] $                                                     .             .                                                                   $ ) { { _ .         . ) | | ) .                                 X                   $ 8 :X0XpXpXiXiX&X7                             X X   X     $ 8 ;XtXpXiX0X;Xt $                           X       O O   $ 8 e.zXiXpXiXdX4Xy $           X   $ I #XtXpXpXqXyX6.7 .     .     X     O X                           $ t :X0XpXiXiXiX{.7         X       .   .                   .       O       O X                 o % L }.pXpXpXiXfXfXpXpXpXpXqXiXvX[.P t 7 t t 8 7 7 7 8 8 8 7 . .                                                                                                                                                                                                                   .                         X                                                                                                         . z ( _ ) .   . v.[ ' ] .                                                                                                                                                                                                                                                         ",
"                                                                                                                                                                                                                                                                                                  O                       X                   .     ) _ E ) . X                 . t._ _ ) $   O                                                         X     .                                                                 . $ [ { Q _ .   O     . ) ( { ) .                                                     . 8 :X0XpXpXiXiX{.7                     O X     O           $ 8 ,XqXpXiXwX;Xt $   X         O                     X     . $ K ~.qXfXiXiX}.G % .       .     % +.zXqXpXpXwX{.y $ O   .   O                       O               . 8 ;X0XpXiXiXpX&X7           X                     . .       .   .       O                       % P }.pXiXqXiXqXtXyXtXeXqXfXiXqXxX6X8 & $ . .       .   .   X O O     X                                                                                                                                                                                                     X                             X                     O     O                                                                               . g._ / R $ . $ l _ [ M $ .         O                                                                                                                                                                                                                                             ",
"                                                                                                                                                                                                                                                                                            O                                               O     . ) _ ( ] .             .     . ) _ ( r.$                                                         O                                                                             . ] ( ..] .   O O   . ] '  .` .                                     O               $ 8 :XtXpXiXpXiX&X7       X                 O   X     @     $ t ;X0XpXiXrX;Xt .   O                                 X     . 8 =.rXtXpXiXyX+.y $             % &.tXqXiXpXrXw.7 .   O   .     O                                   $ 8 :XwXpXiXpXiX*X7 . O                           X             .               X     O         . % L }.iXiXiXdX_.:.e.-.W.tXpXpXiXqX_.oXy $   . O       .   .     .     X                           X                                                                                                                                                                               .               X     . . O       . .               O                                                                               . ` ( ! ) $ . % / _ ' c . O                                                                                                                                                                                                                                                       ",
"                                                                                                                                                                                                                                                                                        O                                           O O O     .   . t._ _ ) .                   . M _ / ] .                                         .             . .                                                                           O . t.( _ ) +   O O   . ] _ ' ] .                                               O     . 8 ;XwXpXpXpXiX&X%                   O             o , O   $ 8 :XeXpXiXwX;Xt $                   O                         $ P =XuXpXpXqX*XL %   o     . . 8 *.qXqXiXpXrXt $ O         . O   O                           O     . 8 ;XtXpXiXpXpX*X7 . .                         O                 .   X O O                     . % L yXiXiXqXqX*.t 8 t G ~.qXpXsXqXaXwX4X7 . . .     O   X           .                                                                                                                                                                                                   .                   X                         . .                                                                                             o ] { Q _ c c ` X...` ] .         O                                                                                                                                                                                                                                               ",
"                                                                                                                                                                                                                                                                                            O     X                                   O   O   .   . ) _ R u..                   $ c _ ) ] $ .                                         .     X             X                                                                       . n R R ) .   O .   . ] ( _ ] .                                     X               . 8 :X0XpXpXiXpX&X7                                   X     $ 8 ;XtXpXpXwX:Xt $             O             O           O     . 8 O.}.iXpXqXrX&.%         O $ F (.wXiXpXpX{.8 X   X X +   O     O         O     X                 . 8 :X0XpXpXpXpXoX%                   O                             O                             % L '.iXpXiXxXO.% . $ 8 L &.eXiXiXqXiX%Xy 8 .   +             O X                               X                                                                                                                                                                       O                             O O                     X X                                                                                     . ] T Q | ] l / }  .' ] .           O                                                                                                                                                                                                                                             ",
"                                                                                                                                                                                                                                                                                                                    .                               ) _ _ ] . O                 . l _ _ t.$                                     O   . X       X     .                                                                             . n _ R ) .   . O     u.( ( ] .                                                     $ t ;XwXiXiXiXpX&X7                                   O     $ t :X0XpXiXyX:Xt +                           .         .   O   . $ F W.qXpXpXdX&XH .       . % U `.eXiXiXaX^.%           .     O X       .                         $ 8 ;X0XiXiXpXpX`.7         X   O     O       . O     X     X         .                     X   o % L yXiXiXqXzXO.$     $ % G E.yXeXqXpXqX&X0.7 $ . O     X     X O   O O     X                                                                                                                                                                                                 X         .       O   O   O               .         O                                                                         O         . ] ( [ / g.] [ ( [ ] M . .                                                                                                                                                                                                                                                       ",
"                                                                              X     O O                                   X                                                                                                                                                                                                       O         X     . ) Q ..) $             O     $ t._ [ ] $ .                                     . O         X           O   .                                                                   . ] _ { ) .         + ) { ( ] .                                     O O           O % t ;XwXqXqXiXfX%X7       X   X . X         X   O @ 6 O     % G {.rXiXdXyX1Xt $       O       .     X           X     O       . 7 *.qXpXpXpX_.F .       $ y +.wXiXpXqX*XO.$                                 .             X     $ 8 ;XyXiXiXiXpX}.7             O                                                               . $ K }.pXpXiXtXO.% .       $ G ;.bXdXpXpXqX5X;Xt %     O     X     X O O                                                                                                                                                                                                                                                                                                                                 X             . S S c S S C ] f.C A f .   . X                                                           X     O       .           O               X .                                                                                                                                           ",
"                                                                .                     . O         O                   X             X                                                                                                                                                                                           O             O   . ) E { [ $ O                 . ) _ ' ] $                                         O   O         X   X   O O                                                                     . ] _ { )           . [ E _ ) .                                                   X . 8 8.wXaXiXaXdXcX8 .                 X         O     O O . 7 :XyXeXqXiXrX1Xt %         .               O .     O O O           % =.qXiXpXpXwXP % X     % O.oXqXsXpXgX&Xt $                                                     . 8 ;XwXiXiXpXpX}.% O O     X                                             @ X     X             . $ I }.sXpXqXyXO.%         . % G =.[.qXiXpXqXwX9X8 $ .   O     X X     O                                                                                                                                                                                                                                                                                                                         X                     . . . . . . $ $ . . . . X                   X                                     .               O   O   .       @ O           X     . O                                                                                                                                         ",
"                                                                            X       .         X X         .                                                                                                                                                                                                                       O   X X   O     . ) Q ( ] .     X   O       . $ n ) ) ] $   X                                   X                         X                                                                     . ) _ { ) o         . ) Q { ] .                               .     O . O         X   k t _.pXiXiXiXrX>X8 $     + O             X     o       $ t }.pXiXsXiXyX;X8 $   X X O                                       O % 1.}.qXpXpXeX@XF %     % O.}.iXsXpXtX;.8 $                                             X       $ 8 :XwXpXiXiXpXXX%                                                             .       O       . % I }.iXqXqX'.O.%         . $ 7 F -.yXiXpXfXqXyX|.t $ + O     X . . X O                                                                                                                                                                                                                                                                                                                                                   . . . . . . . . . .   o                   O                                   .     X   X O X   O O O . + X                         .                                                                                                                                         ",
"                                                                          X                                                 X                                                                                                                                                                                                                 O   . ) E ( t.  X               . . t.] [ g.$                                       X     X             X     X                                                                     . ] ( { ) .       O . [ ( _ ) .                                 O     O . X   +   @ Z   7 '.pXpXiXqXqXcXF % . . O O   O O   . O +   . .     $ 7 w.xXpXpXsXpXeXMX8 .       O O                       O       O .     $ I /.qXpXpXaX*XP % . . t *.qXqXpXfX'.U % .                                                     $ t ;XeXpXpXiXpXXX%         .   O                                         O O   O       O X     . % L yXiXqXeXwXO.% . .     .   . % G !.tXqXpXiXqXwX:Xt $ = O   . . O                                                                                                                                                                                                                                                                                                                                                               .     .   .                     O                                     O   O O                 .       =   X               O                                                                                                                                           ",
"                                                                                  .                               O           . .         X                                                                                                                                                                                     O           O O   . ] _ R ) .                 . $ c ] ` C $                                     O O         X               +                                                                     . ) _ { )         O . ) ( | ) .                                   X X   O               9 *XiXiXiXZXiXdX=Xt % . O   O   O   O     . +       $ y &XtXiXpXpXpXkXw.% . X     O                                   .     . 8 -.[.pXpXiXrX=.7 $ % L _.fXpXpXdX!.7                                   X       X             . 8 :XeXpXpXpXiXXX7         . . O     O                                     O .       X   O     . % L yXiXiXeXwXO.%       . .     . % G =.lXiXpXpXqXjX:Xt % ;     .     X                                                                                                                                                                                                                                                                                                                                                                       .                                                           O X     O   .                   .                 . O                                                                                                                                         ",
"                                                                              o O X .   . . .   . O .                     .         .                                                                                                                                                                                                       O     . t._ _ ) $     . . . . $ . . % ] [ ] f.$ .                                       . . . . $ $ $ $ . . . +                                                                         ] { { ` .         . [ E ( ] .                                                 X O @   % 1XrXqXiXiXpXfXrX<X8 $   . O     .           . . $ 8 NXkXqXsXsXpXpX{.y $     O O . O         X           .     X   O . .   . $ L ].iXpXpXtX6Xy 7 7 P [.pXpXqXrXO.$                                                         . 8 :XwXpXpXpXiX{.7           O O O                                           . O O     O       O % L yXiXiXqX'.O.$   O   O .   O   . 7 G @XyXqXpXpXiX0X1Xt $ =     X                                                                                                                                                                                                                                                                                                                                                                 X     . .                         O                                         . . $ . o . .   . . . . $ $ .   O                   O                                                                                                                                   ",
"                                                                  .         # ; : : : : : : : : ; +                       O                                                                                                                                                                                                                   O . . / ( } ( / ] t.) ] [ ] ] ] u./ _ _ _ ] $ O                                     O S [ ] ( [ j ` ] [ ..] C                                                                       . ] _ { ] .         + [ ( ( ] .                                 X   X                   % y 6X0XaXhXfXiXtXzX:Xt $ . O O       .   O . $ 8 y >X}.qXqXiXqXiXsX'.8 . .     O O   X                 X .       O         X . t !.eXiXqXqX&XF % 7 P yXaXqXwX4XP $ O                                   X     .   .   .     . 8 >XwXpXiXfXiX&X7             O                                             O O     X         . $ L }.pXpXqXwXO.%   X     O . O O     % y @X0XpXpXpXaXzX1Xt $ . . +                                                                                                                                                                                                                                                                                                                                     .           X                     X           X                                                       . x l [ _ ) ] ] ] ] ] ] ] C C .         X       X     O                                                                                                                                   ",
"                                                                  O     . . ; : - : : : : : - - : ; .                               O     O                                                                                                                                                                                     .                 . ] { } Q .._ | ( | ( _ [ ( ( _ _ Y [ ) $ .                                     . ] { } { ..[ [ _ {  .{ ] .                                                                     . ] ( { _ .         . ) E ( ) .                                                 X   O . $ 7 0.{.dXqXiXdXiXpX0X6.t 7 $ . . $ $ $ $ % 7 t 6./.bXeXiXiXiXiXqXwX;X7 .       . O             .         O         O .         % #.}.qXqXiXyXO.t y &.wXiXiXyX;.8 $                                             .   . .     . 8 >XwXiXiXfXiX*Xt % $ . . . . $ $ . $ $ + $ . $ . $ $ + . $ . $ $ + . $ . . .         O       . $ L yXpXpXiX'.O.$           + O O     . 7 F 4XqXpXpXiXqX}.<Xt $ o   X                                                                                                                                                                                                                                                                                                                                       .                                 X                     O                                     X     r._ | { _ ( _ [ [ _ { _ [ c.. o                                                                                                                                                         ",
"                                                                .   .     . - - e - : : : * - - : : .           O           @     X   X                                                                                                                                                                                                           . c.' } _ [ [ ( ( ( .._ _ _ _ _ / _ ] t.$                                       . ) E | J i.E / ..J | T ) .                                                                     . ] _ { ) o         + [ E _ ] .                                                       . . . 7 <XyXiXiXiXqXpXsXyX:X6.F t t t 8 8 t G  X'.eXqXaXiXiXpXqXpXkX<X8 $         . O             .           .     O             % I :XwXiXpXtX[.E.W.rXqXiXpX0XO.7 . O                                         .     X . X   $ t ;X0XpXpXiXiX'.G y t 8 7 8 8 8 8 t t t t t t 8 t 8 t t 8 t 8 t t 8 t 8 8 7 .   .             . $ K }.pXpXiX'.O.%         X     O       . % G @XuXpXiXeXqXyX:Xt $                                                                                                                                                                                                                                                                                                           X                             X                   X     O                                                                         . ) Q ^ } } _ _ _ _ [ { } ' ] .                                                                                                                                                           ",
"                                                                O         . : e s e * ; ; * s e : :   .       X       X                     X                                                                                                                                                                                                     . C ] [ ] ] l t.] ) ] ] ] ] ] t.] ] x x . .                                     . [ { | | ) u.] ) | ! { [ .                                                                     . ) ( { _           . _ ( _ ) .                               .         .   .     @     O   $ y #XxXqXiXsXCXpXpXeXbX).#X:X<X<X<X:X).eXiXpXpXpXiXiXpXdXrX8X8 $             O       X                         O X     X   $ t &.wXiXiXiXfXdXtXfXiXiXpXnXG $ . X                                       X           .   . t <XtXpXpXpXiXgX~.1X<X<X>X>X;X<X;X:X4X:X:X;X;X:X;X:X:X;X:X;X:X;X;X;X;X;X;X4.% X     X     O   . % L }.pXpXtX}.O.%                 O       . 7 L ~.tXqXiXpXqXyX3X7 . .                                                                                                                                                                                                                                                                                                             X                                                                     X                                                     . ] } } { / ) ] ] ] ) { { ' ] .       O                 O                                                                                                                                 ",
"                                                                  X         : : - = o   . . * : - : .     X                                                                                                                                                                                                                           .     X       $ $ $ .   o . . $ . . . $ . $ $ $ $ + . .                                     . [  .( ) . . . . ) _  .g..                                                                     . ] ( { ) .         . [ Q { ] .                                       . .     X   O           $ t 8XtXqXpXpXpXpXqXpXaXeXeXrXtXxXyXtXqXiXiXpXpXsXpXpXqX2X8 $   O                 X       .           . O             O O . 7 L `.aXqXpXpXfXfXfXpXiXiX/.7   .                                                       X . t 1XtXpXiXiXsXiXwXyXuXyXyX0X0XeXeXeXqXqXeXwXeXeXwXwXeXwXeXwXeXwXwXeXwXyXyX1X%       .         . % L }.iXpXdX'.O.7   O           O   .       . % F ;.yXpXpXAXiX%Xz.7 $                                                                                                                                                                                                                                                                                                                       X       X                           O   X         X                                                         O     . ] _ _ [ % $ . . . $ ` ( _ [ .                                                                                                                                                           ",
"                                                                            : : 9 *         ; 4 : : .           X     O                   X X             .                                                                                                                                                                             .       X     . .                     .   .   .     O                                     O [  ./ ] $ . . $ [ /  .] . O                                                                   . ] { { ] .         + ) E ( ] .                                       .       .                 $ y @X5XtXiXpXCXpXpXpXpXsXpXiXqXiXaXpXaXpXsXiX0X0XuX#X8 . #                                     X   O .         X         $ t *.qXiXpXpXpXiXfXpXeXuXO.%     O                                             X         $ t $XrXpXpXiXpXiXiXiXiXpXpXpXpXpXpXpXsXpXpXpXpXpXpXpXpXpXpXpXpXpXpXpXpXpXiX*X7     .   .       . % L }.pXiXqXyXO.% O                 O . +     $ % F !.tXpXpXpXtX#Xy %                                                                                                                                                                                                                                                                                                                                                                   X                                                               O O   . ] ' ` ] .         . c.[ ..[ .       O           .                                                                                                                                       ",
"                                                                O     X     : - : :       . : - : : o                 . o         . . .                                                                                                                                                                                         X                 O   . X                   .             X   O                                   + [ { ! _ p ] t.p _ ! { [ .                                                                       ] { { _ .         . ] E { ] .                                     X         .     O X       X X $ 7 t <XrXiXpXpXpXfXfXfXpXiXdXtXiXpXpXpXpXqXoX;Xw.t $ .   X           X                           X           @ O       . 7 @XvXiXqXqXpXfXiXqXwXQ.y .   X                                             X   X       $ 8 MX}.dXiXpXiXpXiXpXpXpXpXpXpXpXiXiXqXqXpXpXpXpXpXpXpXpXpXpXpXpXpXpXpXpXfX&X7       .     O   . % L yXiXpXiXyXO.%         .         . .     X . . % G ^.uXpXpXiXzX1X7 .                                                                                                                                                                                                                                                                                                     .     X .   .   .   X             X   X     X O                                                                             O O   . ] ' ' ] $   X   X $ [ (  .[ .       O                 O                                                                                                                                 ",
"                                                                          . - - * : X       ; * : :           X   . . . . . . . . . .   . .   o                                                                                                                                                                                                   X O                     X     X X                                               . [ Q | E { [ [ _ E ! Q [ .                                                                     . ] _ { )         O . _ ( ( ] .                                             X                       + $ 7 NX-X{.*X*X*X*X&X{./.&X&XoX{.}.yX}.3Xy t 7 $ .   .                                           O   X       O   X     7 #.%XtXiXiXqXiXiXqX'.O.8 .                                           O     X       +   . 7 0.~.)._.rX_.yXrX0XqXuXwXrXeX0XwXyXyXwXyX0XtXtXtXeXtXtXtXtXtXeXtXtXtXtXrX:X%     . .     O O   % P }.iXiXqX'.O.%                       O           7 G *.yXaXpXqX&Xt .                                                                                                                                                                                                                                                                                       X         .         .               .   .                                                                                                       . ] ' ' ] .         . d. .{ [       O   O                                                                                                                                                 ",
"                                                                O O       . : q - :       . 4 e : ; .     X     . . . . $ . $ . . $ . . . .                                                                                                                                                                                         O               X O O   O                           X                                           ) T ! E { _ { { E Q T ) . X                                                                   . ] ( ( ) .       O . ) { ( ) .                                             O                     =     $ $ % 7 7 % 7 8 7 7 % % 7 7 7 7 7 % $ . $ $ .   X       O   X             X               O   O         O O O   X   . t &.wXiXpXiXiXqXaX}.L % . O                                                     . .     % p.2X|.:X<X;.6.>X3X:X|.;X:X:X&X:X:X<X;X;X;X;X;X>X;X;X;X>X;X;X;X;X;X;X;X|.7.% O X         O   . % L yXiXiXwX'.O.%   O         X @     . .           + % G ^.qXpXpX*XJ .                                                                                                                                                                                                                                                                                               X     . .     .   .     . .   .   . .   . . . .   .     .   . .     O O                                                                 . [ { { ] $   X X   . [ ( { ] .       . O   X                                                                                                                                             ",
"                                                                          . 9 e q - .       : : - *               o v c t.t.c c c l c.S c d $ X             O                                                                                                                                                                       . O             .     .   . .   X               +         .                                   . t.[ R ) ) [ [ ] ) ) _ M                                                                       . ] { ..) .         . _ E ( ] .                               .   X             @   .     .       . o     X     X                           @ @       X   O     .                 X                           .   O X       . $ Q |.Q.Q.Q.&X/./.2.u $   X X                                                 O . O O   $ 7 t t t 8 8 7 8 8 8 t 8 t y t t t t t t 8 8 t 8 8 t 8 8 8 8 t 8 8 8 t 8 7 $ O O         @     % K  XyXwX'.:XP $   O           X         O .     X   . 7 F OXeX_.&XK . .                                                                                                                                                                                                                                                                                         O # : : : ; ; : ; ; : : : ; ; ; : : : 2 : 4 - 2 : 2 ; 3 ; ; * ; o               O                                                           . [ { { ] $           ) {  .] . X       O           O                                                                                                                                     ",
"                                                                          . * : 9 :         : * : : O     X   X     ] _ ( E _ [ [ ( _ _ _ ] .             .                                                       X                 X               O                       .                                                       O O         1 4 - - 2 ; : : : : : * : * ; : * : - : : & 1 O X       .                             . . . . . . . . . .                                                                         . ) _ { ] .       O . ] ( ( ) o                                                                                                                                                                                                 $ % % 7 % 7 % % % .                                                                     . $ $ $ . . $ . . $ . $ $ $ $ $ $ $ $ $ . $ . $ . $ . $ . $ . $ . $ . . .             X     . % H k.x.9.z.k.H % .     X     X               .         $ y 1.NXNXk.u .                                                                                                                                                                                                                                                                 O               O         O : - 9 e * : ; ; - - : - : 4 : : - - : : 9 - : : : : : : : : :                                                                             $ ( { / c     X     . l ' { [ .     O O . X                                                                                                                                               ",
"                                                                X           < * - - .       : : - : .             . / ^ ! T / [ _ / ( E E l .       X                                                                                                                 . X                                                               X       : e : : : * : - q 9 9 : * : * * 9 : 9 : : * : .             .                                                                                                                       ] { { ) .         . ) { ( ] .                                                                                                                                                                                                                                                                                                                                                                             X X   X   . % 8 8 8 8 7 % $                           . .     X X . $ 7 t 8 7 $ .                                                                                                                                                                                                                                                                                 O           - e 9 e * * : ; : - : : : : : : - : : : * : : : : : * e 9 e : .                                                                           $ [ ..[ l $ . . .   . ] ' { _ $ X     . O           X                                                                                                                                     ",
"                                                                    O     . * * : :         * 9 9 :           X     ] _ | i.l c c ] y...( l .     X       .                                                             .   X                                                                                                                 . : - 9 9 9 : - : : * : * : ; : : - e - - : ; :                                                                                                                                     . ] _ { ] .       O . [ ! ( ] .                                                                                                                                                                                                                                                                                                                                                                       .             X . . $ $ % $ . . .   X                       O   X       X . $ % $ .                                                                                                                                                                                                                                                                                         X       - e 9 e : ; < ; 3 : : 4 3 : ; : : : < 1 : : : : 1 3 & : - : - . X                                                                   X     $ .. .E ) $ $ $ $ $ % ( { _ ) .       O .                                                                                                                                                 ",
"                                                                            : * e : .       : * : : .             o [ _ / p $ . . $ j / ' ] .           O     X                                                     .       .               X             X                                                                                     3 : 9 : ; : ; * : : : ; ; ; * : * : ; - : : ; .                                                                                                                                   . ] ( { ) .         . ) ( ( ) .                                                                                                                                                                                                                                                                                                                                                                     .   . . O             . . . X             O .   . X                             X     X                                                                                                                                                                                                                                                                                   . O         - q * = . .   .   . . .   . O . X .   .   . O . .   . : : * :                                                                         X O $ d.{ _ [ ] t.g.] ] j  .{  .] .       O O   X   X                                                                                                                                         ",
"                                                                    X   .   : * : :         : * * :     .   .     . d. .X.] $     $ [ .. .d.$     O                                                                                                               X       O   O O     O                                                   X     : e - - . . . . O   .     . .   . . + : : : ; X                   X         .                                                                                                     . ] _ { ) .         . _ ( _ ) .                                                                                                                                                                                                                                                                                                                                                               X       X . . . O             X     X   X     O . O . O     X   X         O         X                                                                                                                                                                                                                                                                               O                       e e e * .       . . .           . X       . . .     . * * * :                                                                             . [  .( ( ` ` [ [ ) ) ..( _ l o       O O X                                                                                                                                               ",
"                                                                            * * * : .       * 9 * *     .     O O + d. .{ ) $     . ]  . .[ . O O O O                                                                                                                 X                   X                                                   O - : : : .         .           O .   . ; : ; ; .                                                                                                                                   . ] { { ) .         . ] Q ( ] .                                                                                                                                                                                                                                                                                                                                                                             O     X     X X                 O O .   O       X   O O     . .     X X         X                                                                                                                                                                                                                                                                                 O       X   - q : ; .           .                           .   X : : ; : X                                                                     @ O   $ ] d.[ ] ] ] [ ` ) ) _ _ [ x       X O .                                                                                                                                                 ",
"                                                                X         . * * 9 :         : * : :       . O     . [ ^ { ] .     . ]  .' d..     .                                                                       X X     O O                                                                                                           - e e 4 .             O           . . : : : = .           X                 X                                                                                                     . ) _ { ] .         . ) | _ ] .                                                                                                                                                                                                                                                                                                                                                                                                     O O     O   O             O             O O .       . +                                                                                                                                                                                                                                                                       .           O O         4 - - ; .     X         X                 O O       O : : ; : X                                                                           $ h ] ] l ] ] ] l M n ) ] ] x .         O                                                                                                                                                 ",
"                                                                            : : 9 : O       : 9 * *                 ] { ..[       . ] [ ' ` o                                                                                             O O   X   O   O   O                                                                                 . - : : <   X                         X : : 9 = . o                                                                                                                                   ] ( { ) .       O . _ E _ ) .                                                                                                                                                                                                                                                                                                                                                                         X     O     X         . . . O       X                           O           O .   . X                                                                                                                                                                                                                                                                                     X       - e - ; .                                             ; : * - .                                                                       O   . . $ + $ . $ . $ . . . . $ $ X     O                   X                                                                                                                                 ",
"                                                                    O       : * : :         : 9 e -             +   ] _ ( u..       y._ _ c                   O                                           X       X   O                                                                                                                     . . : e - : X                       .     : : * : $ . .                 .                                                                                                             . ] _ { ) .         . ) ( ( ] .                                                                                                                                                                                                                                                                                                                                                               .           X       O   . .       .       X           . .           .                   .                                                                                                                                                                                                                                                                         O             .           - e - ;                             X       O       . : : : : +                                                                       O     X   .   .   . . .   O . . .                                                                                                                                                             ",
"                                                                          . : * 9 : .       : 9 q -   X             ] _ Q R $   . $ R ( _ t..         X       O                                                 . . . . .   .         .     X     .         .   . .       X       .   O o                                                       : - - :     X                     . . & : 9 % $ . . $   .   X                 X                                                                                                   . ] _ { ] .         . [ E | ) .                                                                                                                                                                                                                                                                                                                                                                           X         .     .               X               . .                             X                                                                                                                                                                                                                                                                                       O       - - 4 < .     X     O                                 : - : e                                                                                                     .   .           X                                                                                                                                                 ",
"                                                                    X       : * : : O       : 9 e s       X     X . ) ( ! | ] ] ] / | } ( ) .                                                                   ; = q q - - : : ; : * : : : * ; : : * : : : * : : 9 * : : : : : * : : : ; o                                                   . - e : :     O                       . : 9 9 r B.N.$ .   .                                                                                                                         . ] { { ) o       O . _ ( ( ] .                                                                                                                                                                                                                                                                                                                                                                 .                 O               X                                               X       X                                                                                                                                                                                                                                                                                   O           e e - : .           O                               O ; : - : .                                                                                                       X                                                                                                                                                             ",
"                                                                        . X * * 9 :         : 9 q :         O     . ] } Q } ' ' ' _ { } ( t..   . O                                             X             . - e e w q q e : * * * * 9 * * * * * * * * * * * q e : : : : : - - e e - : ; o                                   X             . - : : :                             . * * 9 9 B.N.$ . .           O                                                                                                               . ] ( { _           . [ E ( ) .                                                                                                                                                                                                                                                                                                                                                                   X                           X                     X                                                                                                                                                                                                                                                                                                           O             O   X       e 9 - : .               O       .       O   .         : : : - . .                                                                           X   X       O   O   . O                                                                                                                                                                 ",
"                                                                X           : * : :         * 9 : ;       O . .   . ] / Q { '  .j. .{ / _ ] . .   .                                                           . - q q q q q - - : * * : * * 9 * * * * * 9 : * * q e - - : : : e w q q q e * .                                         O         4 : : : O                 O           ; * 9 7 B.N.$ . .           O                                                                                                               . ] ( { ) .       O . ] ( ( ] .                                                                                                                                                                                                                                                                                                                                                                       .       X                                             X                                                                                                                                                                                                                                                                                                     .           O           - q - 3 .                                           . ; : * : O                                                                                                 O                                                                                                                                                                   ",
"                                                                          . * 9 9 : .       : * q *           .   . c ) [ [ h.g.' ] [ ] t.x . O . O                                                           . - e q s q : : : * * : * : : * : : * : < : : : : - - : : ; : : : q q s q e * .                                                   : - : :       O X                     : : - r B.N..       X           .                                                                                                             ] { { _ .         . _ E ( ] .                                                                                                                                                                                                                                                                                                                                                                             .                                                                             .                                                                                                                                                                                                                                                                                   O           4 9 - : .         X .             .         O         ; : * :                                                                       X     X X         X                                   O                                                                                                                                         ",
"                                                                    X     . ; * : :         : 9 9 :         O       o . . . . $ $ . .     .     O                                                 X           O 2 - - ; .         O .       O   .           .     O   X       . . . : ; : ; .                                       O         . : - : : .                     O O X X = - 9 7 % $ . X     X X   O     .                                                                                                           . ] _ { ) .       O . ] ! _ ) .                                                                                                                                                                                                                                                                                                                                                                                                           O           O     O O                                                                                                                                                                                                                                                                                                               .         X 4 : - : X                                             : < ; :                                                                                 O   .                 O                                                                                                                                                               ",
"                                                                            * * 9 e         * * 9 :           O   @         O   .     X     X     O                                                             ; : : ; .     X                                                   . : : 5 ;                                                     - - 9 :       X                       : : - q $ .   .                                                                                                                             . ] _ _ ' $   . . . $ _ ( ( ] .                                                                                                                                                                                                                                                                                                                                                                     X                       X     O     O   O       X                       O   O     O                                                                                                                                                                                                                                                                       O                 O         - 9 4 :                                               : : : < .                                                                                     .         X   X   O                                                                                                                                                             ",
"                                                                          . : * 9 : .       : : 9 - .     X   O         X       O       .                     .   O     O                                       : : : 3                                                         O . * * * :                                                   . : 9 - :     O                       X : : 9 * .                                                                                                                                   . c '  ._ ] ) ] ) ] ( ( ( _ ] .                                                                                                                                                                                                                                                                                                                                                                                                                                                                                                                                                                                                                                                                       O   O     O                                                             O           4 e q :   X   O   O                                 O 1 : : : .                                                                                                           X   .                           X                       O                                                                                                 ",
"                                                                    O       : : : :       . : 9 e :                               O O                     X   O X     O   O .                                 X : : - :                                               X     O       ; * * :                                                     : - : :                             . : - : ;                                                                                                                                   . $ c ` ' ' }  .( _ _ { ( ( ( c                                                                                                                                                                                                                                                                                                                                                                                                                                                                                                                                                                                                                                                                     O                           O                                 X             .           - 9 q : .                       O                   . : : : : X                                                                                                     X   O                       X   +     O   O .               O                                                                                                   ",
"                                                                      O   . : 9 : - .       * * e :           O                 X O                     O     O                             O                   : - - :                                                             : * * *                                                   . : e : : O                             : - 9 * .                                                                                                                                 . $ C d.'  .' ( _ [ _ ' .._ ' ] .                                                                                                                                                                                                                                                                                                                                                                                                                                                                                                                                                                                                                                                                           O                                 X             .                   O         . : e q :         O                                     : e - :                                                                                                                                       . .     O     .           . O                                                                                                   ",
"                                                                O         O : : : * .       : : q :       O                   O           O .   O               o   X       O O .                               : - - :   X   O                                 X                   ; * 9 :                                                     : - : :                             . e q : ;                                                                                                                                   . . v f.f.g.[ [ ] ] ] ` ] ] ] C                                                                                                                                                                                                                                                                                                                                                                                                                                                                                                                                                                                                                                                                                                                         .           O           O   X       - e q : O                                             ; : - : .                                                                                                             X $ $ $ $ . $ . $ $ $ $ $ .                           O                                                                                                 ",
"                                                                            : 9 : : .       : * 9 :           O                           O               X     . .   X   O               X               .     : : - : O                                                       O   ; * * : .                                                   : : : : .                             e e e * O                                                                                                                                     + . . . . . . . . . . $ . .                                                                                                                                                                                                                                                                                                                                                                                                                                                                                                                                                                                                                                                                   .   .                       .   O               X     .                       O           - q q :       X   O         .                       . : : : : .                                                                                                           . $ v.A.Z.A.V.V.V.V.p.V.V.v.$       X O .                                                                                                                 ",
"                                                                .   X O O   : : * :       . : : e : .   O                       .   X         . $ . $ $ .     o $ $       X                                     : : q :                                         O                 . ; * * *                                         .         . : : : :                             . e q e * .                                                                                                                                   X       .   X                                                                                                                                                                                                                                                                                                                                                                                                                                                                                                                                                                                                                                                                                 .   .                                   O                           .           O           4 e q : .         O                             X     : : : -                                                                                                       O .   O = m.D.D.a.a.a.a.a.a.a.C.F.$ . X   X O   X                                                                                                               ",
"                                                                    O     . : 9 : :         : * q :           O               O   O       . . k f.] ' d.[ ] ] ] [ c     X     +         .                       : : e -       O                                               O   . * * * *                                                     : : * :                             o : - s :                                                                                                                                   O       X                 .                                                                                                                                                                                                                                                                                                                                                                                                                                                                                                                                                                                                                                                                                         O     O                 O     O           X                 .         X - e e :     O     O                                   ; e : : o                                                                                                           . $ m.S.a.a.a.p.a.a.q.S.S.n.$ .       O   O .                                                                                                             ",
"                                                                            : : 9 *         : : - - O     O                         X   X . $ S [ '  . . .{ _ [ [ c.. X   X .                                 . : - e 9                                                             : * * :                                                     : : : :                               - - - ;                                                                                                                                         X                       O                                                                                                                                                                                                                                                                                                                                                                                                                                                                                                                                                                                                                                                                             X                   O     O                         O                   O       - q e 9                                             . ; 9 : :                                                                                                       .       $ m.S.s.a.a.p.a.a.0.z.C.Z.% .           .                                                                                                               ",
"                                                                .     O     : 9 - :         : : e :       O   O                   O       . . M ] ' {  .} | ( ( ' [ .       O O O         O               .     : 9 e :                                         X           O       1 * 9 *                                           O         * - * ;                             O : - : :                                                                                                                                                         O                                                                                                                                                                                                                                                                                                                                                                                                                                                                                                                                                                                                                                                                         X                       O . O   X     X   O             X                                   9 q q :           O             O                   . ; : : -                                                                                                       .     X $ m.C.s.S.a.a.a.a.s.s.S.Z.%     X   X O .           X                                                                                                   ",
"                                                                            : : : : .       : : q -                           O O     O     $ M ] ' { { ( Q E (  .f..     X . O               O                 : : - : .                                                           * * * :                                                     : : * ;       O                     . : : : <                                                                                                                                                         X     O                                                                                                                                                                                                                                                                                                                                                                                                                                                                                                                                                                                                                                                                           O   @ X       O O   O                 @ O                   O           O           - e q :       O                                       1 e : : .                                                                                                           . $ Z.S.0.a.a.p.a.a.a.a.S.n.$ .           .                                                                                                               ",
"                                                                O     O   O : 9 : : .   .   : * q :   X                           @       . $ c.] _ _ { | | ( _ ' ` $       . .                                 : - q :     O                                                       * * * : .                                       O         . : : : * .   .     X         . X       * e * ;                                                                                                                                                                                                                                                                                                                                                                                                                                                                                                                                                                                                                                                                                                                                                                                                                                   O                                   X                             O             O     X X O - q q :           O                                 . : - : : .                                                                                                     . +     $ Z.S.D.a.a.a.a.a.a.a.C.F.$       X . O X                                                                                                               ",
"                                                                          . : : 9 : .     . : - q : .     O   O           O               . . x c c ] / ) ) ) ) ] c &       .                                   : - - :                                                     X     . : * * *                                             X       * * : * .     .                 X   . 3 : : :                                                                                                                                   .             .               O                                                                                                                                                                                                                                                                                                                                                                                                                                                                                                                                                                                                                                                                   O   O   O   +     X     X             X                 . .                   O           - e q : .     O                                       ; e : 4 X                                                                                                           . $ v.Z.Z.V.m.p.V.p.p.V.m.v.$ .       .                                                                                                                   ",
"                                                                      O   . - e 9 : .     . * 9 q :                               O       .   $ . . . . . $ . . + $ .     O .               O                   : : - :                                         O           O       : * * *                                         O   X       : 9 9 * .     . .     . .   .     . . * - : :                                                                                                                                                         X                                                                                                                                                                                                                                                                                                                                                                                                                                                                                                                                                                                                                                                                           O             X           X     .             O     O X   . .                             - e 9 :           O                             X   . ; : : : .                                                                                                     X   X     $ $ . $ . $ . $ $ $ $ = . O         O                                                                                                                 ",
"                                                                    X       : 9 9 = +     . = q q :     X     O             O             .                       .     O                     O               . : : - :     O                                                     O : * * :                                                     : : 9 : . . . . .   .     . .   .   . = q - ;                                                                                                                                                                                                                                                                                                                                                                                                                                                                                                                                                                                                                                                                                                                                                                                                                                       O     . $ . . . . . . .   o $ . $ . .                         O             . O     X   - q e e     O               O                         ; e - :                                                                                                                                 O       .     O                   O                                                                                                   ",
"                                                                    X     O : e e - = : ; ; : e q :       O   O                             X               O                                 X                 : : - :     O                                                       * * * *                                                   . : : q e ; ; 2 2 : ; ; : : : ; 2 ; ; - e e : :                                                                                                                                         X X           X                                                                                                                                                                                                                                                                                                                                                                                                                                                                                                                                                                                                                                                                           @       . . C c ] ] [ [ ] [ ] ] f.f.c x $ .                                               . - e q - .         O                                 . ; : - :                                                                                                       O             X                 .         . .             O   O                                                                                                 ",
"                                                                    O     . : : - : ; 3 5 : : * : : .                                 O   O         O   O O       X         X                   X               : : e :                                                     O       ; * * : .                                       O           : : : : = : 3 ; 3 : : : : : : : : - = e 9 9 :                                                                                                                                   .             X O                                                                                                                                                                                                                                                                                                                                                                                                                                                                                                                                                                                                                                                                                   .   . . g.[  .' ' '  .{  .{ [ ] ] t.. . O     O   X             .           O   O       - e e :       O                                       < e : : .                                                                                                           .   .                           +                 .   O                                                                                                   ",
"                                                                        X . ; : : : ; : : : : : 3 = .                             . O   O           O O       X                                               . : - - :     O                                   O             O     : * * *             X       O   X   O         O     O       : : : * : : 4 : : e - e - - e - - : 9 e - s - .                                                                                                                                                                                                                                                                                                                                                                                                                                                                                                                                                                                                                                                                                                                                                                                                                                     . O X . [ { Q } _ ) _ _ _ ( _ _ _ ] .       O                               O O       O - q e :                                               < : : : o                                                                                                                                                                                                                                                                     ",
"                                                                          O + ; ; : : ; : : : ; ; o .                               X         X                                                                 : - e :                                                           O * * * :                                           O         ; : : : ; ; 4 - - : - 9 : : : : : : - - - : : $                                                                                                                                                                                                                                                                                                                                                                                                                                                                                                                                                                                                                                                                                                                                                                                                                                 O O O     . ] { } | l l l ) [ [ _ ( _ ]         O         .         .                       - e q :       O O                                   . ; - : :                                                                                                                                                                                                                                                                       ",
"                                                                          . . . .   O . .   .   .                                                         X                       X                             : : e -                                                             : * * * .     .                                 O . .         . .       . . O X         X O .     X     .                                                                                                                                                                                                                                                                                                                                                                                                                                                                                                                                                                                                                                                                                                                                                                                                                                               ] _ ( / $ . . . . $ _ (  .] .                                       .           - e r : .         O                                 . 1 - - - .                                                                                                                                                                                                                                                                     ",
"                                                                    X             .     .   . . .   X             .               X . .     . . . .   .     O                                                   : : e -     O                                                 X     * * 9 :           .   O .                                   . .   .                         X           X                                                                                                                                                                                                                                                                                                                                                                                                                                                                                                                                                                                                                                                                                                                                                                                                                                               ] _ [ ] .   O +   . ) (  .[ .       O                               O       X   - q q :           O           O                       : : : : X                                                                                                                                                                                                                                                                     ",
"                                                                          X           .       X                                     $ % $ $ $ $ + $ .   .   O .           X                                   . : : - : .                                                   O       ; * * *                 .                             O       .                                                                                                                                                                                                                                                                                                                                                                                                                                                                                                                                                                                                                                                                                                                                                                                                                                                                                       o ] [ ' ] . .     O   ) { { ] .                                       O   O       e - q :         O                                   . ; : - : o                                                                                                                                                                                                                                                                     ",
"                                                                X                                 .           X                 . x ] d.c x c ] ] c $ X     O                                                   : : - :                                             X             . : * * *               .                               X       .     X   X O     O   X   O     O   O   O                                                                                                                                                                                                                                                                                                                                                                                                                                                                                                                                                                                                                                                                                                                                                                                                                                                 ] ' ' ` $   .   O $ ) {  .[ .             X           O                         : r q : .     X                                 X     ; e : -                                                                                                                                                                                                                                                                       ",
"                                                                                    X           O     O                         . c  . ._ ) ) _ [ l .       O O                                                 : - e :                                                             : * * *         X               O   .                                       O   O     O                                                                                                                                                                                                                                                                                                                                                                                                                                                                                                                                                                                                                                                                                                                                                                                                                                                               . [ _ o.H 7 $ $ . $ $ _ {  .[ $                                       O   O     O - q q :                         O                   . : : - : .                                                                                                                                                                                                                                                                     ",
"                                                                                                                              . . t. .^ _ [ _ / _ ] . .                                   O O       X           : - - : O                                                   O     O * * * : X   O O O   O   O .   .   . X               @ X     .                           O     O O     O O                                                                                                                                                                                                                                                                                                                                                                                                                                                                                                                                                                                                                                                                                                                                                                                                                                         X . . [ { } { ) ] ] u.) ) _ _ ' ] .                           .                       - e q :       O   O                                   : : : : O                                                                                                                                                                                                                                                                     ",
"                                                                                        O               O           . .         . t.{  ./ ) ( _ [ l .     X       O             . .         O                 X : : - :                                               X             ; * * :     O     X           .                 X           O                                                                                                                                                                                                                                                                                                                                                                                                                                                                                                                                                                                                                                                                                                                                                                                                                                                                                   O     $ ) _ ( { ) ) _ _ _ _ _ _ ` ] .         X             O               O           - e 9 :         O                                     ; : - : .                                                                                                                                                                                                                                                                     ",
"                                                                                                  O                     .   X . . t.' { [ % [ p [ l o         O       . .   .           O                       : : e :       O                                               O     * * * * .   @         X   . $ . $ . .       . .   X X X   O   .     X                                                                                                                                                                                                                                                                                                                                                                                                                                                                                                                                                                                                                                                                                                                                                                                                                                                                       O O         x ] _ _ ) ] ) ) ) _ [ ] g.c..   .                                   .           - q e : .         O                                 . * : : : X                                                                                                                                                                                                                                                                     ",
"                                                                  X                               O       X         . O     .   . m / j.) ) ] ] ] l $ X   .   .       . X .     . .     X                       : - - ; O                                       X                   ; * * *         .   o f t.] ] [ ) ) ] ] ] t.c x .       O .                                                                                                                                                                                                                                                                                                                                                                                                                                                                                                                                                                                                                                                                                                                                                                                                                                                                                       O + o m M x t.c C C ] ) ] c c f.k +                     O                           . - e e :       O O                                     : e : : O                                                                                                                                                                                                                                                                     ",
"                                                                                            .                     . ; ; : : 5 : * * w 8 9 r 7 0 8 w % = - < : 4 5 3 ; ; ; : : ; & ;   .       O                 : - e :                                               X           . : * * : .   . .   . . n ] / ~ _ ( _ _ [ _ ' d.v.. .         .                                                                                                                                                                                                                                                                                                                                                                                                                                                                                                                                                                                                                                                                                                                                                                                                                                                                               .   O         . . . . . . . $ . $ . $ .       O                 O   O           O O     X   - e q : O                       O                     : : : : .                                                                                                                                                                                                                                                                     ",
"                                                                                                                    * : ; : ; : < * 9 % r % r r 9 w q e - - : = * ; : ; : : ; : < ; .                   .       : - - :                                                       O     : * * :           . . M [ |  .| .._ /  .o. .~ d.. o       .           X                                                                                                                                                                                                                                                                                                                                                                                                                                                                                                                                                                                                                                                                                                                                                                                                                                                                         O @ @   X     . . O O O .   o   . .                       O O               O           - q q :       O                                     . 1 e : : .                                                                                                                                                                                                                                                                     ",
"                                                                                                      X         . . 3 : ; : * e & i * e : : : = q q q 9 : - : : : : : : : ; * * * ; .                           : - e :     O                                                     O * * * :     X       . c ` { { Y ) n ) ( j.^ j.v.$         O       X                                                                                                                                                                                                                                                                                                                                                                                                                                                                                                                                                                                                                                                                                                                                                                                                                                                                                         .     O             .     O           . X     .                 O           4 e q :       X   O         .                         : - : :                                                                                                                                                                                                                                                                       ",
"                                                                                          .                       . * : * 4 : : e = = * : : ; i * * : = ; ; ; : ; - : : * * : e ; & . . .                     . * - e :                                                     O       : * * * O         . . f.' ..[ % . X   $ ` ' ( ` .     X               X                           O     O                                                                                                                                                                                                                                                                                                                                                                                                                                                                                                                                                                                                                                                                                                                                                                                                                                     O O   O     .                         O     O                                 O         X - e e 9 .         O                                 X : : : : .                                                                                                                                                                                                                                                                     ",
"                                                                      X                                         .   * : : : . . .   .               . O   .       . + . . . = : : :                             : : e -                                                             * * 9 *         X   . f.` [ ] $       . z [  .] .   X                   .             O   O                                                                                                                                                                                                                                                                                                                                                                                                                                                                                                                                                                                                                                                                                                                                                                                                                                                           X       . .         X           @           .       O                           . : - q :                                               : - : :                                                                                                                                                                                                                                                                       ",
"                                                                                                                    : 9 4 :   .                 .     O             .     . : * * * .                         X : : - :                                                             : 9 * *             $ c [ ' ] .       . `  ._ ] .   O                                                                                                                                                                                                                                                                                                                                                                                                                                                                                                                                                                                                                                                                                                                                                                                                                                                                   O   . O   O                                                                                   .   O           . * - s = .                                           . : - 4 2                       O                 X   .     O O   X O                               @ X                                                                                                                                                                         ",
"                                                                                                        O     .   . : - - :                                                 * * * :     O X                     : : e :       O                                       X       O O   : : * : X           $ ] ( [ t..       . ] { ( ] .                                                                                                                                                                                                                                                                                                                                                                                                                                                                                                                                                                                                                                                                                                                                                                                                                                                                   X                                                                                                               . . * - : $ .             O       . .               X . . * = : 1   O X         .         O                         O       . . . . . . . .   . o . $ . +   X       .                                                                                                                                                                   ",
"                                                                                                                    : : e :                                     X     O     * * * *                             : - - : O                                                           * * 9 * .   O       . ] ( [ ] .         ] { ( ) .   O                 X                                                                                                                                                                                                                                                                                                                                                                                                                                                                                                                                                                                                                                                                                                                                                                                                                                     X       X             X                                                                         X                   X   .   = * s 9 : * * * : * : : : 4 e - : : 4 3 - : ; ; : : = e e - : . .                                                       m c t.g.] f.] / ) ) ) ' g.] x $ . X O .   .                                                                                                                                                                 ",
"                                                                                                                    : : - -                                 O             . : * * : O     O                     : - - :                                         X                   ; * * :           . . c ( [ t.$       o [ _ ( u..   O                                                                                                                                                                                                                                                                                                                                                                                                                                                                                                                                                                                                                                                                                                                                                                                                                                                                                             O                                                                 .     O             ; * * 9 9 * * * : * - 9 e - 9 - : : - - 4 : : : : e q q - - - .     X               X       X           O       O     . c ) _ ( ' ' { ( ..E { { { ( ] $ . . .   .                                                                                                                                                                   ",
"                                                                                                        O           ; : : : .                       O     O   O       O     : : : :       O             .       : : - : O                                                         . ; * * *           . . c _ [ M .       . ] { E ) .                   X                                                                                                                                                                                                                                                                                                                                                                                                                                                                                                                                                                                                                                                                                                                                                                                                                                       .                                   O       X                                                                   X   X     X ; * * e 9 9 * 9 q e e - - - : : : - : e : : : * * * * * * * : o     O   O   O                 O                         ] { } ^  ._ _ T _ ! Q ! Q _ ] . .         X                                                                                                                                                                 ",
"                                                                                                                    ; : : :                   O       O O           O   O   : 9 * *     O                       : : q :                                         O                   ; * * *             $ t.( [ ] $ .       [ { | ) .   O                                                                                                                                                                                                                                                                                                                                                                                                                                                                                                                                                                                                                                                                                                                                                                                                                                                       .                           O X   O                                                                     . O                 ; & : : - : : : - 4 4 - 3 : 3 ; 2 - : - e : : * : * : * : ; &             O   O       O O   O                   O     . ] } }  .( ] y.) l ) Y | E _ ] $         X                                                                                                                                                                   ",
"                                                                                                                    : : : : X                                       O     . : * : *     O                     . : : e -       O                                               O   . : * * *     O       . ] ( [ c .       . ] { ( ) .                                                                                                                                                                                                                                                                                                                                                                                                                                                                                                                                                                                                                                                                                                                                                                                                                                                                                         O     O                                                                                       . .       .   .         .           . .                 .   X         O O         .           O   O O                 . ] } { ( % $ . . . $ % ] / [ c . .     X X                                                                                                                                                                   ",
"                                                                                                        O         . ; : - :                                         O .     : : : : O     X                     : - e 9                                                         O   * * * :     .       . c ( [ t.$       . ] { ( ] .   O                                                                                                                                                                                                                                                                                                                                                                                                                                                                                                                                                                                                                                                                                                                                                                                                                                                                           O           O                             X                                                     X   .   o                       . . . $ . . . . . . . . . . . . . . .   .     . . . . . . . $ . O   O       O           O     . ] ( { [ .     +     $ f.] ] c .                                                                                                                                                                             ",
"                                                                                                      O             < : : :         X O                         .   . O   . * : : :     O                 .     : 9 e :                                         X           O       1 * * * .           $ ] [ _ c $       . ] { ( u..   O                 X                                                                                                                                                                                                                                                                                                                                                                                                                                                                                                                                                                                                                                                                                                                                                                                                                                                                   X                                                                                   X                   X .       $ m ) ] ( ` [ ' [ ] ) ] ) ] ] [ [ [ ] ] ] ] ] ] ) ) ] c c c ) ) n M .                       X .   . ]  .' c   X O O O . $ C f.f.C . .                                                                                                                                                                           ",
"                                                                                                O                   < : - : .     X +     . . .   . . . . . . . . .   . + . * = * :     O                       : : - : .                                                           * * 9 :           . . C ( [ c .       . ]  .( u..                                                                                                                                                                                                                                                                                                                                                                                                                                                                                                                                                                                                                                                                                                                                                                                                                                                           O X       .                     .   X     X   X       .                                                                                   O . . . l _ ..}  . ._ ' _ { ( _ ( ( _ { ( { { { { ( ( | { _ _ ) ) ! ! E ) .   X                   O     . ] [ ' c       O O   $ ] f.` C . .                                                                                                                                                                           ",
"                                                                                                                    : : 9 - .           . . $ x C C ] ' [ [ ' ] S A . . .   e : : *                             : - q :     O                                                     . ; * * :             . ] _ _ t.. .       [ _ ( u..   O                                                                                                                                                                                                                                                                                                                                                                                                                                                                                                                                                                                                                                                                                                                                                                                                                                                       X         .   X               . .                                                                                                           X   . n / E { { [ ( _ _ _ _ _ _ _ _ _ _ { _ _ { { { E ( ' X.[ / ! Q E ) . .                     O     . f.'  .] $           . x ] ` c . .   . . .                                                                                                                                                                   ",
"                                                                                                      O           . : : - - .         . . . $ C ] f.` ' '  . .[ x m . . . . * * : * O   O                       : - - :                                                     X       : * * *     .       . ] ( [ c $       . ` { E ) .   O                 X                                                                                                                                                                                                                                                                                                                                                                                                                                                                                                                                                                                                                                                                                                                                                                                                                                         + . . . . . o   . . $ . . . $ $ . .     X         X                                                                           O   O   O     . c / { ../ ] c l ] c ) ` ] ] ] ] ) ] ) ] / ] ) [ [ [ [ ] j | ! ! ) . . O .       X               . f. .~ ` % . . . . . % l ] [ c $ . .   . O O                                                                                                                                                                 ",
"                                                                                                                  . * : q s - ; ; ; 3 * : : - r 9 9 9 9 7 0 0 9 9 i = : : : : * * *       @                     : : - :                                         O           O   O . : * * *     O       $ ] ( [ t..       . ] { ( ) .     O                                                                                                                                                                                                                                                                                                                                                                                                                                                                                                                                                                                                                                                                                                                                                                                                                                                       $ x C f.g.g.` ] ] ] ] ] ] ] ] ] c S f .           O                                                                               O   O O     . c [ [ ` % $ . . . . . . . . . . . . . . $ $ . .   . . . & ) _ _ ] .   O O                       $ ] ..| X.( [ ] ) ) ) Y .._ ( ] . .         X                                                                                                                                                                 ",
"                                                                                                                    : 9 q e - : : * : : * 9 : * 9 9 9 : 9 * * 9 * 9 9 : ; : * 9 * ;     O                     . : : - :     O                                                       * * * :             . ] _ ' ] .       . [ { ( ] . O                                                                                                                                                                                                                                                                                                                                                                                                                                                                                                                                                                                                                                                                                                                                                                                                                                                         . $ f.g.'  .' ( _ [ ' _ '  .' ' ( _ t.c . .         O                                                 X                           O . O O O     . c [ ' ] $ X           O                       X     O     ) _ _ t..   O O       . O             . ] ( ( | / { { { { | | Q { ..] $ .                                                                                                                                                                           ",
"                                                                                                    O   O         . * - q e ; : e : e e 9 * * e * : : 9 * * 9 * 9 % 9 : : : * 9 : *                   X         : : - :     O                                                       ; * 9 * .           . ] [ _ t..       . ] { ( u..                                                                                                                                                                                                                                                                                                                                                                                                                                                                                                                                                                                                                                                                                                                                                                                                                                                           . $ c ` ' { { ..( ( ( { { / _ ( } / ) c $ .       O                                                                                           . % ] _ ' ` $                     X                   O O   . ) R _ ] .   O O X           X X     . . ] R E ( ! ..{ ..E / { ( { ' c .           X                                                                                                                                                                 ",
"                                                                                                                  X ; 4 - : : : * : - % 9 s 7 9 r w q q q 9 9 9 9 9 9 : : & : * * : O     O   X                 : : e :                                                     O       ; * * :           . $ M ) [ ] $ $ . . . ] _ _ ] .                     X                                                                                                                                                                                                                                                                                                                                                                                                                                                                                                                                                                                                                                                                                                                                                                                                                                       . c ' ' { ] ) ) ) ] _ ) ) ] ] { { _ ] $   O   O   O                                             X                                             $ [ { _ ] $                                         O .   . ] ( ( ] .             O               . M ) ) ) ) ) ` ] ] l [ ) [ l C .                                                                                                                                                                             ",
"                                                                                                                        .           O . . $ $ C c ] ] [ [ [ ( ] f.S $ . .   X     .                           . : - - :     O                                   O             O     : * * *             . l ) [ _ _ _ ) ) _ _ _ _ f..         X         O                                                                                                                                                                                     . O     @                                 X   .                                                                                                                                                                                                                                                                                                                                                                                                 X                       X                                                                                                                                                                           . ] _ { ' $ . . . . . . . . $ _ _ ( ] .           O O                                                                                         . ] | / ] $                                               . ] ..{ ] .                                 .   . . . . . . .   . . . . .                                                                                                                                                                             ",
"                                                                                                                                        . . $ x S f.M ] ] ] _ ] ] C . .       @       O                         : - e :                                                           O * * * :           . $ M t._ _ ( { ( { _ _ ' ] c $ . X             O     O                                                                                                                                                                         X         O       X   X           .       X X           O                                                                                                                                                                                                                                                                                                                                                                                             X                                                                                                                                                                                                     . ) {  .] .                   ] _ ( ] .                                                                                                       $ l _ ) ] $                                               O ] { _ ] .   X                                                                               O   O           O   . O                                                                                                                                 ",
"                                                                                                                                  X X       X .   . . . . o   . $ $ . .               . O                       : : e -                                                             : * * :     X   . . $ c ] [ _  . .}  .{  .' ] x . .                       .                                                                                                                                                                 X             X       @     X   O   X   .   O                                                                                                                                                                                                                                                                                                                                                                                                         X             .   X                   .                                                                                                                                                                     . ] ( { [             O     . ] ( ( ] $             O                                                                                         . c [ E r.$ .                                             . ] { { ] .                                                               X             X       X   O                                                                                                                                                 ",
"                                                                                                                                                                  .                   O                         : : e -     O                                                 X     * * 9 :             $ x c.] ` ] ` [ ] ` ] ] c.x $ .   X                                                                                                                                                                                                     .           .     O O   O       @                                                                                                                                                                                                                                                                                                                                                                                                                                                   X                       O                                                                                                                                     . ] {  .] .           O     . ] { ( ] .           O                                                                                   .     . $ l _ _ ] .   O                                       X   . ] { ..] .         O                                                                                 X           X                                                                                                                                   ",
"                                                                                                                                    X       .                   .   X         X                               . : : - : .                                                   O       ; * * * .     O     . .   . . $ . . . . o . $ $ .     X                                                                                                                                                                                                             . . . .           X                                                                                                                                                                                                                                                                                                                                                                                         X                           O           X   X                     X                                                                                                                                                           . ] {  .] .           O     . ] _ { ] .           O                                                                                           . n _ _ ] .                                               . [ _ ( ) .                                                                                 .         .           O X                                                                                                                                 ",
"                                                                                                                                X               . O .       O X           X         .   .                       : : - :                                             X             . : * * *     O                                 .     X                                                                                                                                                                                       O               +         . $ . . O   . . . . . . o     X                                                                                                                                                                                                                                                                                                                                                                                                 . O         .   X .     . .   O   X   X       O                                                                                                                                                         . ) { { ] .                   ) { _ ] .                                                                                               .       . ] _ _ u..                                               . ]  .{ ] .                                                                       . +   .   .   . . X . . .                                                                                                                                           ",
"                                                                                                                                            O .   O O     O O   X X               .                             : - e :                                                             : * * *       . O O                     O     .           X                                                                                                                                                                                   O                   . $ m x ] ) ) ] ) ] ] ] ] c m .         +                                                                                                                                                                                                                                                                                                                                                                                       .   . o ; ; : : : 4 : : : : : : : : : * * =                           O                                                                                                                                     . ] {  .] .           O     . ] { _ ] .                     O                                                                                 . c _ ) ] $                                               . ] } { ] .     X                                                               . O ; : : : : : : : 4 - * : * = .                                                                                                                                     ",
"                                                                                                                                  X     X             O . O O     X     X             .             X           : - - :       O                                             O     O * * * : X   O O .   O .                                       X                                                                                                                                                                             O                 o     . M ) ( | Q | ( ) _ _ _ [ t.+ .   X                                                                                                                                                                                                                                                                                                                                                                                               . = 2 : 9 : : : - : 4 - : - - - - - : ;                                                                                                                                                                 . ] { { ] .           O     . ] ( _ ] .           O                                                                                           . l _ _ ] . .                                               ] { { ] .                                                 X                     ; 5 9 : * : : - - - q - : : ; . O                                                                                                                                   ",
"                                                                                                                                                                                  .       X                   X : : e :                                               X             ; * * * .                   O         O O         O       O   . O                                                                                                                                                                             .     X             . . c ] _ Q } } { / _ } Q ( ] . . O   .                                                                                                                                                                                                                                                                                                                                                                                             . ; : * - * 9 - - - - e - e s q e * : ;                                                                                                                                                                   [ |  .] .           O     . ) { _ ] .                                                                                                       $ c [ _ ) .   O                                           . ]  ...] .       O                                                   X       X . ; : % 9 * : : : - 9 e e * = - .                                                                                                                                     ",
"                                                                                                                                                      X       X     O                                           : - - :                                                       O     * * 9 :                     X         O     O         O   X O   .   .                                                                                                                                                                                             . + ] _ _ | / ` ] ] ) ..Q | [ $     O                                                                                                                                                                                                                                                                                                                                                                                         X     O ; : : i = : : * : : : = - - = e : : ; .                                                                                                                                                               . ] { { ] .             O   . ] ( _ ] .           O                                                                           O               . c _ E t..                                     O           ] { ( ] .                                                                       : - e e = * : : : : % e - : : O                                                                                                                                     ",
"                                                                                                                                  . O     X                         O   O .       .                             : : - : O                                       X                   ; * * :                         .     . . O                                                                                                                                                                                                                         $ ] _ _ ) % $ .   $ j _ _ ] .   O                                                                                                                                                                                                                                                                                                                                                                         X                       . ; : ; & . .   .   O   . . . . : ; ; ;   .         O                                                                                                                                                   . ) {  .] o                 . ] { _ ] .                                                                                                       $ l _ E ) .                                               . ] { { ) .                                                                   . . * : * * . . O . . . + * : : : .                                                                                                                                     ",
"                                                                                                                                  O   .                           .   O       .               O                 : - - :       O                                       X           . : * * *               X     X         .       X                                                                                                                                                                                                                   . $ ] _ _ x . . O X . ] _ ( ]                                                                                                                                                                                                                                                                                                                                                                                     .                 . : : ; ;                       : : < <         .                   O                                                                                                                                   . ] { } ]             O       ) ( { ] .             O     O                                                                                 . . c _ ) u.. .                                             . ] ..{ ] o       O                                   X                   X     . ; : * &           . . * : ; ;     X                                                                                                                                 ",
"                                                                                                                                                                    O                       O           .       : : e : O                                                   O       : 9 : *                                                                                                                                                                                                                                                           . . ] ( ( c.$ . O     ] _ ..] .                                                                                                                                                                                                                                                                                                                                                                                               X   .   - - : * . . .         O   . O : : : ;     .                                                                                                                                                           . ) { { ] .                 . ] ( _ ] .         O O                                                                                           $ c _ _ ] .                                                 ]  .{ [ .                                                   .   O       X       : : : ;   X   X       : 4 1 &                                                                                                                                       ",
"                                                                                                                                      O                                                 O                       : : - :                                                           O * * * *                         X O     X       . . . . .       . . . . .                                                                                                                                                                                   O       . c ( [ ] . + O   . ] { { ]     O                                                                                                                                                                                                                                                                                                                                                                                   O   X           : e * ; . .         X   .   . : : * 2   .     X                                                                                                                                                         ] |  .[ .           O     . ] ( { ] .             O                                                                                         . c _ _ ] $ .                                             . [ { _ ] .                                                                     o : : : &             . 1 < : ;                                                                                                                                       ",
"                                                                                                                                            O     O     O     X     X                                         . : - q :                                                     O       : * 9 * O                   O     . X     . . . $ $ $ $ . . . . . $ $ $ . .                                                                                                                                                                             O           $ t.) _ c $ .     . ) ! } ) O   O                                                                                                                                                                                                                                                                                                                                                                               .   X           . . : - : ; .         X         . : 4 : :                           O                                                                                                                                     . ] ( { ` .           O     . ) ( ( ] .           O                                                                           O             . $ l [ _ u..                                               . ] { ..[ .                                                 .   . O       X   . . : - : * .           . ; : : : . X                                                                                                                                   ",
"                                                                                                                                                                                    X     O                     : - 9 :                                                             1 * * :       X           X   X       $ f S M ] g.] ] g.] c M t.c f.] ] t.M .                                                                                                                                                                             O       . . ] _ _ n . .     . ) { { ] .                                                                                                                                                                                                                                                                                                                                                                                 .             X       : : : : . .       O         . ; - : ; .   .                                                                                                                                                           . _ { _ ] .                 . ] | _ ] .                                                                                                       . n ( ( ] .                                               . [ _ _ ]                                                                         : - - : .             * : : :   .                                                                                                                                   ",
"                                                                                                                                                                                                                ; : : 3     .     O           O O           .       X               : : 4 5   O                         O . M _ _ ( ( ( ../ _ ) _ _ ( ( ( ( E ) . . .   .   O   .   . . O   X                                                                                                                                                   X   . . $ [ ( _ C       . . / ' [ l +     X                                                                                                                                                                                                                                                                                         .     O                         X                                                                       9 e - : .         X   O       : : : :   .                                                                                                     O     O                       X                         . _ E E ) .                 $ ] { ' f..                                                                                               X       $ ] _ { ] $                                             O . ] '  .] .                                                                       9 e - : .         O . : : : :                                                                                                                                       ",
"                                                                                                                                                                                                .             . 3 : : - . .                 O O O .           O         .           : : - :     .                         . ) { E { E ( { / ) _ .._ _ ..| Q E ) : ; : : < : 1 1 ; ; ; : : ; ;                                                                                                                                               O         . $ ] _ [ ] % $ . . % ` ' ' ` $                                                                                                                                                                                                                                                                                 X                                                                                       X   O             O           - e - : .                     : : 9 :             X                                                                                                                                       .         . . ) E R l .   O X         O . ' { ' [ .           .                                                                                 @         . ]  ._ ] $                                         X     . ]  ._ ]                                               O             O           - e : :               : : : :   O                                                                                                                                   ",
"                                                                                                                                                                                                                : * = * . .     .   o       . X . .         .   .     . . . . . .   ; * - 3   O O                         . ] _ _ [ ) l ] ] c.] ] ] ] / _ _ E ) 9 3 - - : : : 1 : : : e - : :                                                                                                                                                   @   O . $ ] / _ ( Y _ ) ) / o.Q X.v..   X     O O                                                                                                                                                                                                                                                                                                                                                                   .             O       X - - - : O         O           : : : :   .     X                                                                                                                         .                             + [ .._ u.$     O       X   . ) { ' ] .                                 X       X   X                                                         . M [ ' t.$                                                 ] _ ( ] .                                               .             O       X - - q :       O     . : 9 = :                                                                                                                                       ",
"                                                                                                                                                                                                              . 4 - e s : * - ; * * * & * ; ; : ; ; & ; * ; ; * * : : 4 - q - : ; ; e : - * .     O                   O   . ] _ ( _ 0 9 w 9 7 9 7 8 w 0 / _ _ ) 9 s : - : : : : : : - 9 - - : .                                                                                                                                               O       . . t.[ [ o.} ../ T E o.{ / [ $ .     O                                                                                                                                                                                                                                                                                       X         X                                                                                 O   X       4 e - : .                     : : : : .           X                                                                                                 O     O . .   . .               .               O . ] _ R a $ $ + $ . . .   . $ _ ( _ ] .         O   O     O     X                                                     X             O     X     x [ ] C .         O   O   O   O   O   O   O     X       . ) { { ] .       .                                                   O   X       4 e 9 : .             : : * 1   .                                                                                                                                   ",
"                                                                                                                                                                                                              . : * : 4 - : 3 : : : e * * * : : : : : 9 * * : e - e : : e e s - < * * * - = .           O                 . ) { { [ 9 9 9 e e s e q 9 9 [ { ( ) 9 : - - : * : ; : : - q q 9 :                                                                                                                                                     O   O . m c ) T ( E E E | { _ [ ] $         O                                                                                                                                                                                                                                                                                         X                               O                                         O             O   O       4 9 - : .     X   O           : : : ;   .                                                                                                                             X                               . ] _ ! i.` ] d.h.` ] ) ) ) ' _ ( ( ] .         O       O                                     X             O                 .               . c [ ` f..                     O                         . [ | { _ .         O                                   O             O   O       4 9 9 : .           . : : * :                                                                                                                                       ",
"                                                                                                                                                                                                    X           : : - : 4 : : * : : : : * * : : : e : : 9 9 9 : : * : : - : - : & & : : e -       X                   O   . ] ( _ ' $   .     . . . . $ ` [ { [ $ . + . . .   . . . $ q e - *                                                                                                                                                         . $ x M c ) [ ) ) ) ) ) t.] l . o     O O                                                                                                                                                                                                                                                                     O   O         O               X           O   O O                                                           .           - - - * .                     ; 9 : :     X               .                                                                                                                                           . c R T ( / [  . .{ } ! ( _ { ( ( _ ] .                   O                                                   O               .               . c d.' C $ .                                     X       . [ { { [ .                                                           .           - - 9 :       O   .   ; e * :   .                                                                                                                                   ",
"                                                                                                                                                                                                              . : 4 4 - 4 : : ; 3 : : : : : - 4 4 < : : - e : e : ; 1 1 2 3 : ; : < : * : ;     O         O               . [ (  .] .                 . ] ' ( ' .   .             . . = 4 : 1 .                                                                                                                                                 + O       . . . . .   . . . . .   .     X X                                                                                                                                                                                                                                                                                                                                                   X                                 O           9 q - : O         O           : : 9 ;             X                                                                                                               X     X                             . t._ _ ..' '  . .{ { { ! { { { _ ..] . . . O                           O                 O           .           O                         . $ ] [ ' f.$                                     O O O     . ) _ { ] .   X                                                       O           9 q q *       X     . : : * 2                                                                                                                                       ",
"                                                                                                                                                                                                                  . X . . X . .   .   . o   .   .   . . . . .   . .         .       o   . .                     O       O . ] {  .` .         X         ] ' ( ] .     .     X   X   . * : ; ;                                                                                                                                                 X O     .   .   .                             O                                                                                                                                                                                                                                                                                                           .                                                                                 X e q - : .                     : : * :   .                                                                                                             X         X   X                                   M ) ) [ ] ] ` ] ' ) ) ) ] [ [ ] ] C .               O       O   O       O   O   O   O                                                 O . . . ] ' ] M $                                       O   O   . ] _ _ ] .   X                                                                 X e q : : . O           : 9 : <   . O                                                                                                                                 ",
"                                                                                                                                                                                                                  .     X                                 X   .   .           O     .     O                     .     O   . ] _ [ ] o         O X     . f.[ ' ] .                     ; ; < <                                                                                                                                   X                 O             O O   O O                                                                                                                                                                                                                                                                                                   o                 .                                   o   .               .                         O           - - - : O                     : : * :   .                                                                                                                             X                   X             . $ . . . . . O .   .   .   . . $       X   X   X       X                                     O                               X   X   .   . $ l [ R M .                                     O   X     . y.( _ ) .   X   X                                                   O         O - q q :     O     .   : : * 1 O                                                                                                                                     ",
"                                                                                                                                                                                                      X                             X   X   . .   o .   .   . . $ .   X X                       O                     O   . ] _ _ / .     . $ . . . . $ ` / [ ]                     . < * : ;                                                                                                                                                       O   O         O O     O               .                                                                                                                                                                                                                                                                     X     X     .             .   + . O       . .     O .     .   O . .       X                       O O           .           4 e : : .         O           : : e ; .       X                                                                                             o     . .   .     . . X     . . . .   .                 O                 X             .   .     X X X           X             .     .     .   .   X   .       .     .   X .     . O   . O           . $ ] [ Y ) $ . . . . .   . o   . . . . . . . . . $ . . .   $ ) ( / ) .         O                                   O O           O           - e 9 :             . : 9 * :                                                                                                                                       ",
"                                                                                                                                                                                                                      X           .   . . . x M ] [ ] ] ] ] ] ] ] x .       O O               O X         O           O O . ] ..} X.a M t.] ] ' [ [ ` / X.} Q ) .             X     . : * ; :                                                                                                                                                       O             X                                                                                                                                                                                                                                                                                                 o ; ; * : * : : 1 ; : : - - * : : : ; : : : : < : : : : : : = &       X           .             .           O   O       - e : : .     X O             : : : :             X                                                                                               = : : : - - - : = - 4 - - q - = : .         X           .                       O         X   = = 1 ; : 9 r q - - : * : ; ; : : : * ; ; : : : * ; * : ; : : : : : : : : : - : : : = ;           . . ) _ _ y.Y ) ] ] ` [ ] ] ] ] ' ] ] ] ] ] ] [ ] _ ) t.r.] ) | { ..y..         O                                     .               X       - e : : .   O         : : : ;                                                                                                                                       ",
"                                                                                                                                                                                                                          X             . $ y._ ( ( _ [ [ ' { { [ v.. .                 O   X                       O       ) E Q T R ) _ {  . . .{ _ { } Q | _ .   .             . . 4 : - :                                                                                                                                                   O                                         .                                                                                                                                                                                                                                                                       . ; i - q e - e : : : : 9 e - - - : : : : : : : : - - 9 e - - : ; X         X   X                             O       X   - q 9 : .                     : - 9 :   X                                                                                                     . . : : : e s s q q q q q q q q r q s .                 .                       O O       O       - e - : 9 7 7 w q e 9 : * * * * * * * * * * * * * * - - : : : : : : : : - - - e e - : ;   X       O $ ] [ { ( ( .... .{ { { { {  .{  .{ { {  .{ { { { ! E ) [ _ T T T [ $ +   X O                                                   . O         - q q : .             : 9 * :   . O                                                                                                                                 ",
"                                                                                                                                                                                                                                        . . t./ | { [ ( ` ' { o.' g.$ . O   O   O                                     O   . z _ } Q _ _ ( { { { { } { X.T T E / .                   . e - 4 * .                                                                                                                                 O                             X                     .       . .                                                                                                                                                                                                                                                                   . : e q w q q e - : : : - q e e : - - : : - : - - : - q q q - : * .           O                 O                         e e - : .         O O       O * : : ;     X                                                                                                 .   . : ; * - 9 e e q - : e q q s q - : . .             O         X                                 q q : * 9 9 q w - : : * * * * * * * 9 * * : : * * : - - - 9 - : - : - - - - - q q q - ;           . + l [ X._ '  .~ ..{ ( { _ { ..( { { { { { ( { { { { ( / _ .._ X._ v.$ .                                                                     e e 9 * .           . : 9 : ;                                                                                                                                       ",
"                                                                                                                                                                                                                                X     X   . y.| ( _ ` ] ] ` { { ..g.$         @                                     O   @ + l _ / / ) u.) [ ) ) ' ] ] ] ) _ y.M o             X   . . 4 : : :                                                                                                                                                                                                                                                                                                                                                                                                                                                                   . . : - q s q q - : : ; : : - e - : : : - : : : : 9 - - - - e s : = .                 .                         .           : 9 - : .     X               ; : 9 :   .       X         .                                                                           X       . . * : e : : = = : : < : : - q s - :                                                 X         O q q i < : - q - 2 2 : * : : * * : : : : * : : * * * : : : : : : : : * : : - - - e e - *             $ x ] ] ` ] g.[ [ ] ) ] [ ) ) ] ] ] ] ] ] ] ] ) ) _ ] ] f.f.j ) l x . .       X                                                 O   O       : 9 - : .             : 9 : :   .                                                                                                                                   ",
"                                                                                                                                                                                                                                  O X     + ] / { / 7 $ $ % j _ ) ) $           X       .   .             O         X O     0 8 q * . . $ .   X . . .   . .   .                     . : : : :                                                                                                                                     O             O   X             O O   X               X                                                                                                                                                                                                                                                                           2 ; : : $ . X           .         .   .     .     .   . o = : * .       X                                   O   O     O - - - :           O           : : : :                                                                                                   X   .     ; ; ; =               O . = q : ; X                   O   O           .     X               . q q & . . . .             .         .     O       . O       .     X   . . . . . # & : * .             . $ $ . .   . .   . . . . . . . . . . . . . . . .   . . . $ $ . . . O   X                                     O               O           - q : :       O       : e * <                                                                                                                                       ",
"                                                                                                                                                                                                                              X O   O O   . ` X._ _ $ .   . t.) [ ] .     X                   X       X             O   O   9 0 9 *   o     X           @                           X : : : : .                                                                                                                                                                           O   X                                                                                                                                                                                                                                             .   .   .     .     .   .   .   .     . : - - : .                                         .   + ; 5 : : .               X                           O           - e : : .                     : : * :   .                                                                                                       . ; ; ; ; o               . ; - : *             .         O   X     .       O                   - - * # o       X X         O                                               O X ; 4 9 * .     X           X                                                 O O .       O O                                                                   O - e q : .   O     . . : : : ; O                                                                                                                                     ",
"                                                                                                                                                                                                                                    O     . ] { _ ) .     . ] _ _ r..                                               X     . : : - : .     X   X                                     . : ; : : X                                                                                                                                                                       O     X                 X     . . .                   O                                                                                                 O                     O   O                                                 O         @       % $ $ . . . $ . . . $ $ $ $ . . $ . $ $ 7 9 9 9             O       .             . O   O     . - - q :                             O               O           - e : * .         O           ; : * :     X   X                                                                                         X       . : : : :                   : - : :                       O                                   . : * * 1       O                                                               . : - q :                                                                                                               X   X X   O                             . : : e % . . . .   . $ = - - * . X                                                                                                                                   ",
"                                                                                    O     O O                                         O                                                                                               O   . [ { ( ]       o ) _ ( ) .   O                 X     . X                         : : : : .           O               X                     : ; < :                                                                                                                                                                       . .     . . .   .   . .   X   . . . . X         .   O                                                                                         X                           O O       O                                                               O + l _ t.) c ] c ] f.M c ] ] ] ] l c c c c [ E R x o             O       O O         X     O     . : e q :       O   O                     .           .           - q : :             .         : * : ;   .                   X                                                                         .         O : : - : X .               : 9 - : .                                                 X O       : * * *       O                                       O             O           : 9 q :       O   O             O                                                                         O         O   X       .   O     O                   . = - e : * : : : : ; - e s - ; .                                                                                                                                     ",
"                                                                                X   O                                                                                                                                                     . [ { ( u..     . ] ( ( u..     O                                                 3 - : : .         X                             X     . X : ; : : .                                                                                                                                                                     X       . $ $ $ $ $ $ $ . . . . . $ .                                                                                                                                                                                                       X     O   . l _ E ( R [ / ( ] ] ) _ _ _ _ ) [ _ ] [ E Q _ ] . . . .               X                         : : q :       O                         O           O         . : e * * O                   . : : * ; .           X                                                                                             . * : : : .                 : : - :                                                     O       : * * * .                                               .           O           - q q :       O             .                                                                         O O       .     O   . .                               . . ; : : : : : 1 : : * - : : * ;                                                                                                                                       ",
"                                                                  .           O           O                                                                                                                                         O     . ] { ( ) .     . ] { ( ] .                           .                         . : : : : .         X O   . . O                     O     . 2 ; * - . .                                                                                                                                                                       X # x f.C c ] l ] ] ] c M M S c x .                 O                                                                     . X                                                                                                               X       l E ! | E _ _ [ / Y ) _ { ( ) ) ( ) g.[ { Q E ] .   .                                           ; * q : .         O               O                 O           : e * * .     X O     O       : * : :   .                                                                                           .             ; : : :         O O       4 - - <                                                             : 9 * :     X                                                       O   X     O - e q : .         O                                                                                                   O $ % % %       O                         ; : 9 : : ; & ; ; ; - - 4 : 3 .                                                                                                                                     ",
"                                                                          O               X                                       .       X                                                                                         O     . ] { _ ] $     $ ] { | ) .   O                                                 . - : - : . .       O O   .   O       O   .   O     O   . . 3 2 : : .                                                                                                                                                                 X         . z [ ..j.[ [ ' ' [  .] / ' [ C $   X                                                                                     .       .               O                       X .     .                                                         O   . ] [ ( _ a ) ] t.t.c.l ) ] ) c n ] c x ` | ! | u.. X                                             * : 9 :           O                                 O           - e - : .       O           . : : : ;   .               .                                                                                   X   . : : e : .     O           : - : : .                                                           1 * * :     O                                         O                         - e 9 : .     X   O                                                                                 .                 $ M.Z.C.Z..     O             X       X   # ; : : 3 ; ; ; 1 5 2 * : = ;                                                                                                                                       ",
"                                                                  O   O             X   O                                       .   .                                                                                                 O     [ _ _ ] .     $ ] { _ ) .                     X                     X         . : - 4 -                 O                         .   .   : ; 3 ; .                                                                                                                                                                 O         . ] ' ~ _ ( _ ' ( _ / [ ..( ' ] $ .     X O                                                                                               O                                   . .   .                                           O               . ) _ / / % $ $ . . . . . $ $ . . + $ $ % Y E ( n             @                 X         X     . : * e e           O                     .           O           4 - - : .         O         O : : 9 :                                                                                               O   X       O : : - :                   : - : :                                                     O       * * * ; X   O                                                       . O     X   - q e :                         O                                                                             X       $ Z.S.z.C..                               . .   .     .     . . + .   .                                                                                                                                       ",
"                                                                                                                                  .                                                                                                         ] } { ] .     . [ ' _ ) .                                     X               . : - : 1 .         X       . .                             ; ; ; :                                                                                                                                                                             . ] _ _ _ R ) t.) t.) Y | _ [ ] $ .                                                                                   X             O           O   X         X                                                           X     O     O     O X . ) [ [ ] $ . . . . X   X . .     . . . $ ) _ u.l X           X       .               X         . : : - - .     O   O             O                   .           - e q : O     X               : : - ;     X       X                                                                                             . * : : : .             X   : - e :                                                 X   O       : * * *                                                                         e q q -           O             O                                                                   . .               $ V.a.S.n.. X                       X     . . . . .   .         .   . .   O @                                                                                                                                 ",
"                                                                      X       . . O .         O .       .   X   X     .     .     . . X                                                                                               O   . [ | ( ] .     . ` _ _ ] .     O                     .               .           3 - : ; .                                           .     2 ; : ; .                                                                                                                                                                           . ] _ ( Y 7 % $ $ % % 7 Y / [ x $                 .                                                                                       O           O       O                                                                                 . [ ( [ c .                   O         $ ) _ [ k .                                 . .       .   : 9 e :                             O                 O     X   - q q : .         @           : e - :   .                                                                                           .   X         : - - :   .   O           : - : : X                                                       O   * * * *       O                                                     O   O       e q e - O         O                                                                                 .         . .   . $ V.p.a.A..                               X                   O .     O                                                                                                                                       ",
"                                                                          O : 9 - : : ; ; : : : : : : : : : : : : : : : : : : : : * ; ;                                                                                         .     O   . ) { { ] .     X y._ _ u..                                                   . . : 2 3 & . . X   .       .       .   .   .     .     .   . * ; : :                                                                                                                                                                   O         . [ _ { _ / _ ) ) ) _ E ( { ( ] $                                                                                                         O   @         O O             O                                                 X           .     O   . [ ( ( ] .             X         O     $ ) _ ' ] .   . O     . O                 .   O         . : - e -     O                                                   9 e - :           X X       . ; : - :   .                                                                                                       . : : : :   .       O       : - - : X                                                         . : * * :     O X                                                     O           - q e :                                                                                                     ; : 2 2 5 % C.a.s.A.&                   X                         X                                                                                                                                                     ",
"                                                                .         . - q q r 9 * : - - e - - - : : : - : : : - - : : - - : : ; ; .           O                                                                           . O         [ { } ] .       ] _ ( ) .   O           X                         X X         . * : : : ; * : : : ; : 3 : : < : : 1 : ; < : < : : < : & ; : : : : .                                                                                                                                                                       O   . ] ..{ { _ _ ' [ _ ' ( .._ ' l $               X                                                                                   X O                 . O .   O O   O X       O   O                                         O                 + _ ( ..] .                             . ` _ ( ]         .   O . .   O               . O     O   : : - - X         O             O       O           O           - e - ; .                   O : - : ; .       X                                                                                         X       . : : - : .                 - e : :                                                     O       : * * * .                                             O O           O           4 e q -         O O             O                                                                         . : : - 2 ; r i.p.p.V.$                                 O                               O                                                                                                                                 ",
"                                                                          . q 9 7 q * = < : - e - - e - e - - - - - e - - - q 9 - * : ;                                                                                           .   O X   [ | _ / .     . ] / _ u..                   X                                 . ; - : * * - 9 : : : : : : : < : - : : : : : * : : : : 9 : e : 9 : .                                                                                                                                                                   O       . ` [ ' '  ._ '  . . .( _ ..d.f.% .                                                                                                               X             X           O                                         O                     O   . ] { ' ] .             X             O $ `  . .` .   .   . O O O     O         X                 ; ; 9 :                     O         O             O         X - e - ;   .                   ; : * :             X                                                                                 .           O : - : : X                 : : : :                                                 X   O       : * * ;       O                                         .           .   O       - e q : .   O     O                                                                                 .       ; : : - * = 0 0 0 9 .                                                             O                                                                                                                                     ",
"                                                                    X       : q r e = * 1 : - - : : : * : : 4 : : : 3 : - : : : : : : 1 .         O                                                                                     X   ) | { ] $     . ] _ ( ] .   O                                             X     ; : : : 4 - - : : : 4 : : : 4 : : - e : : : : : : : * : : : - : : .                                                                                                                                                                           o c g.] ` ] ] ] ] ` ] ] c ] ] k $         O                                                                           o   .     O     X     X                         X   .       O                                   O                         . ) | { ] .                             . [ {  .] .                     X                     X . & : - : .       O O                                 O     X     4 - 4 : . X       O   .     . : : * :   X                                                                                                         : - : * . O               4 - : ; .                                                           : 9 * *     O                                                       O       X   - q q : X                                                                                                 O ; ; : : 2 * 9 * * % . X                                                                                                                                                                                                 ",
"                                                                    X     . : : * : .     X .       .       O           O     . - : : ; X         O   O                                                                             O       t._ / _ $ $ . $ ) / ! ) .   O               X                     . X           ; * : : - : - : : 5 : 1 * ; ; : * ; : : * * : = * ; * 3 : : ; : : + .                                                                                                                                                                   .       . $ $ . $ . . . . .     . . .     X                                                                                   .     O     O             .   X X                       O                                                             O . [ {  .[ +       .     O O   X O       . ] _  .` .       X           O             .             * * q - .     X   O               O                 .           - e * : .   .   . . O .     . : e - ;     X                                                                                                     . : - : :                   - - - :                                                             < * * ;     O     X                                   O                       X 9 q q :       O O                 O                                                                       . : : : - . . - * 0 9 .                                                         X                                                                                                                                         ",
"                                                                O           : : q : . X     .                   X               : 9 : : .                                                                                           O     . ) ( ( / % $ $ % _ | E ) .                                                         .   O . . O . . . . . . X .   . . .     o .   . .   . . .     .                                                                                                                                                                         . X     o               X X                     . .   .                                                                                         . $ . $ . .     . . . . . . $         O                                     .     O           O     . ) {  .[ .       O .                   . ) { _ _ . X .   O . . .     .   .   .   .   . . .     . * % e :                                             O           - e q = . .   . . . . . . . . : : 9 :   .       X         .                                                                         .     X X     : - : :   .               - e : :                                                     O       ; * * :                                                             .           - e q :                                                                                                     * - 9 : .   : - * : . O           O                 O                                                                                                                                                                   ",
"                                                                O   X       2 e q -                                           . - 9 : : .               O                                                                             +   $ u.R E [ ` f.f.` _ E ( ) +   O                                             X     .     X O     .                                       X     O     O                                                                                                                                                                 X   .                               . . O X                                                                                             O           . $ c c f.] ] [ ] [ y.[ f.] f.C . . .     X                                                       O   . ] (  .]   X       .                   . ) { { [ & & : : : : - 4 : : - : * ; : * : : = ; ; ; ; & e 9 9 - O                                                   X   - e q e = ; ; ; * : : : : : = : q q :                                                                                                           O : : e : .                 : - : : .                                                           * * * *       O                                                     O   O       - q q : .         O                                                                                   X     * * 9 : . . 2 2 4 ;             .                   .                                                                                                                                                                   ",
"                                                                  O       O - - q :     X   +   O       O         O             : 9 : :         O     O                                                                               .   . ] [ _ _ d.[ ] [ / | _ ] .                               X                       .                                                           O                                                                                                                                                                                             .         O   O . .     X         O                                                                             X     X     .   . C ] [ '  . . . .' [ ' ' ] f.$ .     X                                                             o ] ( _ [   X     O   X                   ) { } ..% : : : - - - e 9 9 9 : : : : * 9 : q : : * 9 * 9 9 - :       O   O                   O             O   O     . - - - e * : : - = : - - : e * e 9 : :   .                                                                                           .           . * : : : O       O O       : - e :                                                 X     O     : * * : .                                                           O           4 9 q :       X   O               O                                                                         * 9 9 9   + ; 2 3 :                           X     O                                                                                                                                                                   ",
"                                                                          O : * : :       O                                   . : 9 : ; .                                                                                             . . $ c.] ' '  . .' '  .' ] c.$ .               O                 O   O           X   O                               O                                                                                                                                                                                                                                                                                                                                   O   X             .   . ] [ ( [  . . .' ` [ { ( [ c .               O                           X       O O               . ] _ { ] .     O O O             O       ] { { ..7 : 9 4 : : : : 9 q q q e e q e - e e - e - e 9 9 e - ; .                                                 .     & : : 9 9 * * ; * 9 e q - e q q 9 : :             X                                                                                 O             ; : : : .       O X       4 - - ; X                                   O   O   X             . * * * & .   O O                                                     O           4 e q : . X   O   O                                                                                         1 * 9 : .   2 : e -     . O   O             O     O       .                           X                                                                                                                                 ",
"                                                                    X       : * * *       O                                     : : : :                 X                                                                       X       . $ c c g.] ] ] g.[ [ ] ] C . .       X     O       O                           .                                                                                                                                                                                                                                                                                                                                                                                 X X       O . c _ E / d.[ ] ] c z _ } { ) .                   O   .       X                 X .           O     . ] [  .[ o       O               O     . ] { } _ % * - 4 ; ; : : : 9 - - - : - : - - 9 e - - 4 : e - ; o +                               X     X     O   .   .   o & * : : 9 * ; : : e - 2 - q q : 1 #                                                                                                           . : : : ; . O               : - - :                                 O   X           X           * * : * . O   .                                                     .           - 9 q :                         O                                                                   O       * * : : .   ; : e - O       .                         .                                                                                                                                                                 ",
"                                                                    O O   . * * * *                                             : : - : .                                                                                       X     O .   $ . . . . . .   . . $ $ . .                 O               O                                                                                                                                                                                                                                                                                                                                                                                       O   O           . .   $ ] _ _ _ $ . . . . $ ) E _ ) .                     O O             X             O .       X       . ] ' ..)       O O O                   . ` { { ( $ . . .         . .     .     X O               X   O . .             X                                   O       o     .         .   .     O       X                                                                                                   X   X   . : 9 - *                   : : : *                 O       .             O O O         X O   O * : = *                                               O             O         . : e q :         O               O                                                                   O       ; : - :     * : e -                   .               X       X     X                                                                                                                                                   ",
"                                                                            : : * :     X                                       : : - *                   .                                                                                   O           X       .         X   O   .                 O             X                   O                                                                                                                                                                                                                                                                                                                                                       O   .     .       . . + ] ( { _ $   .     . ) ( ..] $   . . .                                 o                           $ ] ' ( ] .           X     X           . ] _ { ] .         X       O X                   O X                             X             X     .                           O               X         X                                                                                                 .             : - - : .       O         - e : < .                 .       X           X   .       O O O O   : * e :   X                                                         O   X       - e q : O                                                                                             O     : : - : .   ; - e 9       X X                                                                                                                                                                                           ",
"                                                                            * * * :     O                                       : * : :                 .                                                                         O     O O   X           X     .   X                   .                 O         X                         . O                                                                                                                                                                                                                                                                                                                                                     . . o     . . . $ ) { T ) $         $ ) ( { / . .   .   O X     .     .   .     .                 O .             . . ] _ ( [ .     .   .               .   $ ]  .{ ) o     O   X                                                                                 .       O @     X         O O   X                                                                                                                                   . : : : : . .               4 : e :                 . X                 X   . . .     O     O   * * * :     X     X                                                 O           - q q -       X   O                                                                                 O     . : 9 q -   . : : q - O     X             O       O         O                     O   O                                                                                                                                   ",
"                                                                    X       * * * *     O                                     . : : : : .             X                                                                                                     X           X   X         .           .   .                           X                   O   X O                                                                                                                                                                                                                                                                                                                                   O + ; : - 4 ; : : - ; q ] | { _ 9 : < : ; : [ } } [ * : : : : : : : : : : 5 3 ; : ; < ; ; ; +                             . [ _ _ ] .       O .     .   O         . ] _ _ ]     O     X             O   O   X     O       O                                       O                         X . O O   O   X     X     X   . O .                                                                                                 .           . : : - : O                 - : - :                 O       .               $ $ $ . $ . . . . . % 9 9 e                                                 .           O           4 e q 9 X         O             O                                                                     O     : 9 e e .   : : - - .                       O   O O             X             O   O   O                                                                                                                                 ",
"                                                                    O   X   ; * * 1                                             : : : *                 .                                                                       O     O   O X         .     O   X X                 .                                         .                     .                                                                                                                                                                                                                                                                                                                                             . : < : - ; : : 4 4 q ' { { ( w q 9 e : w / { { [ * : : : ; : : : : : - 4 : ; : : * * e : .         O               . . . [ _ [ c .   .   .                     $ ] ( _ ) .     O               O O     O                                                                                   .             X             O                                                                                                     X           O : : - : X     O           : - : : .                                     . c ] ] ] ) / ) ] ] ) [ _ ) c $ . O                                                       .         X - e q :     O     O                                                                                 O     . : * q - .   : * * e                         X                                     O                                                                                                                                     ",
"                                                                    O       : * * : .     O                                     : : - : X                                                                                                   O     O     O . O     X     X                       O                         X . . o . . . . . $ $ . . .                                                                                                                                                                                                                                                                                                                                               : : - : ; ; ; : : e / _ { [ w q q - = e / } { ] : : * = : - : : : - - - 2 : : : - * e : . .         X                 $ ] ' ] ] .   .     .     .   .     .   $ ) _ ( ]             O     O             O   O   O     O O                                   O               O           . . . . . . . .   . . . . . .     O X     O     X                                                                                           X     : - - * .         O       - - 9 :                       X               . f.` [ ( { { { _ [ / | E ( ] $   O O   O                                 O                   O       - q q : .                       O                                                                         O * * - - . . : * : :         . . . . . . O .   . . .   . O . . . . . . . .   . . .   .                                                                                                                                   ",
"                                                                          O * * * :     O                                     . : : : *                   X                                                                                                                       .       X                       O       . M ] ] ] ` ] ] [ ` ] ] c S .                                                                                                                                                                                                                                                                                                                                           . : * - s ; 1 ; : 3 - ] | ( _ - : : : 3 * v./ ( y.% 1 : : * ; : : 9 - - : : : : = r * - : .   O       O             X . . ] _ ' j % . $ . $ . . . . $ . . . . $ % Y _ { ] .         . .                                                                                                 . C C ] ] ] ` [ ` [ [ [ ` ] l m . . .                                                                                                 .       X     - : : : .                 4 e - :                       X             X . f.' _ { | { ( ( _ _ T Q { ) $       O                                                               9 q 9 -       O                                                                                     X   o   i % 9 : .   < & * <     . . t.x [ ] [ ] ] ] [ ` [ ) ) ) ) ] ] _ _ ) ) ) ) ) ) ] ) ] ] c .                                                                                                                               ",
"                                                                    X       : * * * .     X                                     * * : :                                                                                         .                   X     O O       O       .                             X     X         . ] ] ' (  .(  .{ ' [ ] ] C $ . .                                                                                                                                                                                                                                                                                                                                         : : - -   .   .   $ ) ( E ) .     X   . ) ( / ] . . .   . .   o . . + . .   . . * * e - X                             . ) ] [ [ ) c c.] t.c M ] c c c c M ] c l .._ ( ] . .           O   O                                                                 O               O   .     . f.[ ..{ _ / _ _  . .{ {  .[ t..                                                                                                                 . : : - :       O           - : : : .                                     . [  .( _ / ) ] t.] R ..{ ( ] .     O                                         O           O           - e e : .                                                                                           O       * * 9 : . . * * * * . . . $ ] ( { { { | ( _ { { Q { E E _ { ( { { { { ( ..E / _ ( { } ` .                                                                                                                               ",
"                                                                      O   . * : * ;     O                                       : : : * .           X   .                                                                         . .   X                               O         .                             . O     . . ] _ ( { { { { { { _ _ c M . .                                                                                                                                                                                                                                                                                                                                           < e e - .     . . . [ ( _ ) .         . ] _ _ _ . .   .         . . . X       . : 9 : <         O               . O   . c ) T { ) [ _ ( [ ) ) [ ' _ [ ) [ [ [ / ( ( _ ] .         X                                                                                           . .     . ] ' E ! / _ [ E / ( | } { ' ] . .                                                                                                         X     O : : e :   .               : : - :                                       . [ ' _ ) $ . . .   $ l _ _ M .   X                                         O             O     X X O - q q :   X     O O                                                                                     . $ 9 0 8 q $ $ 9 9 9 9 $ . $ $ ' ' } } / _ _ ' _ { | | ! ( _ _ { _ _ _ _ _ E [ _ _ ( Q } [ .                                                                                                                               ",
"                                                                    O       : * * *     O                                       : : : :                                                                                         .     .                           O . O   . .                       .             . O     . [ ( _ _ { { { { { _ [ ] ] . .                                                                                                                                                                                                                                                                                                                                           : 9 s e     X     . ] ( ( l           . ] { { [ .       X                   X   : : - ;           O       X .         . k ] [ { _ _ / _ _ [ [ ( ' ' ( ) [ ( g.[ ) _ ' ] . .                                                 X                                               O .       . ]  .( i.a ) t.u.t.] /  ._ ( c $   .                                                                                                 .             * : : : .                 : - : :                       O               . ] _ _ ) .         . c.[ ) t..                                                           O           - e q -     O                     O                                                                   O $ h ] _ ] ] ] ] ] ] ) ] f.C C ] [ ( ~  ...] l ] ] ] ( ) ) ) ) ] ) ] ` ] ] ] c t.) ) _ ( T _ .                                                                                                                               ",
"                                                                    X       : * * ;     O                                     . : 9 : ;                                                                                                                             O                       O O           X   X . O   X   . [ ( _ _ ( ! { { { ( [ ) ] $ .     O                                                                                                                                                                                                                                                                                                                                   X : 9 q :           . ] ( ( ) .   .     . [ { { ) .                               : : * :   X       O             .   O & x c.] ] l c ) ] n c c ] ] ] c c ] ] j l c f.C c .   .                         O                                                       O           X   .       . [ ' ( R % . .     $ 7 / ' [ c . .                                                                                                           X   . : : : : .       O         - - e : .         X       . .         .         ] ..E ) .   O O + $ ] / [ ] .       X                                                               - e 9 :       O                                                                                     O   $ ] _ _ ( [ ] [ / ] ) / g.] ` ] '  . .` l . .   . . $ . . . . . $ $ . . $ . . . $ % l [ _ ] .                                                                                                                               ",
"                                                                            1 * * :                                             : : : : .                                                                                                   O                                           O           .           . O       . ) .._ _ E ( Q Q Q { _ _ ] $ .                                                                                                                                                                                                                                                                                                                                           9 9 q -         o . ] { ..] .     .   $ [ { ..[ .       X   X           X     . - 9 : :                       .   O     . $ $ . . . $ $ . . . . $ $ . . $ $ $ $ $ . . $ . O O             O                         .                                                         .         [  .[ ) $         . . ] ' [ c $                                                                                                     O   X       O : - : :   O               4 : : :                     .                 . ] { | ) .     O   . v. .' ] $                                               .           . O     X   - q e : .       O               O                                                                   . . % ] _ _ ' ' ' [ _ _ [ [ g.` y.[ ' ^  .' c..                       X       O       $ x [ / ] .                                                                                                                               ",
"                                                                            * * * *       O                                     : : - : .               .                                                                                   O     O                 X                           O               O O         [ _ _ ( ( { { { { { _ ] f.. .   O                                                                                                                                                                                                                                                                                                                                       9 q q -   X       . ` ( ( ) .         . ] / / ) .                 . O         . q q e :           O             O O @   . . .       . .   X   . . . .     . . .       . O   X     X     O             O                 O                                               X         X   . ]  .' ` . .       . $ g.' ' x .                                                                                                                 . * - : * .                 : - - :   X                           .       . ]  .{ ) .         $ ' _ { [ .                                                                     . - e q -                                                                                                 . ] ) _ [ / ] ) ) R ) ] ] ] ) p ..{ { ( c.. .     .   O O           O         .   $ ] ) ( [ .                                                                                                                               ",
"                                                                    O     . : * * : .     O                                     : : - *                                                                                         O       O                                           X     O     O           X       O     . M ] ] ) ) ) _ [ _ ) ] x S . .                                                                                                                                                                                                                                                                                                                                       O . q q q -           $ [ ..{ _ $   .   X   ) _ ) ] . X     O           O         . q 7 q - . X                 . O O         .     X               O           X           O O                     O             O                                   X           O             O         . [ ' ' [ .     X   O $ ] ` d.c.. .                                                                                                   .   X         : - : : .       O     X   - e - 1                               O       . [ { { ) .   X     . / { { [ $ O                                 X         O             O   O       - e e : O         O                                                                                     . n R [ ) 8 % % 7 0 0 7 % $ $ $ _ _  .( ] . .       O O               O   O   O   $ t.[ ( _ .                                                                                                                               ",
"                                                                          X : e 9 *                                             : * : ;                                                                                                                                                                                       . . . . . . . . .   .                                                                                                                                                                                                                                                                         .                                                                     . 9 q - : .         . ` { { ' .         . c.[ [ l       X                   O   . : : * :                                                                                                                                                                                 X     O       . [ } [ c.. .       . $ ] d.] f.$ +                                                                                                               . : : : : .                 - e - : X                   .     O           $ / { { _ .         . ] {  .g..                           .                               O           - q 9 :                                         X                                                       . t._ _ ] 7 $ $ 9 9 9 * .   . . [ { _ ' ] . .         X                           . ] ( ( )                                                                                                                                 ",
"                                                                .           - 9 e :       X O                                 . : * : ; .                                                                                                                                                                                                                                                                                                                                                                                                                                                                                                                                                           - 9 : :           . ) { ..[ % .   . . . ) ( / ] o               X               * * * :                                                                                                                                                                     O   O           O . X     . [ E ( / % . . .   $ % l _ / f.$ . .                                                                                                     X       . : : - :                   - - : ;                     . .               . ] _ { [ $ . $ +   $ [ _ ~ ] .         X           X O X       @             .             O       O - e 9 : O               X                                                   X                         . . M ( / [ 9 . . * * * * .     . ] { { [ ] $ .                           O O O       ] | ( )         .                                                                                                                       ",
"                                                                    X       : e e : .     X O                                   : : : ; .         O                                                                                                                                                                                                                                                                                                                                                                                                                                                                           O                                                                     : : : 1     O .   . ) ( ( ( [ ] ] y.r.R | } | y.$         O       X             * * 9 * .                                                                                                                                                                   O               . O       . v.{ } X.( ] t.c.] ] Y .._ ) M .                                                                                                     .           O : : : :                 O 4 - e :                         X   O     .   . ] ( ( ( ( ` ] [ l ) | }  .] $ . O                               X                       .           - e e -       X .               O                                                                     . . t._ ( [ 7 : * e : - ;       . [ ' _ [ ] $ .               O     . O O O     O   . [  .( ) .                                                                                                                               ",
"                                                                O         . 9 - - :                                             : : : : .                                                                                                                                                                                                                                                                                                                                                                                                                                                         O             O                                                                                   ; * : ;     O     . ]  .[  .{ | | ( _ _ T ^ ~ [ $ .     O                 O     ; * * :                                                                                                                                                                         .     X         O O   . ] E ^ T _ [ [ [ ' _ { { E / t.. X                                                                                                                 : - : : o     O           : : - : .                       @             . ] ' ' ..{ { { _ R E Q ! } ` .   O O X                                   O               O     X     - q e 9                                                                                                 . t._ / [ 9 : * : : : ; .     . ] _ { [ c .       X             . .     O X   O   . ' { } ) .     O                                                                                                                         ",
"                                                                  .       . 4 - - :     X     O                               . * 9 : *                                                                                                                                                                                                                                                                                                                                                                                                                                                                                   O                                                                         : : * ;       .   . ] ] ` ] ( Q E E E _ { X.X.] $   O .                       O * * * :                                                                                                                                                                                     . O O       c.[ ..( _ _ [ [ '  .{ { _ _ M . .                                                                                                               . : - - * .                 - - : ;                 X         X       .   . c ] ] ) ..Q } E [ _ ! ! ..] $ + . + O   O       X                     .     O               O       e e q - .     X   .                                                                                 O . $ ] _ / [ q : * : : < ;       . ] [ _ [ ] . .           O                         . [  .( ) .   O         O                                                                                                                 ",
"                                                                O O       X : - 4 :                                             : 9 : : .         O   O                                                                                                                                                                                                                                                                                                                                                                                                                                                             O                                                                               : e : ;   O O     X x ] C ] ) ) [ ) ) ] / ] ] x $ o       O             O     . : * * *                                                                                                                                                                           .         . O       . x c l j ] ] ] ] ` ` [ ) ] c x $ .                                                                                                   .     X X     : - : ; . .               4 9 : <                     X       O         . x c ] ] ) ) [ ) r.n R R / z $ + . + O     O                           .                 .         O : 9 e -         O .               O                                                                   . . n _ _ [ % ; ; * ; : ;         ] ( _ [ c $ . .         .             X           . ] ( ( _ . .                 .                                                                                                           ",
"                                                                O           : - : :               X               X             : q q : .                                                                                                                                                                                                                                                                                                                                                                                                                                                                             . .                                                                           : 9 9 : .   O X     . $ . .   . . . . . $ . . .       X                   O     : * * *                                                                                                                                                                           X       .       @     . $ . .   . . . . . . $ . . . .                                                                                                                 O : : : ;       O           - : - : .                   .     O O           $ . . . . . . . . . * 9 9 *     O O                                                                 - q e -                                                                                               . . c _ _ ` % .   . . . .       . ] _ _ ) ] $ . .     .                             . ]  ._ ] .       O X       .                                                                                                             ",
"                                                                O         . 3 : : : . . . . . . .       .       .       .     o q 9 - *                       O                                                                                                                                                                                                                                                                                                                                                                                                                                 .   .     . .   .   . . .     X                                                                   . : 9 9 :   O     X     . . X             O       X                         O     : * * :                                                                                                                                                                                     . O       X . .   X                         + O                                                                                                 .           . * - : * . O       X       : - : :                       .           X   X   .   o       O     * * * ,         X     O     X                           .           O O         - e q -     O   O O             O                                                                   O . . ] ' ..` $   . .   .         . ] ( _ _ c $ .                   X                 . ] _ ..] . O           O     X                                                                                                           ",
"                                                                      X .   : : : : * ; ; : : : : * : : : : : ; : : : : : ; : : q e : :   o       X     O     O                                                                                                                                                                                                                                                                                                                                                                                                                                 . $ . . $ . $ . . $ $ $ $ $                                                                     . . : : 9 : .   O               O     O O O   O                                     ; * 9 *                                                                                                                                                                                 .     O X   X     .   .   . O     O         O   . O                                                                                                 O             : : e :                   - e 4 : X                 . .     O .   O                 O O + O . : - * <   X O                                 O   X   O             .           - e e : X       O .                                                               X                   . . l [ ' ] $       X           $ ] / ( _ c $ $                                     . g.` / ] o       X           .                                                                                                           ",
"                                                                  X       . ; : * * : * : : : : - - - : : - : : e : - : - : - : - - ; <                                                                                                                                                                                                                                                                                                                                                                                                                                                         S c C c ] f.c ] M M ] t.C x +                                                                       : * : :       O   X           O   X O   O   O           X                       ; * * :                                                                                                                                                                                                   O       .             X     O O .                                                                                                             . * - : :   .               - - - 1                     X                           O O   +   . q * : :               .                 .                           O         O - e - :                                   X     X                                                       . x ) [ ] . .                 $ [ .._ _ ] $ . .     X       . . .     . . O . . . $ f.[ _ c                                                                                                                                 ",
"                                                                          . : 1 : 1 : ; : : - - - - e - 4 - e - - - e e e - - - - s : < .                                                                                                                                                                                                                                                                                                                                                                                                                                                     . ] [ ] [ [ [ [ ] Y ) _ ..[ C .                                                                       : : : : .           .                                                         . * * * : .                                                                                                                                                                                                                       X                                                                                                               X   X   O : : - : .     O   O       : - e :                                                         . . 9 9 * :     X   X                   X             X                 O           9 e 9 4     X             X O     O                       X       X       X           X                 . l ( [ ] .             X   X $ ` ( .._ ) % % $ $ . $ $ . $ $ $ . . . $ $ . . $ $ % / { _ ) .                         .                                                                                                     ",
"                                                                X           & & ; * : ; : : : * : : : : : : - : - : - : : : 4 : ; : ; ;                 O     O                                                                                                                                                                                                                                                                                                                                                                                                                               . ] _ _ '  . . .{ _ _ E {  .` $                                                                       ; : * *     O O       .                                                   X O   : * * *                                                                                                                                                                                 .                                                                                                                                                   .           . : : e : X O               : - - : .                                         .                 * 9 * :         . . . . . . . . . . . $ . . . +       O                 @       - e 9 :                                                                                     X       O   . l [ ' f..                   . ] { ( ( [ j ] ] ] ] ] ] f.f.] ] l M ) ) ] ) ) ] ) ) { { Q )     . . . .           .                                                                                                         ",
"                                                                  X         o     . .   .   . .         X               .       . .   .   X                                                                                                                                                                                                                                                                                                                                                                                                                                                   . ( { { '  .{ { { R E Q |  .' .                                                                       , * * :                           X               O       . O           O     . : * * *                                                                                                                                                                             O                   O               .                                                                                                                               . : : - -                   : - - ;                                                   X       . * 9 * * .   . = k f.l ] ] ] ] ] c ] ] [ g.h.f.v .       .           .           - q 9 :       X . . .                   .           X       .               X       .           .       $ c ' ' ` $     X               g.[ E _ ( [ [ h.` [ ' ' ' ' ( _ ) ) _ _ _ _ / _ _ [ Q Q ! ) $   $ $ $ $ . X       . .                                                                                                       ",
"                                                                                      . .                                                           .                                                                                                                                                                                                                                                                                                                                                                                                                                         . ] { _ {  .{ { { T E } } { ] .                                                                       ; 1 * :     O       .   O             .         .       .         X             * * * :                                                                                                                                                                     O     O                                             O                                                                                                           .             : : : : .       O         - e : :                                                     X     O * 9 9 : .   . . x [ [ ' ' ' ' { [ _ _ ' ' ' f.f.$ .                 O       X   - q e : . X       O     .   .     .       . . .   .   .   .       . .   .     .   .     .     .       . . l ' ' c .                 X . ] [ E _ / ) [ [ ` ' _ [ [ [ _ _ _ _ _ ( _ _ [ _ ] _ ( ( E ) . . V C f.C .             .                                                                                                     ",
"                                                                    O       X                                               O     O               .   .                                                                                                                                                                                                                                                                                                                                                                                                                                       . ) ( _ _ { { { { ) R E { ( c .                                                                   . . : * 9 *                   O     X                                               ; * * *                                                                                                                                                                           O                   O O     O O           O   O                                                                                                           X           . : e - ;           X       : - - : .                 X                             O   X       * : : * .     $ ] [ _ _ { { { ( _ ( .. . .' ] l $ .                 O           - q 9 =   .         .         O   .   . .     . X   .   .     . .     .   . .   .     . .   . .     .   $ l ' ' ] $                   . ` [ E / [ u.] ] ] l ) l M ] ] ] M x ] ] M c f.C c C ] ] t.m . . f.f.d.f.$     X     .                                                                                                       ",
"                                                                O         O                     O     O       O O                                                                                                                                                                                                                                                                                                                                                                                                                                                                             . ) / ) ] ' ' ' ( u.R _ _ ` C                                                                     O . : : * :                     O O O                   X @                 O       ; * 9 :                                                                                                                                                                               O                     O           O     O     O                                                                                                               X     : : : : . .               4 : 9 :                 .             X X               .   O       : : - :       . ] _ _ ( ) ] ] ) ] ) ) ' _  ._ ] .     O             O         . - 9 q * o & ; < : : ; : ; : * ; ; : ; ; ; ; : ; : ; ; ; : : 1 : ; ; ; : ; ; : ; : : ; ; ; ; ; : : ; # . $ ] ' [ ] .   X               . % / _ _ ) $ $ $ $ . $ $ . . $ . . . $ $ $ . . . . . $ + . .   . f.'  .] . X             O                                                                                                   ",
"                                                                                                                                                                                                    X       . . O                                           O                                                                                                                                                   O     O       X                                                                                                                                                               . M ] c S ] f.c ] c x t.c.c f $                                                                     . * * * *           X                                                     X   O . * * * * .                                                                                                                                                                                                                                                                                                                                           X   . : : - : .     O           : : e :                                                             : 9 q 4   O   . ) ( | R $ . . . O . . $ ] ' ( )                     . O O     . - 9 9 e . ; : : - : : : : : 4 : : - : e : * * : * : * : : * : * : * : : : : : : : : : ; : : * : : - ; . $ [ [ ' ] .                     $ [ [ / ] $ . . O .   .       .     .   .       .             . ] _ { ) .     O           O                                                                                                 ",
"                                                                                                                                                                                                    .                   X   .                                                                                                                                                                                     O   O                                                 O             X   O O O                                                                                                 . . . $ $ $ $ . . $ $ $ . . . .                                                                     * * * :                                                                         : * * ;                                                                                                                                                                                                                                                                                                                                                   : - 9 : X                 4 - - : X                                                     . .   * : e 4         ) ! T ) . O   X     X . ] { Q _ o       X       . O O         . - : : :   < 9 r q : : : : - e : : - : : * : : : : * : * * : * : * : * : : : : 9 : : : : : : * e - * ;   $ [ ' ' ] .       O   O     X   $ ] [ _ c .                                                   . ) ( E ) .   O             O                                                                                                 ",
"                                                                                                                                                                                                          X X       X X   .   .                           O                                                                                                                                                                     .     O X O   O       X   O   O     X . O . O O             O                                                                                                     . .     . . . . .                                                                                 ; : * * .   O             O                                               O     * * * :                                                                                                                                                                                                                                                                                                                                     .           . : : : : .                 - : - :                                                     X       ; * q - O     o ) ! E y.$             . ] { } _ .         X           O         * 9 e : . : e q q % : 1 : - : : : : : : : < : : : : < : : : : : : : : : : : - : : : 4 : : : = e e < 1 . $ ] [ _ M $ .   O   O .     X . $ ] ' [ c $ .     O       X                                   . ] { Q [ .     O                                                                                                             ",
"                                                                                                                                                                                                X     O       X                                                                                                                                                                                                             O       O           O   O       O                     X                                                                                                                                   X                                                                             : * 9 :                                                                         ; * * *                                                                                                                                                                                                                                                                                                                                                 O : : : :         O         : : - <                                                             * : 9 e       . ) { E t.. . X X     X . g._ ( _ .                       X       : : : e . : q e - . .     . O .   . X . .     .   . . . X     .   o .   o . .   + .     . X . = * ; ;   $ ] [ ] t.. .     .           . $ ] _ ] c .                                                   . [ } { ) .   O   .                                                                                                           ",
"                                                                                                                                                                                                  O O   O                                                                                                                                                                                                                               O               X   X       X                       X                                                                                                                           X   X X                                                                     * * * :     O                                                               O . * * 9 *                                                                                                                                                                                                                                                                                                                                                 o ; : : : .         O       e 9 - :                                                     .     . : * - : O     . ) { _ ] . O           . ] [ { [ .                               : : - : o : - q - .       .             .     . .   .   .     .         .     .   X   .   . . : : 4 2   $ z [ g.] $ .   O           X . $ t.) ] x .         O .                                       . [ { { ) .   X O   .     X                                                                                                   ",
"                                                                                                                                                                                                O   O   $ $ . . . . $ . .   . .     O   O                                                                                                                                                                         .     . . . .     X       X     O             .       .     . .     X                                                                                                             O         O   O                                                                               . : 9 * 1 X                                                               O       ; * * :                                                                                                                                                                                                                                                                                                                                         X         * - : : O O               - - : :                                                     O       ; : - -       . ) { _ ( % $ . $ $ . $ % ` ' ' ] . O                 X   X     . : : e * . : - e e   X                                           .                         .   < ; * 2 . % ` ` ' ` % $ . . . . . o   . . $ ` ) ) M .                                                   . ` { ( ) .     O     O                                                                                                       ",
"                                                                                                                                                                                                    O $ x l ] ] [ ) [ [ ] ] ] S .           O                                                                                                                                                                   .   . # ; ; * * ; * : * * : : * : * : * : : * : : : : : : : : : : ; ; : ; .   O                                                                                                     O             O   O O   O                                                                       : * * *     O                                                     X             * * * : .                                                                                                                                                                                                                                                                                                                                   .           . : - : * .       O         4 : - : .                                                   O       ; * : : .     . ] _ { | / ] ] [ ) Y ) / { { T ) . O .                         . - e - -   < * s : .           X   X                 O   O   O           X                   . : : ; & . $ ) [ _ [ / ] ] ] ] [ ] u.] ] z / j.[ ' l $ .     O                                           . ] ] ] M           .                                                                                                         ",
"                                                                                                                                                                                                      . ] ] [ { | { { { _ _ [ ] O     O                                                                                                                                                               X               ; < ; * : * * * 9 * * * * 9 * * * 9 : * * 9 : - e : - - : 9 : - e ; . . O                                                                                                           O O     . O .     O                                                                       * * * *     O         X                                     O                   : * * :                                                                                                                                                                                                                                                                                                                                     O   X         : - : : .                 : - : :                                                       O     1 * : :       . c _ Q Q _ [ _ { { ! | ..Q | ( [ .       .           O   O     . - e e - . : = - : O                   O   O   O   O                                           : < ; 1 . % ) [ E _ _ _ _ [ ' _ { ( ( ' [  . .( ' f.$ .                                                   m ] ] M .                                                                                                                   ",
"                                                                                                                                                                                                      . ] ] / ..Q { } { ( _ ( ]                   X     X                                                                                                                                                       .     : : & : : 9 * * * * * 9 * * * : 9 * * * * : 9 : : - : - - e e * - 4 .   .                                                                                                                                                                                                     < * * *                                                                         : * * *                                                                                                                                                                                                                                                                                                                                                   : - - : X                 : 4 - ;   X                                                 O   O . ; ; * ;     . . c.[ ( E _ ] _ _ { E _ _ ( ( _ t.            X   .       O     . - - - 4 X : : - 3 .                                                                           ; ; : * . $ t.[ _ / _ _ _ _ _  .{ ..( ' [ '  .' g.] . . .                                                 . $ . .                                                                                                                     ",
"                                                                                                                                                                                                    X . x ] ) [ ) _ [ _ ] l ] C o                 +                                                                                                                                                               . X : : : : * : : * < : * : : * : * : * : : * : : : - : * 3 : = 9 * : : . .                                                                                                                                                                                                       * * * :     O                                                               O   : * * *                                                                                                                                                                                                                                                                                                                                         X       . : : : : . .               : - - <                                                             : * < : .     . x c ) ] t.t.c ] _ [ l ] ] t.] m     O   O           O   O   . O - q q -   : e : 2               O                                               X           . 3 : : ; . . k l ] ] t.] t.] ] ] ] ] ] ] g.` ] ` k x $ .                                                   .   .   .                 O                                                                                                 ",
"                                                                                                                                                                                                O   O O $ $ $ . . $ $ $ . . .                                                                                                                                                                     X X               . : : * * .       .     X                 . .         .   . . ; * ; <                                                                                                         X       X                                                                                         * * * : .                                                   X                   : * * :                                                                                                                                                                                                                                                                                                                                     .             : : * : O             X   : e - : .                                                   O     . : : * ;     O . $ $ $ . .   . . $ . . . $ $ $ + O   @       X   X       X       : e e : . : 4 < :                 X                                                       . . : : : ; . . $ $ $ $ . . $ . . . . . .   . . $ + . o                                                                                                                                                                                   ",
"                                                                                                                                                                                                O       .     .           .     .       X   .                                                                                                                                                                     .   : ; : - . .               X   X       O     . X             & : ; 1                                                                                                                                                                                                           : * * * X   O         X                                                 O       * * * * .                                                                                                                                                                                                                                                                                                                                           X   . : - : * .   O             : - : :                                                       O     : : & : .       . . .             X           . O O     X                     . - 9 e : . 1 - - : .       .   .       .                                                       : : : ; O .     . + . .   O                                                                                                       . O                                                                                                 ",
"                                                                                                                                                                                                    X .     . X           . . .   . .   .   .   .             X                                                                                                                                                   .   ; : < * .   O         X               O                 . . : : : ; O                                                                                                                                                                                                       . : * * :                                                                 O       : * * *                                                                                                                                                                                                                                                                                                                                               X . : - - ;                   : - - :                                                     O     . : : * 1 .     X   .                         . . O     X           . O         . = q q e . < : * : .                                                                       . . - : : 2   .       O                 . . .                                                                                                                                                                                             ",
"                                                                                                                                                                                                    ; ; & , ; ; : ; : ; : : ; * < : : : - 3 : : ; ;   .                                                                                                                                                             . 2 ; 4 : .       O   O       O O O       O   . O   O     . . : : : * . .                                                                                                       X                                                                                               * * * *     O                                                                 . * * * : X                                                                                                                                                                                                                                                                                                                                   .             : - : : . .   O   O       - e : :                                                 X   X   O . : - * *       O           X                     .         O     . . .   . . . $ 9 9 - 9 . : q : -                                                                             : : : ;           @ X     X                         O                                                         X                                                                                                                       ",
"                                                                                                                                                                                                  O : : : : : - e : : 1 - 4 : : : : : : : : : 2 * ; . .                                                                                                                                                               : : : : . O                                   O       O . . * : : ;   O                                                                                                                                                                                                       : * * : O                 O                                 O                   : * * *                                                                                                                                                                                                                                                                                                                                                 . : : : : O                 - : : : .                                                   X     . * - * 1       O   @                   X   X             .   . $ $ . $ . . . . $ 9 7 w e . : - - 4 .                         O         O                                   . . : * * 5     X                   O           X   O @                                                                                                                                                                                   ",
"                                                                                                                                                                                                  . - - - - : 4 s : : : 4 - : : : : : : : : : : : ; .   O                                                                                                                                                             2 : : ; .                                                 . ; : : :                                                                                                                       X                                                                                 X * * 9 :                                                                 X     O * 9 9 *                                                                                                                                                                                                                     .   .       .       .   .                                                                                           O       . : : : : . .             . - 9 : :                                                         . . : * * ;       O     O         O . O         O     X   o     $ f S ] c x M c M l [ / ] z $ : - 9 : X         X             O                 O     O                           ; * * ;         @                               O                                                       X     O               X                                                                                                       ",
"                                                                                                        X         O   X                                                                         . . : e - : = : - : 3 ; 2 : ; * 2 ; : ; ; ; 9 : : :           O                                         .         .       X .                           X O                                                           : - 4 :                                             X     X : : : *                                                                                                                                                                                                           9 : * *                             X   X         O   X         O               9 0 8 9                                                                                                                                             X   X         O X                                           o       $ $ $ $ . . . $ . . . $ . $ $ $       O     O . X                                                                           .   O : : : & . . . . . . . . $ - q : ;               X                                             : : : :                         O     X                     . S ] _ / | _ ) _ _ E { _ ] $ * : - :                     O   O         O     X   O                             . * : : :             X                                                                                                                                                                                                                 ",
"                                                                                O                                               O     O O                                                           e e : *   .   .   .   O . . O   .   O . - - : : .                                                             O O X     . $ .   .   . . .                                                                       . - : e : .                                                   : : - : o                                                                                                                                                                                                       . : 9 : : .                                                                       z [ [ x .                                                                             .   X                                                                                                                           o k ) _ ) M x x ) ] ] c c n r.) l .           . O                                                                           .     . ; : : : : * * e : : * * * e e 9 :                                                     O       * : : :       O   O                                         . C ' _ E | ) ) ] R { } { ] $ < : 3 : .                         X                     O             X             * : * ; .                                                                                                                                         O                                                                                   ",
"                                                                                      . X                                                                                                         . : e e : .       .     . . .     . .   . : e : :         O                                     X     .                 . x ] ] ] ] ] ] ] g.S .                                                                   . : 9 - :                                                   . : : - : O                                                                                                                                                                                                         * - : 1                                                                       . ] _ _ ) .                                                                             .                                                                                                                     X         . x | _ ' f.` ' ' ' ' f.] / _ _ t..     O   X   O                                                                               . . ; ; : ; : : : : : : : : * - = : ; .           .                                   O           : : : :     O .                                           . . C ( _ ( p M c.t.` ..( _ [ $ * : : ;                                                                           . ; : : ;     X   X                   X                                                                           X                                   .                                                                                 ",
"                                                                        .               .   .                             X                                                                         : : : : .   .   O             . O       - q : : .                                                             O       . f.g.' ( ( (  . .` ] . X                                                             X   . e - e : O                                                   ; - * : .                                                                                                                                                                                                         : - : :         O   O                                           O         .   . ] ( ( t.$ .                                                                                                                             X                                                                         X   . ) _ {  .` f.[ ' ' ` h.] _ _ [ ] $                                                                                                 ; ; : : : : ; ; ; & ; * : : * : 1                                                           . : : 9 : .   .   O         X                     X         O $ ] ( ' _ 7 $ . . $ _ [ _ ] $ 1 : : 3                             X                             O         O     O ; : : :                                                                                                 X               X       X       .   X .       .                                                                               ",
"                                                                                          X                                                                                                         : : * :                           .   . * - e :                                                                 X     $ g.~ { ( | | } { _ ] .                                                                   . : e e :                                                   . ; : : :                                                                                                                                                                                                         O 4 : : :       O   O     O                                                     . ] { { ] $                                                                                                           O                                                                                           .   O $ ] ..{ ..z C ] c.] g.f.` _ E / [ . o             X                                                                       X     .   ; 2 ; : ; ; : 1 ; 1 ; : : : 5 : 3                                                 O           : q - : .   X .                                           . $ ) _ ..) $ .     . ] (  .[ $ : : : 3 .         O                                                             . . ; - - ;     X       X                                                                                                                                                                                                                 ",
"                                                                                                                                                                                                    - - : ; X   X     O             O     . : e : :         O                                                   X         $ j.j...Q Q { { } [ ] $                                                                     - - : : .                                                   : e : 3 .                                                                                                                                                                                                         : 4 : : .         O                                                         o . ] ( ( ] $                                                                                                                         O   X                                                                               $ ` / ( / % . $ $ $ $ $ 7 / ( ..) .           O                                                                                 . . . X . .   . .   .     . . .   .       X                                                     . - e - -                                                   . $ [ E ( ) $       . ] _ ' [ $ * : : 3     . .       O                                     .   O O   O O           : 2 : ;                                                                                                                                                                                                                               ",
"                                                                  .             X               X                                                                                                   : : : :                       O         ; = - :           O                                 O                   X     $ d.' _ { ( ( ( ( [ c . .                                                                 o 4 q - :                                                     ; - : : .                                                                                                                                                                                                       . - - - :                     O   O                                               ] [ _ ] .                                                                                         X                       O                 O   O                                                                 . . . ] _ [ ) $       X . . % _ _ _ ] .           O                                                                                   .   O .   .           .       . O                                                       .     X : 4 - *   X X         O       O   X   O                   . $ r./ ( ] +       . l _ _ [ $ * : : : . .               O O                   O     O           O       O     . . : : : :   .     X                                                                                                               O       X     X       X                                                                               ",
"                                                                                      X             O   O   O   O   O   O   O   .                                                                 . : : : ; .           X                   * e e :                                               O               O       . C g.] r.) ] ) ) ] M .                                                                     - - e -                                                   . ; e : :                                                                                                                                                                                                           : : : 3 .     .           .           O O   X   O   O   O     X         .     . ` _ ( ) .                                                                                               .                                             O O   X   O   O   O                                       .   O . ] _ _ ] .           . . t.) ( ] .           O .                                                                         X                   .             .   .                                                     O   O       : : - :           X     O               O   O   O           . r.R [ ] .   @   $ t._ _ ] $ * : : ; .     .     X         O                       O                       .   . : : : :                                                                                           .   O   O   O   O   O   O       O               X                                                                                   ",
"                                                                    O       o           X               O                       .                                                                   9 - - :         O                 O     - - : : X     X O                                     O     X         O         $ . . .     . . . .         .                                                           o : - e * .                                                 . ; : : - .                                                                                                                                                                                                         : 4 : :                                                       O         .     $ ] _ _ ] .                                                                                         X   o                     O                                               .     .     X         X               .   . ] { _ ] .             . l _ _ c             .                                                                                                         O     X             X                                                     : - e =                                             O       . M ) ) ] $   O . $ j _ [ l $ * ; < ;       .           .   .             X                     .                 ; : : & X .                         X                                                 X       X O .           O                                         X                                                                             ",
"                                                                            .     O .   . . .   .       .         O     .     .     . . .       O                                                 . - e - :                                 : : : :                                             O   X           O   .       .                           O X                                                         . : q - ;                                                     ; : : :                                                                                                                                                                                                       X   : - * * .   . .       .   .     .   .       .   X     .       . .   . . . .   + ) ( ( ) .                                                                                               .   . .   O   .     .       .   .       .     .       .     .       . . . X                                   . ] { { [ .     .       . l ) _ c .             O .                                                                                                         O                                                                   . : e - % .   . .   O O   .       .     . .       .   O O   . $ M ) _ [ 7 $ $ . % / ( / ) $ < * * * . X   .           .   .   $ . . . . . . . . .               .   O .   .   . ; * * ;                                                                                     O .     . .         . .     X .   .         . .     . X   . .                                                                             ",
"                                                                        .   ; & : : 2 - * - 4 - : : ; * * : : ; * * : ; * : : : ; ; ; ; ;                                                         . 4 e 9 : .     .   O                     : - * :                                                             .   .     X     O .         . . O     O                                                               e q e : .                                                 . : e : : .                                                                                                                                                                                                         - e 9 s * ; * : : : ; ; : : * ; ; : : : * 1 * ; * : : : : ; : : - : 3 : - : : * [ { { ) . .                                                                                     X     & ; ; : : : : : : - : * : : : : : : : : ; : ; : : * ; : : 1 * : : * : ; ; ; ; .                       X         . ] { { [ $         .     t._ _ ] .                                                                                                                                           X                                           X       : - s s 4 : - - - - * ; * : : ; * : * ; : : : ; * : s : : = 9 R Y E ( / [ f.] _ | T ( [ $ * * - e : : : * * : : : : ; * * 9 c ] ] [ ] ] c 9 9 1 : : ; : : : : : * : * ; * * : 9 9 : ;         X                                                             X             . ; ; ; ; : ; * ; * ; * : ; ; * : * : * : e e - 4 e - - : & ;                                                                             ",
"                                                                X           : : - q e e q q s q * * * * * * * * * * * * * * * * * ; ; ; ;                                                           - e : :   .                   O       X : - : : .         O                                 O                 . O           . O O             O O   .                                                           . - : : :                                                     ; e : : .   X                                                                                                                                                                                                   . q q q 9 : : : - 2 - : : : * * * * * * * * * * * * * * * * * : : - 4 - : - : : 9 [ ( { ) .                                                                                 X         . : 5 : : : e 9 : : - * - - - : q : : : : * * * * * * * * * * * * * * : : : : ; . O       X                       . ] { { [ .   .         . ) ( ..]                 X                                                                                                     O   O                                                                     : - q - : : e q q - * * * * * * * * * * * * * * * * : 9 q 9 0 ) R ! }  .[ ' / ! ! Q / [ $ * 9 q e e : - - : 9 : : : * * 9 9 ] [ ' '  .( ] 8 9 * * ; : - : - e : - - - : : : 9 : * : *                                                                                     . ; < : : * * * * * * * * * * * * : * * * q s q q e e q : : :   .       X                                                                 ",
"                                                                O         . * : : 9 - e q q - 9 : * * * : * * * : * 9 * * * * * * : * ; :   .   O     O                                             - - : :                 O   O           : - - :                                                             . O             O   O                 O                                                             . - - : :                                               X   . ; : : : .                                                                                                                                                                                                       . : e q q e : - - e - : : * : : * 9 * * * : : * * : * * * * * : : 4 : : : - : : * [ { | ] $                                                                                         .   ; * * 9 : 9 - 9 - e : e - q 9 q - e : : 9 * * * * 9 * * * * * 9 * * : * : ; *     .     O                       . [ | { )               . _ ( { ] .                                                                                                                           X                                                         X       X : - - - 3 : - s e 9 : * 9 * * * 9 * * * 9 * * * 9 * * 9 9 9 0 j _ E Y / ' ] _ _ E E [ f.$ : - - - q : : q e : : 4 - ; * * 7 ] [ ' '  .' [ 8 9 * * ; : - - e e s q 9 - * : : - 4 e : ; .           X                                                               O       . * : : * * * 9 * * * * * 9 * * * * : 9 9 - 4 - - - e - : : ; .                                                                           ",
"                                                                        . . = * e e - - - - 2 : * : : : * * * * * : * * : * : : * e * : 3 .                                                         3 - : :                     O     .   . : 9 : : X         O                                                   O     X         X                                                                                 . : - e * .                                                   : : : :                                                                                                                                                                                                         . = e e - - : : : 4 e : : : * 9 : * : * * : * * * * : : * * : * ; < : 2 : : : : * [  ...) .                                                                                       X   . : - : s : - : : e 4 : - : - : - : - : : : * * * : * : : * : : : : * - : e 4 3 .                       O         . ) Q | ) o             . ] { { [ .                                                                                                                                                                                               ; = : : 1 ; : - - e * : : : * * : : : : : : * : : : & * - e e z r.) u.) ] c ] ] ) t.c c $ 1 : : 4 s : : 9 - 3 : : - ; ; : 9 c ] [ [ g.] ] 9 * * ; 1 : : - 3 - - - : : : ; : * * : : &   .                                                                                 . 4 : s : : : * : : ; : * : : : : : : : : : ; : - - 9 e s = * . . O                                                                       ",
"                                                                      O . . : : * $ . . O                 .   O     O   .     X . = * : :   O                                                     . : - : 1                                 : - - : O                                             O             .   X X     X .           . .                                                                       o - e - :                                                     : : : :                                                                                                                                                                                                       X   O . .           .       .       .         .   O       .             .   .   . . ) ( _ ) .                                                                               O           . : : : & . O . .   . . O   .   . .     .     O     O   .   X         o * * : * . .                                 _ { { [                 [ {  .` .   .   . . O                                                                                                                                                                         .         + .   .                       O       X       O         X . . $ . $ . . . . . . . . $ .     .           . .         . .   . . .   o . . .     .       .   .   . .     X     .       o                                                                                 .   . : : : -     O   .           .                 .   $ $ * : : .   O     O                                                                 ",
"                                                                        .   ; * : * .         X         O                       o : 4 : : .     O     O                                         X   : - : : O         O             O     . : q - :         O                                               . .         X     .         .   X       X                                                     X           : - e : O                                                   < e - : .                                                                                       .   .     .       .   .                                                                                               .     X                           O             O                   .     . ) E ( l .                                                                                           . ; : : ;                                                               4 - - :     .                   O         o ] { { ) .       X     . ] { { [ .                                                                                                                                                                                           X       X         X         O                                   O                   O   .         O                         O                   X                                           X                                                                           O     . : : 9 - .                       O                 . ; - : * . .                                                                         ",
"                                                                    O     . : : * ;       X                                       : e : -                                                           4 q q : X         O     O   . X       . - q q : X                                           @   O                 X       O                                                                                       : - e :                       O     O       X               : : : : X                                                                         + X   X $ $ . $ . . . . $ $ . . . $ $ $ X       O   .                                                                                           O             O O     X O O             X                   O . [ E E _ .                                                                                           . : : ; 1         X                                                   . * : : :                             O     . [ ( { [ . O . O       . _ ..{ ]   O O O                                                                                                                                                                                                                                                                                                                                                 O   X                       O                                                                   .     @           . - q 9 :   O   O       O         O   O               : : : :         O                                                                   ",
"                                                                      O     * * * :     O                                         1 : e : .                                                         - - q q             .       O         O - - q : .   X                                               X                     X                                                                                     . 3 - e : .   O         O   O                                 ; e : : .                                                                     O O       X x ] ] c ] M M M ] ] c t.] g.f.c .               X                                                                   O         .     X       O                         O         O   O           O     $ ) ! } [ .                                                                                             * * * ;     .                                                         : : : *             X                 O   . ] ( _ ] .   O +       . ] ( ( ) .   O O           O                                                                                                                                                                                                                                                                                                                                                                                     X                                                 O               X : q 9 :                 X                   X     . e - : : X                                                                           ",
"                                                                            : * * *                                               : 9 : : .                                                     X   - q q - .   X       O .                 * : : :           .                                   O     .     O O O O     .                                                                               .         . : - - *       .                   O                       . ; : : : .                                                                       O       . l g.[ ( _ _ ] ) _ _ / _ ( ' ' C .           .                                                                       .                     O   .       X   X                       O O     X     O     . ) E ( ) +                                                                                   O       . ; : ; ; .   X       X                                                 : : q : .                         . O       u._ ( l .             . ) Q E / .     O         .                                                                                                                                                                                                                                                                                                                                     O                       O                                 .                                                           : : * ;   X                                         - 4 e :         X                                                                   ",
"                                                                X           * * * : .   O                                         : - - 4 X                                                       . 3 - q e .           .   X       X X     : e q :     X                                         .   X . O O O O       . O                                                                                           - : e : .                                         O   .   O ; : * :                                                                                 . z '  ._ _ _ [ _ _ ..( | ( ' [ ` .           .                                                                           X     .       O       . . .             .   . .   o X                     O   . n ) _ ] .                                                                     O                     . : : : ;   .                                                           * : : *                 .     X       O   . ] E _ a .         o . $ _ ..| ) .   O O     O                                                                                                                                                                                                                                                                                                                                             O             X   O                   X           .                                                               ; ; : 1                                     .       - - 4 -                                                                             ",
"                                                                    O O   O * * * ;       X   X                                   : : : :                                                           1 : - 2 .   X     X                     * : : *           X                                 O       .       O             X                                                                                     X - - - :                                         O       . . ; : ; :                                                                               . $ ] ..{ { { E R _ ( Q ! E ( _ / x .           . O                                                                                   X         $ $ $ . $ . . . . . $ $ $ . .         .             O   . . n l l c .                                                                   X                 O   .   ; 1 * ;   .                                                         . : : : :                                   $ ] ( | R % . . $ . . . % p J E ) .     .           O                                                                                                                                                                                                                                                                                                                                                   . .       .     O                     .   X                                         X       .     .   : ; : ;                         O           O     . : q - : .   O                                                                       ",
"                                                                            : * * :     O                                         ; e : : .                                                         , : - e .         . . O     .     X   . = - - : .                                               X . . . . .   . . . .     @                                                                                       : - e : O                                       O .         ; : : : .                                                                       X       $ ` _ { { { { E E E Q E E ( ..] c .     X                                                                                                   . x f.C c ] ] ] f.c ] ] ] ] m $ .         O     X       O O   m M M M .                                                                                           . : * ; :                     .                                         : : : ; .                                 . ) { ! | l x f.f.] y.c c i.o.( ) .                                                                                                                                                                                                                                                                                                                                                     O         .         O   O O                                                                               .   .       : : * 1   O       X           O                     - s q * .     .   O                                                                 ",
"                                                                            * * * * O     O                                     O ; - 9 : o                                                       . : : q e $ ; : : : 9 - : ; ; : - : * * = s q e :       X                                       . M ) ] [ _ ` [ ) ) l $ $                                                                                         . : - 9 :                                           O     . . : : : : o                                                                       O     . . ] ' _ { { { ..( { { | { { _ ` ] $           O                                                                       X O             X     . f.] ] [  . .' [ [ [ ' ' [ x $           .           O     . . . . .   O                                                                                 O       . : * : :     X       X                                                 : : - :             X   .                 . ] { { { _ ] [ ' _ / ] z _ { / ) . X           X                                                                                                                                                                                                                                                                                                                                                       .             O     O O   O           X                                                             . : : : :                                 @         . : - 4 - .                                                                           ",
"                                                                    X       : * * *                                               : : : -                                                           : - q s - s : - - q e - : : q q : : e q e - - - .                                           O . ] ( | ( | | { | { _ $ . O                                                                           X           O : : e : . .                                 O               : : : -                                                                                   C g.] ] ] ) ] ) ] [ [ / ] [ ] c..         X                                                                                           O . . f.` ' [ { '  .' [ [ ' { _ ] $   O X       X       X   O .   . . . .                                                                                               ; ; * ;   .                                                           : 9 - * .                           O     . ] ' { _ ' ] ` '  .[ ] ] _ { _ f..                 @                                                                                                                                                                                                                                                                                                                                             .                                                                                     X       X             3 - - :                                     O       * - - :     . .                                                                     ",
"                                                                            : * * *     O                                       X : - - : .                   X                                   . & - - - - - e - - e e - : - q q 9 - : - e - e = .                                             . [ ( ( E E { ! ! Q [ $ O                                                                                         X : - - *           .   O   O       .                   X   O ; * - : . O                                                                           X   .   . o   . .   . . . . . . $ .               X                                                                                           . ] ' _ _ ) ] g.f.c j ../ _ ] .   O       .             O   .       O                                                                     O                         : * : :   .                                                         . : * : * .               .         X O     = v ] ] ] M M C ] ] ] C c ] ] ] v X                                                                                                                                                                                                                                                                                                                                                             . .         X     X             X                                                           O     X         . : q e - .                 X                         : - : :       .                                                                     ",
"                                                                X   O       : * 9 <       O                                       ; : - : O                                                       o & ; : : : : : : : : : : ; * : : : : : : 4 : ; $                                             X . ] { | | / ) Q Q E ] .                                                                                           . * - s : .       O             O             X             . ; : - -                                                                       O     X                               O   .                                                                                                           . [  ._ _ $ . $ $ . $ ) _ [ ] $     O       O       X                                                                                                       X     X : : * ; .       X                                                     : : : :                           @   O     . $ $ $ . . . . $ $ . $ % $ % $               O   O                                                                                                                                                                                                                                                                                                                                                             X         X       @ O                                                 O .         O X       - 9 9 :                                 O           ; e - 3 X                                                                           ",
"                                                                            : * * *                                               : : - :                                                                 . O         .       .     .     o   . . o                                             X   ) { ( ` $ % _ { _ ]                                                                                               ; - s :     O     O   O     X O         @ X     X           1 : : - . .                                                                   O       X                 O O O         . .       .                                                                                                   . [  .{ _ $ . .     $ ) _ ( c .   O                       O                                                                                 O                     . : 1 * ;             X                                                 : : : :                 .           O @ X   . . $ .       X .   . . . . . X   +         O .                                                                                                                                                                                                                                                                                                                                             .         X   X           X                       X                                     . . . O O               : : e :       O   O O     O   O   O O             . = = : 2                                                                             ",
"                                                                      O     : * * :     X                                         ; e - : o                                                         X           .           X                                                                       ) | _ ] . . ' _ [ M                                                                                 X           . : - e :                           O                   .   . : s - : .                                                                       .                 O . O   O       O   O +   O O                                                                                                     . `  .{ ) .         . R / _ ]       O                                                                                                                           .   : * ; :   X                                                         . : : - ; .                                   .     .                                 O . .                                                                                                                                                                                                                                                                                                                                               .                     o         X     O         .   . .                                   O O .   X   X X       ; : : :     O     O               O           . X   : 9 - :           X                                                                 ",
"                                                                          O : * * :     O                                         : : - :                                                                 X       .                                                                             X . ] { _ ] . . ] _ ] c .                                                                                           X : - - *       X   X                             .         . ; 4 : :                                                                       .     .               O       O   X X                                                                                                 .     O         . ]  .{ ) .     O   + ] ..( ] .   O O       X                                                                                                             O     . . : * : 1     X                                                         * : : :                   X     .           O   O             .             X           .                                                                                                                                                                                                                                                                                                                                                           X     . . . . .     X       O     O     .                                                           * * * ; . O   O       X O   O X     X   .   .     . : - - :         O                                                                   ",
"                                                                X   O       * * * *     O                                         1 : e : .                                                       X                 O       O       X X     X   X                                                   [ { _ ` $ $ [ ( _ ] . O                                                                                         . - 4 - * . .                 O X       X O   . . . . . .   . * - - 4 .                                                                         .         X     .       O X                       X                                                                                               . ] { | ) .     O   . ) T E ] .                                 X                                                                           O                       ; : 1 :   .       X         .                                         : : : :                             X X       O                     X   O   X     .   . . X                                                                                                                                                                                                                                                                                                                                       X O   O   O           o   $ $ $ . . $ .                                                       X   X   O   . . . . $ $ 9 9 9 9 $ . . . . . . . . . . . . . . . . . . . .   * - e : .       O                                                                   ",
"                                                                          . * * * 1       O                                       : e - : .                                                     .             O   O                                                                               . _ Q { ..) ) E Q ( [ .                                                                                             : - : : ; - : - - - - e : - - - - 9 : - - - : : : * : ; ; = : : : :     O                                                                     X               O             O     O     X X                                                                                   .                   ]  .( ) .     O X . ) ! ! ) .   X             .   .                                                                                       O                     . : : * ;                                                             . : : : :             X   .                       O                     O O   O                                                                                                                                                                                                                                                                                                                                                           O       X       . . C c f.c.c x $ . O         X                                         @     . . . M ] ] ] ) / _ ( ( / ) ] _ ] [ ) ] ) ] l ) ) ` u.l r * ; * & ; & e e - -                                                                             ",
"                                                                    X       : : : : .                                             : < - :                                                                                 O                                                                       . [ Q { _ / _ ! E ! [ $                                                                                           . : : : : : e e q e e e q e e e e q q e e - : : e : - : 3 : * : * : <     X                                                                 X                     .           . .                     .                                                                                   X       . ] _ E r.    O O   . ) ( ! ) .                               O                                                                                           O         - : : : . .                                                           * : 9 : .                       .         O         O       O     O     O O                 X                                                                                                                                                                                                                                                                                                                                                           . + f.] ` g.] c . .       O                                                   . . $ f.[ ' _ [ / X.{ { { { _ _ { ( | ( ( _ ( _ ( Q | / 8 * * : : < : e - - : .         O                                                                 ",
"                                                                            : - : * X                                         O . : : & :   .                                                                                                                                                     . c.] _ (  .} { {  .f.. .   O                                                                                   X . ; : : : : e e q e q e e e q e e q e e q e : : - : - : - : : - : : * . .                                                                                                                                                         X     X                                         .               . l [ ( )       O O . ) ( E r.                                                                                                                                    X : : : : .           X                                       X         : : - : .               .                                                                                                                                                                                                                                                                                                                                                                                                         O               O       . ] _ ( _ ' ]                                                                 . $ [ { } { ' ' _ {  .{ _ [ ' }  ._ ' [ ` ( ..E ! Q / 7 * * ; * : : ; : 4 ; .   O                                                                       ",
"                                                                    X X   X : - q :     X   O O     O   X   O   O   X   O       . : < ; :                 X                                                                                                                                       . A M c.] ' / [ [ ` c . .                                                                       O O           .     = ; ; ; : - : - : - - - 9 - - - - - 9 - - : : : : 3 : - : : ; : ; = .   X                                                                                                                                       X                     .   O   O X   .                           .         .     $ z ..( ) .   O   . $ ) E _ r..   O                                                                                                                               . : : - ;     .                                                       . : : - :                                                                                                                                                                                                                                                                                                                                                                                                                                       X O O       . [ { { (  .] .                 .                                               . ) Q Q ..] M t.[ ' ` ] ] [ ] [ ] [ ] g.] Y _ Q ..t.r : * : ; ; * ; ; & + .                                                                           ",
"                                                                            - - e = .                                           O : : ; <                                                                                                                                                           . .   . . $ o . . .       X                                                                                     X . . . .   .       O         X O   X   .   O     .   . .   . O   .                                                                                                                                                           X X       . .   .   . . . . .   . .   X   .   .   $ .     o . . .   % ' { } ) .   o .   $ ) _ E l .                                                                                                                         X       .   * : : :                         X                                     : : - :                                                                                                                                                                                                                                                                                                                                                                                                                           O               .         _ { Q { { ] .       O         .                                       O       . ] _ E ) . . . . . . .   $ $ . . $ . . . % R E _ x $ . .   . . . .   . .           X                                                                 ",
"                                                                  .       . : q e q .       . .                                 . : : ; ;   .                                                                                                                                                   .                 X         O                                                                     O                         .         X     X                   X   .       .               X                                                                                                                                                 X             # * : : : : 3 - : : : ; : : * : * ; ; : q - * ; ; * - : * 9 [ { { _ 9 * - - $ % Y E _ r..   O O                                                                                                     O                         : : : ; . .     X                       X                             : : - * .                 .                                                                                                                                                                                                                                                                                                                                                                                                                     O O       o ] _ { {  .[ . X                                                       O         t.) _ t.      X                         . r._ y.M .   .   .   .   .                                                                                 ",
"                                                                            : q q q . .   O . . .   X .   .   . .   . X .   . . . ; * ; :                                                                                                                                                         O O X X   X       X   X     O                                                                                           .               X                       X               X           X                                                                                                                                                           o ; < : - - : * : : : : < : : : : : : - e q e : : : - - e e 9 ' { Q | _ ` ` g.] ` ..! E r..   O O                                                                                                                           . . * : : ;             X                                               . : 9 : : .           X   .                                                                                                                                                                                                                                                                                                                                                                                                                   X   . O       . ] _ { {  .] .       O                                               O         . c _ / t..     X     X X             . . $ ) / / ] $ .       X             X       X                                                                 ",
"                                                                .         . 9 q e s * ; : ; : : : : : : : : : 3 : : : : : : : : * : : ; ;   .                                                                                                                                                   . .               X           X                                                                             X                     O             X     O       O         X                                                                                                                                                                                   ; 4 - : : - 4 : : : : : : : : : : : : e q e * ; : : * : : 9 ] _ ( ( / { ' ' [ _ { T _ ] .   O O                                                                                                                               ; : : : . .                                                           : 9 - *                                                                                                                                                                                                                                                                                                                                                                                                                         X                 O O     . ] [ _ '  .` .   .                                                               ] [ _ t.                X         X O . $ t._ _ f.$                                                                                                 ",
"                                                                    X     O : - - - = ; < ; : - e : e e - - e e - - - e : - - : : 5 : : ;   .                                                                                                                                                             . O                                                                                                   X     X                 O   O       O   O O                             X O   O                                                                                                                                               . .         . = - : : ; * : : : ; : : : : < < : ; 1 3 e : : ; 3 : - : * * ] ] ) _ { }  . .' ] | _ _ c . .   O                                                                                                                             . * : : ; O     .                                                     X - : - : .                                                                                                                                                                                                                                                                                                                                                                                                                                       .           c ] ' _ [ f..       O                                                         . [ { _ ' . . . . O O O     O           . . c _ [ ] $ .                                                                                               ",
"                                                                            : : * s * ; ; : : - - - - - - - - : - - - - e e - : : ; ; : 3   .                                                                                                                                                           O   O   O O O O                                                                         O                             O     O   O       O                             .   .                                                                                                                                                                       . * - : ; . .   .       . O   .   .   .     .     . X .     . x c M ) _ _ ' [ ] ] ) ) ] S                                                                                                               O                   . X ; : : ;   .                                                           : e - : X                                                                                                                                                                                                                                                                                                                                                                                                                                           O     . c ] ] ] ] f..   .                                                             . ] { } ] . .   .           O   X     O   . l [ ] c .             X   X                                                                               ",
"                                                                  X       O = : * : ; ; ; ; : : : : ; : ; : ; : 3 ; : : ; : : ; : : ; : ; X                                                                                                                                                                 O   O O                                                                                                                                                           O   O       .                                                                                                                                                     .         . : : : ;   . O       X     . .                             X . . $ . 9 9 9 9 $ . . $ . .                                                                                                               O             X     . . : : ; :                                                               * - - :                       X                                                                                                                                                                                                                                                                                                                                                                                                 O         .               = x c.x x c c                                                               .   . [ { { [ .   O           O           O   . M ) ) c .         X                                                                                       ",
"                                                                    X         . . .   . .   . .                         X   O     .   . .                                                                                                                                                                     O                                                                                                                                                     O     O       O   O                                                                                                                                         .             X           X : 4 : ; .                                                     . . . * * * * O     .                                                                                                                                           ; : : 1 .         X                                                   : : - :   X .     X                                                                                                                                                                                                                                                                                                                                                                                                                               O   .     . . $ . . =     O       .         O                                           $ ) | ( ] .               .         X     . M ) ) c .   O                                                                                             ",
"                                                                      X               X     .                                   .     X       O                                                                                                                                                   X         X             . . O                                                                   .   .                                                             O               X         O                                                                                                                                                           . : - : :           O O   .   O                                 .   . : ; ; &                                                                                                                                                 . : : : = . . . .   .   . . . .   . .   .   .   o   . O .     . o .   . : : : *                                                                                                                                                                                                                                                                                                                                                                                                                                 O             o     . . .   .                                                                     $ [ E ( ) o       X         O           . . n E _ ] $ .                                                                                               ",
"                                                                                .         .     X   X   X   X   X                 .                                                                                                                                                                                                                                                                                                                                       O               O                                                                                                                                                     .           : : : : . .               O           O                   O         ; : ; ;                                                                                                                           O                   .   : : : e - - 9 = : : : 9 - - 4 - : : : ; : : : & * : * : : : * = ; * : : e : :                 X                                                                                                                                                                                                                                                                                                                                                                                                             X                     . .   . .   @     O             O                                             . ] ( ( ) .               .               $ ] E _ ` $ .                                                                                               ",
"                                                                                                                  X                                                                                                                                                                                                                                                                                                                                                                                                                                                                                                             .                           : - - : .           O   . O             O               O         . - e - :                                                                                                                                         X         ; * : e q q - : : e e e e e e s e : 4 e : e s e s - : - e e - - e : s * : : :       .                                                                                                                                                                                                                                                                                                                                                                                                                           O         X                 .     O         .       X                                           . ] _ | ) .           X   O             . . ) _ _ ] $                 X                                                                               ",
"                                                                                X                                                           X                                                                                                                                                                                                                                                                                               O         .                                                                                                                                                                                 X                 . : - : : .       X         O         O                 O   O O       : q : : .         X                                                                                                                 X                   . ; : : - e - - * : - : - - e - - : : : - - : - - : : - : : : : 9 : - : * : : ;                 .                                                                                                                                                                                                                                                                                                                                                                                                             O   O         X         O X   .   @             .                                         O         . ] _ ( u.$   .                           $ t._ _ l $ .                                                                                               ",
"                                                                              X       X                                         X                                                                                                                                                                                   O       O                                                                           X           O     O O       O     O                 O                                                                                                                                                                     X                       . : : : : X   X                                           O           : 9 : * .       O     O                                                                                                                                   * * * : < < : : < : : : 3 : : < : : 1 : 1 1 : : 1 : < < : : < : < : : : * : *                                                                                                                                                                                                                                                                                                                                                                                                                                   O     X                         O         .                                             O       . ] _ _ ) .                           O . . ) ) ) c . .                                                                                               ",
"                                                                  . X                                                                   X                                                                                                                                                                                                                                                                                                       O                 . .       O                                                                                                                                                                         X     : : : : .         X             X                                   : * * * .     O   O   O                                                                                                                         X         . .   . .       X           .       O .     .   O   .                 . X   o                 .                                                                                                                                                                                                                                                                                                                                                                                                               .       X         X   X     . O                   X                                     O           ] _ ) t..               O               . c ) _ c $                                                                                                 ",
"                                                                                                                                                                                                                                                                                                                                                                                                                                                                                                                                                                                                                                                          . : : : & .                                             O             : 9 : : .     O                                                                                                                                                 .             X                                                                                                                                                                                                                                                                                                                                                                                                                                                                                                                                                                                     X     . l [ [ g.      X     O                   $ M ] ] c .                 .           X                                                                   ",
"                                                                                                                                                                                                                                                                                                                                                                                                                                                                                                                                                                                                                                          .       X       . : : ; = . . .   o   .       .   X       X                     .     * * : ; . .                                                                                                                                                     .                     O     .                                                                                                                                                                                                                                                                                                                                                                                                                                                                                                                                                                           X . ) ( _ ` . .   . . $ $ . . . . . . . . . % ) / [ ] $                                                                                                 ",
"                                                                                                                                                                                                                                                                                                                                                                                                                                                                                                                                                                                                                                X               X       . . = - e - : - : : : : : : 3 : : * - : - : : * : : : : : * : : : : : : 4 e 4 : .                                                                                                                                                             X O   . O . .   O X                                                                                                                                                                                                                                                                                                                                                                                                                                                                                                                                                                         O       . v. .} ..) r.] [ [ ] ] ] ] ] ] ' [ [ [ [ ~ ..' _ ] . .     X                   X                                                                     ",
"                                                                                                                                                                                                                                                                                                                                                                                                                                                                                                                                                                                                                                          .   O             * : - e q - q - - : - - - - - - : : 9 * 9 * * 9 * * 9 * 9 * * * * * * : : * .         O                                                                                                                                                     O   $ $ $ + .                                                                                                                                                                                                                                                                                                                                                                                                                                                                                                                                                                               O   . . [ ( { Q E _ E ( { { { ' ' '  . .{ {  . .' ^ ' ' ] $ .   .   X                                                                                       ",
"                                                                                                                                                                                                                                                                                                                                                                                                                                                                                                                                                                                                                                                          X ; : - - s - - - : : : : : : - - : : : * * * * * * * * * * * * * * * : : 1 2 .         O                                                                                                                                                     . $ c ] ] c + .                                                                                                                                                                                                                                                                                                                                                                                                                                                                                                                                                                           O   . . $ g.[ X.( _ _ E E ! ( _ ) _ _ { {  ._ ` ( ' ' d.[ c $ . .                                                                                             ",
"                                                                                                                                                                                                                                                                                                                                                                                                                                                                                                                                                                                                                                        . O         X       ; & : : : : : * : : : : ; : : * : : : : ; : : : : * : : * ; * : * : ; ; ; ; .                                                                                                                                                       X         . ] [ ( ] .         O                                                                                                                                                                                                                                                                                                                                                                                                                                                                                                                                                                 X   O     . c f.` / ] ) ) [ _ ) ) ) ] ) ) ] ] ` ] t.] ] g.l k &             X               .                                                                   ",
"                                                                                                                                                                                                                                                                                                                                                                                                                                                                                                                                                                                                                                                            . .   .       . .     . X   .     . .     X .       .     X .         .   .   X   X                                                                                                                                                       X   $ ] _ _ ) $   X                                                                                                                                                                                                                                                                                                                                                                                                                                                                                                                                                                           O X     . . . $ . . . . .   . . . . . . . . o   . . $ . X                                                                                                   ",
"                                                                                                                                                                                                                                                                                                                                                                                                                                                                                                                                                                                                                                                X       .   o                                                           O       .     +                                                                                                                                                                   . ' { | y..                                                                                                                                                                                                                                                                                                                                                                                                                                                                                                                                                                             X                                                   . .           X                                                                                           ",
"                                                                                                                                                                                                                                                                                                                                                                                                                                                                                                                                                                                                                                                X                                                       O   O   O     O     O                                                                                                                                                                   O O       o ) { { [ .         O                                                                                                                                                                                                                                                                                                                                                                                                                                                                                                                                                                                 O   O   O   O     X             X X     .               .                                                                                       ",
"                                                                                                                                                                                                                                                                                                                                                                                                                                                                                                                                                                                                                                                                                                  O                     O                                                                                                                                                                                 . ) { Q ) .   X   X                                                                                                                                                                                                                                                                                                                                                                                                                                                                                                                                                                     X               O   O O O   X     X                 . . . . . $ . $ . .   . .       X                                                                         ",
"                                                                                                                                                                                                                                                                                                                                                                                                                                                                                                                                                                                                                                                                            O     O                                                                                                                                                                                                                       . ] { ( ]         .                                                                                                                                                                                                                                                                                                                                                                                                                                                                                                                                                                             .                                 .     X $ M c ] f.] ] g.f.C S . .                                                                                   ",
"                                                                                                                                                                                                                                                                                                                                                                                                                                                                                                                                                                                                                                                                O                       O                                                                                                                                                                                                             X     ] _ _ ) o                                                                                                                                                                                                                                                                                                                                                                                                                                                                                                                                                                                                               O   .           . c.[ ~ ( ( ' ' ` f.c.$ .               X                                                                   ",
"                                                                                                                                                                                                                                                                                                                                                                                                                                                                                                                                                                                                                                      X                                                                   X                                                                                                                                                                                               . ] { ( ]                                                                                                                                                                                                                                                                                                                                                                                                                                                                                                                                                                                                               .               . . t.(  .X.{ {  .[ ` c . .                                                                                   ",
"                                                                                                                                                                                                                                                                                                                                                                                                                                                                                                                                                                                                                                                                                                                    X                                                                                                                                                                                     . ] _ ..] .                                                                                                                                                                                                                                                                                                                                                                                                                                                                                                                                                                           .         .             X                           . M ' _ { _ ( ` ` ] M $ .                                                                                   ",
"                                                                                                                                                                                                                                                                                                                                                                                                                                                                                                                                                                                                                                                                                                                                                                                                                                                                                                X         . [ { { [ .                                                                                                                                                                                                                                                                                                                                                                                                                                                                                                                                                                           O   X                     O   O   O     O           . f C c l t.t.) c M k . . X                                                                                 ",
"                                                                                                                                                                                                                                                                                                                                                                                                                                                                                                                                                                                                                                X                                           O   X                 X   O               X                                                                                                                                                                                   . ]  .{ ] .                                                                                                                                                                                                                                                                                                                                                                                                                                                                                                                                                                                   X           .       O             O       X   . . $ . . . . $ . . .                                                                                     ",
"                                                                                                                                                                                                                                                                                                                                                                                                                                                                                                                                                                                                                                                                                                                                                                                                                                                                                                          . [ _ { ] .                                                                                                                                                                                                                                                                                                                                                                                                                                                                                                                                                                                                                                   .         .                                                                                             ",
"                                                                                                                                                                                                                                                                                                                                                                                                                                                                                                                                                                                                                                                                                                                                                                                                                                                                                                          . ] { { ] .         O                                                                                                                                                                                                                                                                                                                                                                                                                                                                                                                                                                                                                                                                                                                                 ",
"                                                                                                                                                                                                                                                                                                                                                                                                                                                                                                                                                                                                                                                                                                                                                                                                                                                                                                          . ] { _ ] .                                                                                                                                                                                                                                                                                                                                                                                                                                                                                                                                                                                                                                                                                                                                           ",
"                                                                                                                                                                                                                                                                                                                                                                                                                                                                                                                                                                                                                                                                                                                                                                                                                                                                                                            [ { { ] o         O                                                                                                                                                                                                                                                                                                                                                                                                                                                                                                                                                                                                                                                                                                                                 ",
"                                                                                                                                                                                                                                                                                                                                                                                                                                                                                                                                                                                                                                                                                                                                                                                                                                                                                                          . ] ..{ ] .                                                                                                                                                                                                                                                                                                                                                                                                                                                                                                                                                                                                                                                                                                                                           ",
"                                                                                                                                                                                                                                                                                                                                                                                                                                                                                                                                                                                                                                                                                                                                                                                                                                                                                                O         . ] { { ] .                                                                                                                                                                                                                                                                                                                                                                                                                                                                                                                                                                                                                                                                                                                                           ",
"                                                                                                                                                                                                                                                                                                                                                                                                                                                                                                                                                                                                                                                                                                                                                                                                                                                                                                            ] | ..] .                                                                                                                                                                                                                                                                                                                                                                                                                                                                                                                                                                                                                                                                                                                                           ",
"                                                                                                                                                                                                                                                                                                                                                                                                                                                                                                                                                                                                                                                                                                                                                                                                                                                                                                          . [ ( { ] .                                                                                                                                                                                                                                                                                                                                                                                                                                                                                                                                                                                                                                                                                                                                           "
};
