/* XPM */
static const char *door_texture[] = {
/* columns rows colors chars-per-pixel */
"16 16 105 2 ",
"   c #383434",
".  c #383435",
"X  c #393435",
"o  c #393535",
"O  c #393536",
"+  c #3A3536",
"@  c #3A3636",
"#  c #3B3637",
"$  c #3B3737",
"%  c #3B3738",
"&  c #3C3738",
"*  c #3C3838",
"=  c #3C3839",
"-  c #3D3839",
";  c #3D3939",
":  c #3D393A",
">  c #3E393A",
",  c #3E3A3A",
"<  c #3E3A3B",
"1  c #3F3B3B",
"2  c #423D3E",
"3  c #423E3E",
"4  c #433E3F",
"5  c #433F3F",
"6  c #433F40",
"7  c #443F40",
"8  c #444040",
"9  c #444041",
"0  c #454041",
"q  c #454141",
"w  c #464142",
"e  c #464243",
"r  c #474243",
"t  c #474343",
"y  c #484444",
"u  c #494445",
"i  c #494545",
"p  c #4B4647",
"a  c #4B4747",
"s  c #4C4748",
"d  c #4F4A4B",
"f  c #504C4C",
"g  c #514C4D",
"h  c #524E4E",
"j  c #534F4F",
"k  c #545050",
"l  c #555151",
"z  c #565252",
"x  c #575253",
"c  c #575353",
"v  c #595455",
"b  c #5F5A5A",
"n  c #5F5B5B",
"m  c #615C5D",
"M  c #635E5E",
"N  c #656060",
"B  c #666161",
"V  c #676262",
"C  c #686464",
"Z  c #6C6768",
"A  c #6D6868",
"S  c #6D6969",
"D  c #6E6969",
"F  c #6F6A6B",
"G  c #6F6B6B",
"H  c #706B6C",
"J  c #706C6C",
"K  c #746F6F",
"L  c #757070",
"P  c #757071",
"I  c #787373",
"U  c #7A7575",
"Y  c #817C7C",
"T  c #827D7D",
"R  c #837E7E",
"E  c #847F7F",
"W  c #858080",
"Q  c #868081",
"!  c #868181",
"~  c #878282",
"^  c #888283",
"/  c #898484",
"(  c #8D8787",
")  c #8F8989",
"_  c #8F8A8A",
"`  c #928C8D",
"'  c #948E8E",
"]  c #989293",
"[  c #999494",
"{  c #9B9595",
"}  c #9C9797",
"|  c #A09B9B",
" . c #A6A0A1",
".. c #A9A3A3",
"X. c #ABA5A5",
"o. c #ADA7A7",
"O. c #AEA8A8",
"+. c #B5AEAE",
"@. c #B8B2B2",
"#. c #BAB3B3",
"$. c #BBB5B5",
"%. c #BEB7B7",
"&. c #C6BFBF",
"*. c #CAC3C3",
"=. c #D5CECE",
/* pixels */
"' ' ) w ;     N / ..  : W > 5 i ",
"| V q     . A a @   =       6   ",
"X X   { j   $ T K   D     X = =.",
"X   o       + p &.O.    X   . *.",
"$       X R & v , [ 0   l   O @ ",
"@   O X X M 8 +.g O * @.  @   A ",
"  # . 4 X     - .   s   w   o k ",
"= & , .   u d f     3 f O   3 b ",
"= & S +       h v I , X X % 4 > ",
"= * F X   u % - = T ]     f   3 ",
"= * X.  n ; ^ ~ 2       & m   } ",
"* & Z   J N _ ` < ; 8   x . o K ",
"* O -   Q   r %.#.!   z   #   y ",
"3 + U T T 9 o.,  .~ * . &   X + ",
"e c     t 1   E X H > P L 7 Y / ",
"( : - .   + ;   t t $.B , G u C "
};
