/* XPM */
static const char *item[] = {
/* columns rows colors chars-per-pixel */
"160 120 256 2 ",
"   c #020301",
".  c #080907",
"X  c #150A08",
"o  c #071509",
"O  c #15130C",
"+  c #090C14",
"@  c #0A1615",
"#  c #161718",
"$  c #140B14",
"%  c #271A15",
"&  c #2B0F0B",
"*  c #0A2619",
"=  c #0E2C13",
"-  c #30251A",
";  c #161B25",
":  c #0D1723",
">  c #0C2925",
",  c #172A28",
"<  c #15362B",
"1  c #173834",
"2  c #12312D",
"3  c #262828",
"4  c #372A27",
"5  c #272D34",
"6  c #373938",
"7  c #2E3331",
"8  c #241C22",
"9  c #6F2619",
"0  c #483936",
"q  c #573B35",
"w  c #4E322A",
"e  c #783C37",
"r  c #70372D",
"t  c #551D14",
"y  c #104A1A",
"u  c #184728",
"i  c #184937",
"p  c #125330",
"a  c #2E4B37",
"s  c #196A39",
"d  c #177137",
"f  c #0F6035",
"g  c #246939",
"h  c #29621B",
"j  c #46443B",
"k  c #57443A",
"l  c #4F4F35",
"z  c #67443A",
"x  c #76463B",
"c  c #4B7636",
"v  c #323A44",
"b  c #163E40",
"n  c #523C46",
"m  c #3A4849",
"M  c #3A4E52",
"N  c #256A43",
"B  c #23664A",
"V  c #434D4D",
"C  c #474846",
"Z  c #564946",
"A  c #45514C",
"S  c #434D53",
"D  c #494C54",
"F  c #475456",
"G  c #585956",
"H  c #55524B",
"J  c #675A56",
"K  c #6E524D",
"L  c #69675C",
"P  c #77665B",
"I  c #4F5967",
"U  c #596769",
"Y  c #556A75",
"T  c #6C6A64",
"R  c #686867",
"E  c #726964",
"W  c #756766",
"Q  c #75746D",
"!  c #666975",
"~  c #787876",
"^  c #6A7473",
"/  c #5F605F",
"(  c #91291A",
")  c #BA2919",
"_  c #B22C19",
"`  c #89362A",
"'  c #983528",
"]  c #8F3530",
"[  c #A92D23",
"{  c #B82C23",
"}  c #A93629",
"|  c #B73527",
" . c #A93A34",
".. c #B53C34",
"X. c #B71B10",
"o. c #CC1D0C",
"O. c #C81C09",
"+. c #D41D05",
"@. c #D41E0B",
"#. c #DA1E0B",
"$. c #DA1C06",
"%. c #CA1D13",
"&. c #D41E11",
"*. c #DB1E11",
"=. c #D31913",
"-. c #E21D0A",
";. c #E21C12",
":. c #C4230C",
">. c #CD230C",
",. c #CB2406",
"<. c #D42205",
"1. c #D5210B",
"2. c #DA220C",
"3. c #D92308",
"4. c #C42413",
"5. c #CB2413",
"6. c #C32B1C",
"7. c #C72818",
"8. c #D42212",
"9. c #DA2312",
"0. c #D62817",
"q. c #C6321C",
"w. c #D3321D",
"e. c #E2220F",
"r. c #C62B22",
"t. c #C83826",
"y. c #D63A28",
"u. c #CB3931",
"i. c #E23A27",
"p. c #9A473A",
"a. c #8C4938",
"s. c #A64538",
"d. c #B34534",
"f. c #CA4737",
"g. c #D44938",
"h. c #D14B34",
"j. c #E54934",
"k. c #984C44",
"l. c #885A4B",
"z. c #965447",
"x. c #895B53",
"c. c #8D504B",
"v. c #AF5249",
"b. c #846357",
"n. c #996857",
"m. c #A96556",
"M. c #97786B",
"N. c #867C77",
"B. c #8D726D",
"V. c #A77468",
"C. c #8E5D60",
"Z. c #CB5746",
"A. c #D75947",
"S. c #CF5149",
"D. c #E95B48",
"F. c #D9634B",
"G. c #D96857",
"H. c #D46F5B",
"J. c #E76C55",
"K. c #DB7666",
"L. c #D7746C",
"P. c #E67967",
"I. c #EC7768",
"U. c #A43B40",
"Y. c #7B847B",
"T. c #8B847A",
"R. c #878479",
"E. c #978378",
"W. c #8D826E",
"Q. c #A5857A",
"!. c #E98877",
"~. c #F58975",
"^. c #EE8B74",
"/. c #DA8776",
"(. c #6D7889",
"). c #5B7584",
"_. c #897D82",
"`. c #76888A",
"'. c #788B95",
"]. c #6F898D",
"[. c #7B8EAE",
"{. c #7AA5B1",
"}. c #898683",
"|. c #938F8E",
" X c #AF948D",
".X c #8795B7",
"XX c #8A94AF",
"oX c #8FA8B1",
"OX c #ACACB3",
"+X c #BBA29C",
"@X c #EC9786",
"#X c #F69987",
"$X c #ED948A",
"%X c #CAA699",
"&X c #F6A38D",
"*X c #F8A897",
"=X c #FBB39C",
"-X c #ECA898",
";X c #D0B3AC",
":X c #ECBEAE",
">X c #E6BAAB",
",X c #F2BDAD",
"<X c #FCBCAC",
"1X c #FBB7A5",
"2X c #EDBEB2",
"3X c #E5BDB4",
"4X c #F2BEB2",
"5X c #F9BEB4",
"6X c #FAAEA1",
"7X c #D79486",
"8X c #ECC1AE",
"9X c #E7C1AE",
"0X c #F3C2AE",
"qX c #FCC2AD",
"wX c #FAC5A7",
"eX c #E5C2B4",
"rX c #EDC1B2",
"tX c #E5C4BA",
"yX c #ECC4BB",
"uX c #EBCABA",
"iX c #F2C2B3",
"pX c #FCC3B3",
"aX c #F3C4BA",
"sX c #F8C9B9",
"dX c #ECD2BE",
"fX c #DDC2B9",
"gX c #92B7C8",
"hX c #AFB8C9",
"jX c #9C9CC0",
"kX c #B2C9D3",
"lX c #ADD2DB",
"zX c #C5CCDA",
"xX c #C9D1DD",
"cX c #D8CCCB",
"vX c #ECC6C3",
"bX c #EBCCC4",
"nX c #E6CBC5",
"mX c #F4CBC2",
"MX c #ECD3CC",
"NX c #EAD3C8",
"BX c #F4D5CA",
"VX c #ECD9D3",
"CX c #F5DBD3",
"ZX c #EDE4DE",
"AX c #F3E3DD",
"SX c #C9D3E3",
"DX c #CDD5E5",
"FX c #EEE5E3",
"GX c #EDE9E4",
"HX c #EBECEC",
"JX c #E5E8E8",
"KX c #F2E4E2",
"LX c #F3EAE8",
"PX c #F4F3F3",
"IX c #D1E9EC",
"UX c #ACBFC1",
/* pixels */
"W C.] U.C.! ! ! ^ U R B.m.} } v.V.T.}.`.}._.N.Q T Q Q T W W ! T W ! ! Q _.R T ~ |.OXQ L R v OXOXOXhX(.# 5 7 3 j q k k n 0 6 L R L L T W T L L L L L L W L L L T L T J L L L L P T L L L L L L P L L q e [ [ z (.F < G T.E.R.R.T.T.R.W.T.N.R.N.L K x a.[ 7.{ [ a.K l H L N.R.Y.W.W.R.R.R.T.T.T.W.T.R./ , A oXoXoXoXoX|.oX|.p M `.",
"W W c.U.c.W ! ! T R U Y.M.v. .| d.m.E.T.R.R.~ Q Q Q ^ ^ ~ Q ~ Q Q ~ Q Q N.~ T G G G T / R R OXzXOXOXOX/ v 0 3 4 Z Z z z r q K P L T R / R R W W L E T E E L L W L L E E T E T W R R T R W E W W W R a w ] { ' B.G 8 G E.E.T.R.T.T.R.T.T.R.R.Q P G L b.c. .) ) ) ..] a.b.B.W.W.W.E.R.W.T.R.T.R.T.T.R.L % m }.`.`.`.`.].`.Y.< M `.",
"! ! K ]  .l.Q ! E R ! ^ }.M.m...) t.d.m.n.M.N.}.W.R.R.R.}.T.}.N.T.R.}.Y.R.}.Q ^ U }.}.Q T v C |.hXhXOXXX_.~ / 5 4 0 Z z q r c.c.x.x.b.P P E T R T E E E R P W W Q W Q E E L E T P b.x.c.z.s.p.s.s.k.e 0 q ` ' ..x t K |.R.R.R.W.T.R.T.T.R.T.~ R.}.}.T.M.Q.v.| 7.r.6.| d.v.n.E.W.T.T.R.T.W.W.W.T.T.|.T , m `.Y.].`.'.`.`.Y , M `.",
"! Y / c.U.k.W ! ! R W ~ `.R.M.V.d.) ,.0.t.d.v.v.z.m.M.n.B.N.}.}.R.R.R.}.~ _.~ T |.~ T R ~ ~ G 7 D (.hXfXXXXX|.(.8 7 a j k q a.k.p. .p.p.k.c.b.P P P E L T R W W R T P P P x.l.l.d. .| | ) ) 4.7.) ) [ ] r 9 ` U.a.t K }.R.R.R.R.T.T.T.T.R.W.N.R.T.T.T.R.W.W.V.m.d.7.*.5.| d.m.Q.W.E.T.W.T.R.T.W.T.T.Q 3 m `.].'.].|.'.`.U > M `.",
"! ! I J k. .P ! ! R R ~ `.Y.R.N.n.d.| ,.#.+.@.5.4.7.| | d.v.V.M.}.}.~ }.~ }.}.G ~ / T G }.|.}.}.G 6 a H 0 3 # 3 7 6 C C j j K W x.l.a.p.p.}  .p.k.p.z.l.x.P b.b.l.b.z.p.v. .| [ [ [  .s.p.k.k.k.s.s.[ r.r.} ' v.| ( K W.}.R.R.E.T.T.T.T.T.T.Q W.R.T.|.T.R.W.T.Q.v.| <.2.8.o.r...m.V.Q.T.}.R.T.T.R.T.T 3 a `.(.'.`.'.'.`.U > m `.",
"W ! / R C.k.c.W U R R Q T.}.N._.E.W.n.s.| 8.2.3.e.$.$.#.@.) d.s.M.E.}.~ Y.`.Q T |.OX|.G ~ R.R.R.E.T.L L Y.H 3 a a C C j j 6 L ^ R T P b.l.z.p. .} } s.s.} } } } } | } } [ }  .d.l.x.x.P P E T R E J r ` [ { { t.0.) s.W.R.R.R.T.E.T.T.T.W.T.W.Y.H k j j l a 0 q r _ 3.3.8.$.*.%.q.d.m.M.T.R.R.R.R.}.T 3 m }.`.'.`.`.`.'.Y , M `.",
"R ! / I W c.k.x.R U ! Q R.N.R.}.R.R.R.M.n.v.s.d.{ ) 7.9.2.#.,.q.d.v.V.B.}.~ / Q U ~ ~ R ~ R.T.R.T.W.T.E.T.A 4 j j j j C j 0 J W E T T T L W P P z.z.p.p.s.s.s. .s.p.p.k.l.b.P P E T T L T T T T Q T j 6 k e ( ..r.r.| m.W.W.T.T.R.R.R.T.R.R.W.L % Z Z H H H l H K { 9.+.>.1.2.1.+.>.| d.m.Q.M.M.T.T.E 3 m `.`.].`.`.`.`.U , m ].",
"G J / I Q x.k.l.W T R ^ }.}.R.Y.R.Y.}.}.R.R.T.M.m.v.d.{ 5.9.2.3.=.r.d.V.M.W W C R R |.L W.R.R.W.E.T.T.T.T.H 4 j j j j j 0 6 L W P T T R T T E T T T L P P P P P T T T W W T W ! T T E E E E T T T R m 0 j 6 n B.a.( ) t.d.v.V.M.T.E.T.R.R.T.R.L 4 R.|.}.}.N.R.}.V.| 1.2.w.0.+.@.<.1.1.:.| v.V.Q.T.}.E 3 v '.`.].`.].`.`.Y , M `.",
"e K K R ^ E c. .x.C.! ^ R.}.R.}.N.}.}.R._.}.R.R.R.T.M.V.v.| 7.=.*.$.+.r.v.k. X^ R / G G T.}.N.T.W.W.T.}.|.H 4 l q z r ` r ` a.l.l.l.b.b.P E E E T T T T T E W T T T T T E T T T L E E E E E T L P L j 6 0 m v (.G 4 a.v.| _ _ t.Z.m.M._.}.T.N.J 7 R.T.N.B.T Q T.Q...8.>.g.J.q.+.1.1.,.<.>.X.t.v.V.Q.Q 3 v XX].].'.].].].Y , v `.",
"[ .. .k.x.b.x.k.' p.c.B.W.E.M.T.T.~ R.T.N.N.Y.Y.R.}.}.}.}.M.v.| r.1.-.1.7.) Z.z.W Q Q T N.N.T.N.R.R.R.R.R.C 4 z ( _ _ 6.) ) _ { | | |  .s.p.k.z.b.P P W W T R R T E T E W T T R T T R R R T T Q T L C 6 j C C ].F 3 J Q.m.v.u.) ) ..S.m.V.M.T.G 7 Y.R.T.N.Q Q Y.E.v.7.o.y.~.P.r.@.1.1.+.@.5.O.r.f.d.p.- 0 '.`.].`.].Y.`.R , S ].",
"3.1.%.{ } s.s.s.| }  .p.z.s.v.m.m.m.n.b.P W ! R ! ! R R R L P l. ._ 2.-.#.O.>._  .k.b.L R H C H C C V C H q 9 [ 5.9.2.2.2.3.2.@.2.#.8.5.5.7.7.6.d.} s.s.k.l.P P W W E T R T T E T R R T R T T L E L C 0 C j M ].I , F R.R.W.V.m.| _ 4.0.t.v.M.J 0 R.|.T.}.R.R.}.}.m.) 2.:./.=XK.4.>.@.1.2.9.2.#.+.>.| ( e B.}.}.].].Y.].U > A ].",
"3.<.#.@.>.4.7.7.6.| u.v.f.v.d.p.] ] a.' p.p.z.x.E Q Q Q Q Q Q Q C.z.r.$.#.3.@.&.@.) } z.C.P / / U U U / K k.| 0.8.1.#.$.1.1.2.#.1.1.1.1.2.2.*.*.<.<.@.5.6.| | s.z.z.b.P L P T W T E E E W W E P T R C 6 j C a ^ Y 6 m A A A V F K r ( ) >.4...] t x Z H H H G H A r _ 9.O.h.wX=XJ.) :.2.<.<.<.2.3.+.1.4.u.d.z.n.W.Y.Y.].U > M ].",
"1.$.2.$.#.1.*.*.+.o.7.r.| f.v.s.z.m.m.v.s.} [ | d.z.B.Q ~ ~ ^ ~ ~ n...5.1.1.&.8.#.@.5.6...v.l.K B.R P b.z.d.4.<.1.@.@.1.1.1.@.@.1.1.>.1.1.>.1.1.3.3.+.#.<.5.:.q.) | } p.z.x.b.P E W T T L T T E T R C 6 j C 7 F `.(.(.~ ^ ^ ^ ).^ ~ B.n.v.r.) %._ ( 9 9 w q k j m k ` 4.#.q.^.sX*XZ.6.#.$.3.<.,.1.1.1.2.@.%.6.)  .v.m.M.P 8 6 ~ ",
"@.&.1.1.@.1.1.2.2.2.9.8.5.7.6.) | v.z.c.c.k.s.' { | } a.K K Y ^ ~ M.s.:.,.@.8.1.&.8.9.#.o.4._ }  . .p.s.) :.<.<.1.1.1.@.,.1.<.#.1.2.2.@.1.<.+.,.>.5.1.1.1.1.<.<.1.1.8.5.{ | s.p.x.x.P E ^ R T R T R C 6 j C 6 U G D D F F M M I F D F G W C. .{ 5.,.:.t.f.d.m.n.B.P P _ 8.5.H.<XpX*XS.4.$.#.e.9.&.9.1.#.-.$.$.<.o.4.) | } 9 r n.",
"1.1.1.>.1.1.1.2.<.3.#.#.,.1.>.5.9.O._ [ } m.V.a. .} ) ) } e P U Q W p.7.1.9.*.1.9.o.>.1.1.#.2.1.o.8.>.>.1.2.e.<.,.>.3.1.1.1.>.1.1.+.1.#.1.#.#.3.o.&.@.8.2.1.1.#.>.1.@.#.*.=.5.5.{ | d.k.z.b.P P P J C 0 C C a (.].F m F F M F M S S S M M D n c.} { 9.9.1.>.X._ ' r x [ 8.%.h.#XiXqX#XZ.{ 5.O.@.8.9.1.9.2.#.+.1.$.3.1.@.9.5.6.) ",
"<.1.+.1.3.@.1.,.1.@.*.#.2.$.2.;.%.9.#.+.3.,.q.| s.| _ 5.1._ v.x R T k.{ 8.=.*.2.3.1.1.>.@.*.3.<.$.$.#.3.1.1.1.5.1.1.*.#.8.8.@.*.1.1.1.1.1.@.&.1.#.#.#.1.1.,.1.1.*.9.1.#.3.3.3.3.2.1.8.7.| s.p.z.b.W C 6 j V 6 I |.XX'.'.'.'.'.|.'.}.`.'.Y.(.(._.N.V.v.) 5.1.1.:.3.) _ t.,.-.:.K.qX8XiX6XP.D.r.O.$.1.8.>.8.*.1.1.1.1.1.1.3.@.9.0.",
"#.+.2.1.3.9.$.#.5.8.@.1.2.@.1.1.1.1.1.<.1.1.1.1.8.4.7.5.*.8.6.} P T b. .%.=.<.1.1.<.#.1.>.>.#.1.1.1.1.@.@.1.1.1.#.<.1.1.1.1.1.#.1.1.1.#.1.1.1.#.1.#.1.@.1.@.1.1.@.1.@.1.<.1.@.1.1.1.3.@.+.5.7.4.r...r r q q C C I F G G U U U U Y U R ! ! ! / / U L J a.{ %.=.#.3.3.1.5.8.&.5.h.&XqXeXyXqX1X@XS.O.+.#.#.,.>.8.8.1.8.1.8.1.1.2.2.",
"1.>.1.1.1.1.1.1.$.2.@.<.@.1.@.1.1.1.#.1.1.1.#.1.1.5.5.1.@.2.4.)  .n.x.c.Z.h.5.e.1.1.3.#.#.1.1.+.@.#.1.1.1.1.@.#.1.1.@.@.@.@.1.1.1.#.1.1.1.@.1.1.@.<.1.1.1.1.#.<.@.1.1.@.#.1.@.1.@.2.#.#.1.w.i.i.4.5.5.{ [ ' r r w 9 w q q w w w 6 6 6 5 v v 6 7 7 7 w w ` [ _ ) >.-.-.$.9.1.,.7.G.1XeX9XaX4XqX*XG.u.%.#.9.1.2.-.*.*.2.1.>.1.8.#.",
"1.8.=.9.9.,.o.<.<.<.,.1.>.9.1.@.1.@.1.1.2.@.1.@.3.1.1.<.$.3.8.5.5._ s.` p.^.h.o.1.1.+.2.#.+.1.3.1.1.<.@.1.@.1.1.@.1.1.1.1.1.1.1.1.1.@.+.#.<.@.1.@.1.1.1.@.#.1.1.1.1.1.1.1.@.1.1.1.1.@.@.1.5.i.D.D.t.,.1.9.5.4.4.r._ ( ` r r w w w w 4 7 3 7 3 4 w t r ] ] 9 9 9 ( ) &.+.1.1.5.5.t.!.sXrX2X2XrXpXpX&XP.A.u.q.7.5.o.9.-.$.1.,.o.9.",
"-.#.0.j.i.5.1.3.,.>.>.1.@.@.@.#.1.1.1.@.1.@.1.1.1.#.$.3.<.1.2.1.$.1.) 7.X.f.I.j.O.9.&.+.1.1.#.2.1.@.1.#.1.1.1.+.1.@.@.1.#.+.@.+.@.1.1.1.1.1.@.1.1.1.#.@.1.1.1.@.1.#.@.1.1.1.1.#.1.1.1.#.1.1.5.7.F.P.J.f.X.O.;.$.*.=._ ( ( r q k n z q q j k r r ` ' ] ] r q a j k r ' _ :.>.1.1.4.Z.*XsX:XyXrX,XeXrXwX,X=X&X$XP.Z.t.%.2.2.0.1.#.",
"2.3.>.y.D.J.D.t.5.@.=.#.-.2.3.<.#.1.@.1.1.@.2.@.1.1.3.<.1.1.1.#.1.1.#.;.#.>.g.I.j.O.#.9.1.2.<.$.1.1.@.1.@.1.1.1.+.@.@.@.@.1.@.1.#.1.1.@.@.@.1.1.#.1.1.1.1.#.@.1.1.#.1.+.@.+.1.1.1.1.@.@.1.9.8.>.o.t.F.~.J.h.y.4.o.>.5.7.) [ ' ` r r r ` ` ` ` ] ] r w l a C C n j j r e [ _ 1.e.9.4.Z.=XsX9XuXiXrX9X:X9XiXsXpX5X1X&XH.y.:.+.#.2.",
"3.2.@.O.7.A.I.~.J.S.{ O.o.3.1.<.@.1.1.1.1.1.1.@.8.1.#.1.1.8.#.2.9.1.,.+.-.$.>.y.J.h.5.#.@.1.1.<.#.1.#.<.1.1.#.1.1.1.1.1.1.#.1.@.1.1.@.1.1.1.1.#.1.1.@.1.1.1.1.1.1.1.1.1.1.1.1.#.+.1.1.1.8.@.>.1.*.#.o.w.D.~.^.F.t.q.O.#.;.;.5.:.) _ ' [ { [ ' ` k l j j Z H C a C C C Z k x ' :.3.1.>.G.=XsXtXeXrXrXiXiXrXrXrX9XsXrXpX*XG.r.o.+.",
"5.>.9.9.@.O.) h.I.~.~.D.t.:.o.1.1.1.8.&.*.&.1.8.&.1.1.1.8.9.1.1.2.,.1.>.#.3.@.:.h.J.j.,.0.#.+.:.1.@.1.1.1.@.1.@.<.1.1.@.@.1.1.1.1.@.#.1.1.1.1.@.1.@.#.1.@.1.1.@.#.1.@.1.1.1.1.@.1.2.&.+.@.9.9.+.,.1.#.o.:.| h.J.~.I.h.t.>.>.1.1.;.@.5.7.7.) [ ` r w w l 0 0 0 a k C m C a l w r [ ) :.:.J.1X0XqX5XaXiX2X9XiXrX8XrXyX3XrXpXP.t.5.",
"f.t.7.>.,.8.o.%.O.t.g.D.J.D.j.9.1.@.@.1.1.1.1.@.9.1.<.1.#.2.1.<.3.1.1.@.9.*.+.1.O.f.I.J.7.#.3.@.@.1.1.@.1.#.1.1.@.#.1.1.2.1.@.@.1.1.<.1.@.@.1.1.@.<.1.1.@.1.<.#.@.1.1.1.@.#.1.1.<.o.@.0.@.@.#.3.3.1.1.@.9.1.8.7.u.A.I.~.D.h.0.1.+.@.&.8.%.%.5.%.7._ ' a.a.c.c.x.K J L L J K L L l. .6.5.4.h./.^.$X=X5XaXsXaXiXiX8X4XaX3X2XpX~.t.",
"6X=X&X@X/.K.F.g.y.r.) ) O.7.y.i.i.i.w.@.1.1.,.9.+.3.<.<.<.1.1.<.1.1.1.+.1.1.>.+.&.O.g.~.^.h.5.#.<.+.+.3.#.+.@.1.#.*.*.*.+.>.1.$.@.#.<.1.1.#.1.1.1.1.#.1.1.@.1.1.+.3.1.1.1.+.#.#.1.1.#.1.@.@.1.@.@.#.@.#.1.2.@.&.1.5.4.h.h.D.J.Z.) 8.#.1.2.2.2.2.#.*.5.7.7.r.| } s.s.v.k.k.z.z.z.z.s.| 7.:.>.5.4.t.u.Z.H.K.&X=XqXwXpXtXvX2X2XqX!.",
"P.$X*X1X<XpXpX5X1X*X#XI.G.A.f.t.6.7.y.j.i.0.1.>.>.1.1.2.3.#.1.8.@.#.#.1.3.1.#.9.#.*.O.t.~.*X!.Z.w.7.:.o.@.#.#.+.<.+.<.3.1.1.o.1.1.1.1.@.1.@.1.@.@.1.@.<.1.#.1.@.,.1.>.>.1.1.1.1.#.1.#.1.<.#.#.1.1.1.1.1.1.1.1.1.1.9.1.>.o.:.F.&X~.6.o.2.<.1.>.1.#.1.1.@.#.#.1.<.,.5.4.4.5.7.7.) | ) 7.5.1.1.8.8.+.@.o.4.X.>.y.Z./.~.=X<XiX>X0X1X",
"O.5.t.f.Z.K.!.#X6X,XqXpXpX1X6X-X~.I.S.f.h.D.D.g.6.:.:.1.9.3.2.2.#.2.3.#.#.@.@.8.*.#.*.%.| P.1X1X&X@XK.F.f.t.6.6.,.:.,.1.,.*.#.9.1.1.1.#.1.1.#.1.1.1.1.@.1.1.@.1.@.@.#.@.2.1.1.1.1.1.>.+.1.1.1.>.#.@.1.@.@.2.1.3.1.$.-.-.e.+.) J.<XH.) O.,.,.1.8.1.1.,.1.1.3.3.3.2.1.2.2.3.2.2.2.3.2.1.2.1.1.1.+.*.e.@.@.3.$.o.X.X.7.h.K.=XwXrX5X",
"$.$.$.2.>.,.,.7.t.h.A.G.!.#X*X<XpX5X0X6X/.H.H.I.~.J.h.) :.O.+.$.#.1.3.#.1.9.8.%.#.8.8.#.o.4.A.#X<XqXqXqXwX=X-X^.@X!.K.A.y.0.#.+.@.@.1.1.@.1.<.1.@.#.1.1.@.1.1.1.#.#.@.#.+.<.1.1.1.&.8.@.&.9.@.8.1.8.1.8.8.@.8.&.8.3.9.<.2.e.o.6.@X1XF.o.3.+.#.&.*.#.&.1.#.1.1.1.5.1.1.@.2.9.*.*.3.2.1.1.1.1.+.1.>.5.8.>.3.3.7.D.j.#.#.X.h.@XsX9X",
"8.8.1.@.2.#.#.+.+.<.+.:.4.r.f.g.K.@X-X6XpXqX&XL./.&X=X#XH.h.q.O.#.1.1.3.$.+.1.1.9.o.,.3.-.$.&.6.g.A.P.!.#X*X=X1X5X5XsXwX@Xf.:.2.@.1.1.@.1.1.@.@.1.1.1.1.1.@.<.#.1.<.1.1.2.1.1.1.1.2.#.1.1.1.1.#.1.2.1.2.3.1.1.1.9.1.1.,.,.#.9.8.S.*X&Xf.%.=.=.&.1.>.1.2.@.8.9.*.1.<.1.1.1.1.#.3.1.1.1.>.&.8.@.1.2.1.9.1.2.o.q.~.~.6.*.;.X.f.&XsX",
"1.@.8.2.1.1.8.1.>.1.1.1.>.@.o.8.O.7.t.h.H.^.=X1X-X:X4XrXpX1X$XG.t.4.O.1.2.2.#.3.@.9.1.+.+.1.1.1.=.=.o.%.6.r.y.u.g.G.^.wXsX/.6.$.+.1.1.#.1.#.1.1.1.@.#.1.@.1.1.@.1.@.+.#.1.8.*.*.#.<.<.#.<.+.+.@.<.+.3.$.#.+.<.$.o.<.+.1.<.$.e.+.%.G.wX-XH.J.g.) :.,.1.1.1.,.8.@.1.1.1.,.1.1.>.>.1.1.#.*.*.@.1.>.$.$.$.<.3.2.X.D.=XF.%.-.$.7.G.=X",
"<.<.<.1.,.>.>.1.1.*.*.#.2.2.2.2.1.1.#.&.o.4.f.A.$X#XwXpXiXsX5X<X&XI.f.) :.1.#.$.1.#.3.1.+.>.,.1.#.@.1.2.2.1.1.@.>.,.7.G.wX=XF.o.1.<.@.1.1.1.@.@.1.1.@.@.1.1.1.1.1.9.w.w.7.6.r.r.7.r.q.7.q.7.7.r.q.t.t.t.t.t.t.t.t.y.t.r.7.5.8.,.O.r.P.qXpX<X6X$Xg.r.o.@.1.1.1.1.#.#.#.@.1.1.#.1.#.$.#.2.3.1.1.8.<.3.2.,.<.3.>.h.6X@X| <.e.+.6.I.",
"#.@.1.+.#.#.3.$.<.1.1.1.#.8.1.8.1.>.+.>.8.#.+.#.:.t.G.!.=XiXrXrXiXpX*XI.t.4.>.#.,.>.1.#.*.;.9.8.&.%.@.1.1.1.1.1.1.e.@.{ @XsX&Xf.@.@.1.1.1.@.+.1.#.1.1.<.1.#.@.1.w.g.J.~.~.@X^.@X@X@X&X-X#X-X&X&X@X&X-X*X*X*X*X&X*X&X&X&X@XI.g.u.O.=.u.P.,XaXeXsX1XP.S.r.:.o.@.#.@.1.1.#.1.1.<.1.9.1.1.,.<.1.#.$.8.&.&.1.1.2.1.:.@X=Xh.,.<.0.5.t.",
"1.8.8.1.*.@.&.*.#.1.1.1.8.1.1.9.9.1.1.9.2.@.1.2.1.@.o.r.f.G.$X1XpX<X2XsX=XG.t.O.>.1.<.1.1.9.,.3.1.1.1.1.1.<.1.1.1.9.<.:.P.iX0X#Xh.r.7.o.o.1.>.>.4.5.o.@.@.&.3.+.,.>.t.F.^.*XqXpXmX5X5XmXsXsXsXiXsXyXaXaXaXaXiXyXaXaXaXrXpXpX<X-XA.u.X.7.G.*XqX2X,XqX1X@XP.A.y.:.:.O.O.=.4.4.+.-.,.1.8.>.@.9.2.#.#.#.@.8.1.1.>.o.g.=X@Xr.=.2.,.1.",
"1.,.1.1.<.+.<.3.2.1.2.8.1.1.#.1.+.1.1.1.1.2.1.1.3.$.$.@.o.4.r.y.K.&XqX9X8X<X@XZ.%.&.-.-.1.5.>.1.8.#.#.@.1.1.#.2.8.1.2.5.P.sXeXpX=X$X@X!.P.K./.K.!.^.!.F.t.O.+.$.1.1.+.o.7.t.g.F.P.#X*X*X1XqXiXuX9XeX9XyXiX4X,X5X4XrXiX2XeXiXiX0X1X&XP.| { S.@X,XrXyXrXrXsXpX&X/.F.F.K.I.^.P.A.) +.+.@.2.1.1.@.#.@.@.@.@.#.1.1.1.) ^.wX!.f.X.,.,.",
"O.:.:.,.o.:.>.>.o.%.o.o.o.@.#.+.1.1.2.#.@.1.2.+.1.1.1.1.1.1.@.#.X.t.G.#X1X5X5X5XP.t.:.+.#.1.9.@.1.@.@.1.#.8.#.#.2.#.9.O.S.-X3X4XtXyXaXaXaXiXiX5XrXsXsX<X$XK.S.t.t.q.7.>.+.O.O.,.4.w.r.y.f.G.!.1XqXsX0X>XrXiXiX,X5X2XiXeXrX9X9X8XuX8XpX=XI.S.v.H.-X0XaXeX3XeXsXrXiXqXpXiX0XpX=X!.y.>.+.#.+.,.1.9.2.<.1.1.1.#.#.@.$.u.@X*X~.F.h.h.",
"P.P.P.H.K.G.G.G.F.F.A.A.g.g.f.t.r.7.7.5.o.@.#.#.#.@.1.1.1.1.#.&.#.#.o.r.D.$X<X5XqX/.f.:.1.+.#.*.<.1.1.1.1.1.8.8.$.o.o.&.%.F.<X:X2X2XiXiX2XiX0X0X4X2X9XyXsX0X1X*X*X#X^.P.J.A.u.6.:.o.O.O.%.X.r.D.#X*X<XpX9X9XrX:X4X,X8XrXeXeX8X8XiX4XiXiXpXqX&XK.L./.6X5XpXiXiX9XeXeXeX2X3XrXaXpX&XZ.4.@.1.1.>.,.1.+.<.3.1.@.9.@.;.+.r.u.h.j.j.j.",
"pXpXpX5XpX5X5X5XpXiX0X<XqX1X=X*X*X$XJ.S.f.t.>.o.8.&.1.9.@.@.@.@.1.2.2.#.O.| H.*XpXpX@Xf.:.9.<.1.#.3.#.#.<.1.1.1.7.g.h.f.X.) /.5X4XrX2X>X>X8X8X0X2X:XiXrX3X2X2XiX4XiXiXpXpX<X*X$X!.P.G.G.A.f.{ { v.v./.1XsX9XeXrX,X2X:X2X2XrXiX8X0X,X4X,XeXeX0XpX,X6X-X>X:X8X8X8XrXrXiX4XiXrX8X:XsX=XG.) O.#.+.2.1.#.$.1.#.1.>.>.>.1.#.1.@.+.8.o.",
"2XrXiXrX2XaXiXiXeXeXeXyXyXrXiXiXaXiX5X<X*X~.K.S.) ) :.+.2.9.2.1.5.1.+.1.9.>.4.h.&XqXsX#Xu.o.$.<.$.$.$.3.1.2.<.+.y.~.1X=X^.H.H.,X4XaXyXrXrXrXrX:X:X9X:X5X5X4X2X2XeXyXeX2X2XrX4XyX,X<XpX<X1X1X=X#X#X$X7X,X,X:XiX8X:XiXiX:X:X,X4X5X8XrXiXiXiXiXrX4XrXrXeXyXrXrX:X:X1X,X:X:X8X8X8XiXrXiX1X!.u.%.@.$.1.1.1.9.1.@.1.>.8.1.+.-.2.@.*.8.",
"eXrXeX8XrX9XeX9X5XrXrXiXrX4XiX5XeXrX9X9X0XpXpX1X#XP.S.t.5.o.@.3.8.9.9.#.3.2.#.9.d.#X5XpX!.| 5.5.>.5.8.,.1.1.3.#.%.f.!.pXwXpX,X,XyXiX4X4X4X4X4X4X0XrX,X5X4X2X2XrX:X:XiXiXiXiXrXrX4XrXrXrX:X:X0XsXpX5XiX5X:X4X0X:X:X:XiXiX4X4XrX:XrXrXeXeXrXiX5X4XyXrXrX2X2X2X4XiX,XiXiX9XrXrX2X2XrXiX5X<X*XH.t.7.5.5.8.9.9.2.1.2.#.*.1.1.#.1.1.<.",
"4X4X4X4X2X:XiXiX0X:X0X8X9X8XeXrX0X8XrXrXyXrXrXaXsXpX1X&XP.A.t.) =.%.5.1.1.1.+.$.4.G.<XyXiX^.A.g.h.h.t.7.:.,.1.@.2.8.t.P.qXsXrXeXrXiX:XiX4X2XrX2XrX4XrXrX4XrX0X8X5X5X,X9X9X2XrXiX4X,XrXrXrXeXeXrX2XrX2X2XiXrX9XrXiXrX:X:X8XrXeXrX4X4X8X8X8X8XrX9X:XrX8X0X:X8XiX2XeXeX2X5X4X4XiXeX8X9X4XaX2X<X&XP.h.w.%.o.@.#.2.1.9.8.8.8.8.8.+.3.",
"rXiXrXiXiXrXiXrX2X2X:X2X8X2X:XrXrX8XiXrX:XrXrXrXiXiX8XpXqX<X-X$XJ.S.u.6.%.8.=.#.&.t.#X<X8XiX5X<X1X<X6X$XK.f.7.*.9.2.1.4.A.*XsXtXrX2X,XqX,X,X8XrX8XiX2XiX:XrX4XrX0X2XrX2X0X2XrXrX4X2X2X2X,XrXiX2X2XiX2X2XrXrX2XeXrXrXiX:X2X2X4X0X9XrXiX9X:X2XiX4XrX2XrX4XrXiX2X8X8X4XrX8XrX2X4XrX:XrX:X2XrXrXrXiX=X#X!.Z.f.7.8.&.>.1.2.2.$.#.1.1.",
"rX:X:X2X:XrX:X:XrXrXiXrX2XiXrXiXrX:XiX:X8X:X9XrX9X9X8XeXiXiXpX<X<X1X&X^.G.h.u.t.>.X.t.P.*X5X:XiXiX8X2XiX5X*XK.f.5.5.9.9.>.t.H.#X5XsXuXyXrXaX4X2X2XiXrX:XiXrX8XrX2XrXrXrX2XrXiX:X2X2X4X2X4X2X:X4XrX2XrXrXrX:X2XiXiX:X4X4X4X4X4X4XiX:X:X:XiXiX2X4X4XrX:XiX8X2XrX2X2XrXrX4XiXrXrXrXrX:X2X0XiXrXiXrX0X0XqX<X=X^.K.Z.t.6.4.5.%.@.#.2.",
"4XiX4XrXiX4XrX4X4X4X:X:X4X:X2X4X8XiX4X8X4X8X2XrXrXeXeX8X9X9X9XiXeXuX9X0XpX1X*X#XP.J.Z.v.v.7X-X8X9XrXyX>XiXpX<X=XK.f.) >.#.+.>.w.H.@X1X5XaXrX2X2XrX:X2X8X:XrX8X4XrXrXrX,XrX8X2X8X2X4X4X2XrXiX2X2XiX:X:X4XiXiXrX,XiX4X2X2X2X2X:X2XiX:X:XiX:X:X:XiXrXiX2XrX2X8XiX:X4XrXiX:X:X8XrX:XrX4X2XrX:XrXrXiXyXeXrXrXiXpXqX,X*X!.G.Z.u.6.4.o.",
":X:X:XiX2X:X4X2XiX:XrX4XrX2X4X8X:X2X8X4X,XiX0X2X0X0X8XrXiXrXrXiX:X9XyXeX9XdXBXvXwXqX1X=X$X@X7X7X>X,XsXiX2X:X5X4XpX=X!.h.6.>.,.O.O.7.g.I.1X0X8XiXrX4XrXiXrX4X2XrX8X4X2XrX4X2X2XiX4X2X2X2X4X:X:XiX2XiXrX2XiX8X,X,X9XrXeXrXrXrXrXiX:XiXiX4XiXiX2X8X8X2X8X2XrXrX4XrX8XrX2XrXrX4X2XiXrXrXrXrXrX,X,XrXrX2X2X:X2XrXrXiX5XpX5X<X=X~.P.Z.",
"rXrXrXaXiXrXrXeX2XrXrX8X2X2X2XrX8XiXrXrX4X2X2XrXpX4X2X2XrXrXrXrX5X5XiXyXmX3X XM. X>XdXsXsX5X4XaX0X8X8X8XiXrX2X2X3XyXsX1X&X^.A.f.7.5.O.) F.-XsX>XrXiX:XrXrXrX2X4X2X4X4X2X2XrX4X:X4X2X4X4X2X2X2X2XrXrXiX2X:XiX4XiX,XiX5X2X2X2X4X4XrXiX2X2X4X4X8XrXrX4X:XiXiX4XrXrX2X2X8XrX8X2X4X8X:X:XiX:X:XrX2XrXiXrXrXrXrXeXrXrXrXyXeX9XrXpXpX<X",
"yXeXyXyXuXiXyXyXtXyXyXuXeXyXyXtXeXeXrXrX2X2X2X2X2X2X2XrXeX9XeXeX:X:X2XmX;XK & X & Z  XeX4XaX5X>X:X:X0X8X2X2X2X:X5XyX2XrXrXpX1X*X#XG.S.f.| L.1XrX:XrX2X:X:X2X:X2X2X:X2X2X:X4X:X2X:X2X2X:X2X,X2X4X:X:X2XiXrX2X2X2XsXiXmXmXmXsXpXpXrXyX2X2XiXrX:X:X8XrXrXrX:XrXiX:XiX8XrX4X4XrXrXrXiXrXrXrXiXrXiX:X:X:X:XiXiXiX,XiXiX2X:XrXeXeXrXrX",
"CXCXBXCXCXBXCXCXBXBXBXBXBXBXBXBXmXbXmXmXmXmXmXmXnXsXbXuXuXsXuXeXeX2XbX;XZ X . + @   w 3XaX4X4XaX4X4XrX,X:XiX4X,X,X4X2X2X:X>X8X:X,X,X<X*X$X-X5X3X:X:X2X:X:X:X:X:X:X:X:X,X:X:X:X,X,X:X:X:X:X:X:X:X4X:X:X>X>XyXmXaX>X+XV.M.M.E. X+XfXtXyX2X2XiXiXrX2XiXiX:X:XrX8X2XiX2X2X2XrXrXrX4X4XrXiX:XiX:XrXrXiX0X:XrX,X,X,XiX4X2X2X4XiX:X9XrX",
"dXbXbXbXBXmXdXbXbXbXbXbXbXbXbXbXbXnXtXyXyXvXuXyXyXyXyXyXyXsXiXiX2XmX2XK X @ > 1 @ . 4 ;X:X0XiXeXaXrXrXeXrX:X2XiX:X9X2X5X4XrX0X:X2X2X>X:XiX8X9X9XrX:X:X:X:X2X:X2X:X:X:X2X:X2X:X2X:X:X:X2X,X:X:X:X:X,X:X2XmX3X XK 4 $ .   .     O - M.>XaX,X:XrX8XrX:X:XrXiXrX4XrX:XrXrX0XrX2XrXrX:X8X2XiXrXiX:X4XrXeXrXrXeX9XeX8X2XiX4X2X8X0X0X0X",
"rX2XrXeX2XeX2X2X2X3XyX2X2X3X:X2X2X2X2X2X4X2X2X4X2XrX2X:XyX:XiXrXiXiX%X% $ ; 1 i , o %  XsX8XiXrXiXiXiX8XiXiXiX,XrX3XrXiX:X:X:X8X2X2X3X9X2X3X9X2X2X3X2X3X9X2X3X9X2X2X2X2X3X:X2X2X:X2X2X2X:X2X2X4X,XrX3X3X%Xn $ X $ ; 5 6 D G D 3   . K >XuX8X8XrXeX8XrX8XiXiX4X5XiXrXiX2X2XyXiXrXrX2XrXiXrX:XiXrX0XrX4X8XiX:X4XrX2XrX2XrXrXrXrX:X",
":XiXrXiX4X2X4X2X2X2X4X4X4XrXiX8X9XrXrXrX8XrX:X2XiX>XiXrXrXrXiXiX0XyXE.X + , b 1 5 * . M.mXdXtXeXtXyXuXdX8X:X:XrXiX2X:X>X,X:X:X8X:X:X2X:X2X:X:X8X:X8XrX8X,X8XiX:X:X:X:X:X:X:X:X:X>XrX:X:X:X2X:X:X2X2XaX X% X 3 R |.OXzXzXxXDXDXOXD O . K 9X9XiX8X0X8XiXrX:XiX8XrXiX8X2XiXrX:X2X:XrX8XrX:XrX4X2X8X2X2XrXrX2XrXrX8XrX2X0XrX4X:XiXiX",
"rX9X9X9X8X9X2X2X2X2X2X2X2X:X:X8X:XrX9XeX9X:XeX>XrX2X3XrXrXiX>XrX3XbXP o : 1 1 2 , @ X J ;Xb.0 w w Z W  XeXbXeX>X3X2X2X3X,X:X>X8X>X>X:X>X2X3X>X3X:X>X>X>X>X:X:X>X>X2X>X2X:X:X:X9X>X9X>X9X>X>X3X3XyXvXM.% X D OXDXDXDXDXDXSXxXSXxXzX! O . P dX8X0X,X4XiXrXiXaXsXuX9XyX3X2XrX:X:XiXrX,X2XiX8XrX8X2X2XrXiX2X8XrXrX4X2X8X8X4XrX8X:XrX",
"bXbXbXbXbXbXbXNXbXNXbXnXbXNXbXbXbXNXbXbXbXMXNXbXnXMXNXNXCXCXAXCXCXCXl . > b 2 1 5 o . 4 4 .           % K nXMXMXMXMXbXvXNXbXNXnXNXNXNXNXnXnXbXnXbXNXNXbXbXNXnXbXnXnXvXnXnXnXtXnXnXbXuXyXtXtX3X3XnX+X% X A zXDXDXxXIXDXDXDXDXxXxXDXzX(.O X  XuX0XiXrXaXmXuX;XM.K x %XaX2XiXiXiX:XrXrXrX:X2X2XiXiX2XrX:XrXrX4XrX:X2XiX2XrXrX4X2XiX",
"GXJXGXGXGXHXGXLXLXFXLXLXLXGXGXGXLXHXLXLXLXLXLXLXGXZXPXFXOX~ }.|. X}.7 o : > > 1 , @ # X o 2 B ].).Y M @ . W LXLXHXHXLXPXLXHXLXJXHXGXHXHXHXFXHXJXLXGXJXFXJXGXGXGXFXFXHXKXFXFXFXGXFXZXKXKXKXVXFXKXKXL   , OXJXzXzXhXOXjXOXXXOXOXkXxXDXhXD   4 ;XBX9X;X XB.z t z M.%XrXrX2XiX:X:X4XrXrX4XrXrX2XrX:X8XrX2X8XiX2X8XiXrX2X8X2X8X4XrX8X",
"HXHXHXHXHXHXHXHXHXHXHXHXHXHXHXHXHXHXHXHXHXHXHXPXHXPXJXL O   . o + . . o @ @ 2 1 , # o . 1 lXIXlXgXhXgX].: $ zXPXHXPXJXHXHXJXHXHXHXHXHXHXJXHXHXHXHXHXJXHXHXJXHXHXHXJXHXJXHXHXHXHXHXHXHXHXHXHXHXHXZXj   C OX(.I m 7 ; + . + + , S jXxXJXoX3 . P  Xc w w z Q.;XyXsXaXeXrXeX2XiXsX:XrX,X8XrXiX8XrX4X4XrX2XiX2X8XrX2X:XiX2XiXrX4XrX2X",
"LXLXHXHXLXHXLXLXGXLXLXLXLXLXGXKXHXHXLXGXHXGXHXJXLXLX;X3   ; > > @ @ # @ @ > 2 2 , @ o < oXIXlXgXgXgXgXoX5 + 4 (.DXPXLXJXFXFXLXKXGXFXFXFXFXFXFXFXFXFXFXFXFXKXKXFXFXFXFXFXFXFXFXFXZXZXZXZXFXVXVXVX;XO . 3 ,     . ; , v m M 1 > o # (.xXDX! X O 4 b.Q.;XeXyXaXyXrX2X2XiXaXrX:X:XiXrX8XrX4X2XiX2XrXiX:X2X8XiX2X4XrXrXrX8XrX2XrXrX2X",
"VXVXMXVXVXMXVXVXVXMXMXMXNXbXnXNXbXbXbXbXbXbXNXbXbXNXOX% . , b b b 1 1 , 1 1 1 < > @ o F lXIXgXgXgXgXgX).5 o . . 6  XMXMXnXvXnXnXnXnXnXnXnXnXnXnXnXnXbXnXnXnXnXnX3XnXnXnXnXnXnXnXnXvXvXnXvXvXnXtXN.X $ + + m ! |.OXXXoXoXoXoX'.i . 3 OXJXXX$ $  XAXBXyXeX9X9X:X9X2XiXiX>XrXrX:XrXrX4X2XrX2X8X2X8X2XrX2XiX:XrXrX8X4X:XiX2XrXrX4X2X",
"eXrXrXrX2X2X2X2X2X2X:X,X8X:X4X:X2X2X2X3XeXeXtXtXeXyX%X4 . * 1 b 1 1 1 2 2 2 2 , > . @ ).lXgXgXgXgX{.{.M * o = o   #  XnXtXvXnXvXtXnXfXnXtXeXfXnXyXtX3XvXyX3XtXvX3XyXtXtXyXyXyX3XeXfXuXuXyXvXnX+X% . @ I ].OXIXPXOXY OXgXgXkXlXY.: + ! DXhX5 . D %X%X;XuXuXmXbXtXbXbXbXbXbXbXbXbXnXmXbXnXvXnXbXbXvXvXbXvXvXvXvXvXbXbXvXbXvXvXmXbX",
"rXrX:XrXrX8XrX2XrXrXrXrX2X2XrX2XyXaXmXbXbXBXBXCXCXAXMX0 + @ 1 b 1 1 1 2 < 2 2 2 , O + Y gXgXgXgX{.[.Y M o o a a = . 4 NXLXFXVXLXFXCXKXCXKXKXKXCXVXKXKXKXFXFXFXGXKXKXLXGXFXFXJXFXLXZXJXLXKXLXVXZ   , ].gXgXlXoXoXD oXlXIXlXIXIX{.5   6 zXzXv + $ X O - |.AXLXAXLXGXKXKXKXGXGXLXGXKXZXZXKXKXZXKXZXZXGXZXGXKXGXZXFXZXZXKXFXZXLXKXZX",
"4X:XrXiXrXiX2X0X2XrXrX4X2X2X2X2XyXyXsXbXBXBXBXVXVXVXVXG + @ 1 b i 2 2 2 1 > > 2 , @ $ F {.{.{.{.).).I > o y g N a . o |.LXVXZXVXVXKXFXKXFXCXKXKXKXKXKXKXKXKXKXKXLXKXKXKXFXFXFXFXKXLXJXVXKXKXcXO o F gXlXgXoXm . ^ IXIXIXlXlXUXY.v . 5 hXxXD + : 5 %   # ;XLXKXAXKXAXZXKXKXKXLXZXZXKXKXKXKXZXKXKXKXKXKXKXFXAXKXFXKXKXKXKXKXKXZXZX",
"2X4X2X2X,X8X:X:XiX4XiXrXiXrX4XrX4X2XrXrXyXeXeXtXnX3XnXZ + @ 1 b 1 1 2 1 2 > > 2 : + . m Y Y ].Y I I b + o s N g , o   B.VXnXfXvXtXvXtXtXtXvXtXyXvX3XaXvXvXyXvXyXmXvX2XyXvXyXyXyXvXtXtXvXNXmX XX . F '.Y M 5 : . b ).].{.gXgXoXY.5 + 5 hXSXY + 5 hXjX5   T VXcXuXyXvXyXyXaXvXaXyXvXmXvXyXvXmXyXvXbXyXbXyXvXvXbXuXyXbXvXbXbXvXbXvX",
"iXrXiX2X:XiX8XiX2X4X,X8X,X:X,X:X5X5X4X4X2X:X2XrX2X3X;Xq . @ < i 1 1 2 1 2 > > 1 : @ $ , V F G I S 5 o o p d d s o o 6 0 ;X2X3X4X2X2X4X2X2X2X4X2X8X8X9X:X:X>X3X>X9X9XrX9X>X:X:XrX>X2XyXyXvX3XC.$ # : : @ 1 v 1 ; ].].I B {.gX[.Y 1 + v zXSX).+ v hXDXI   0 3X2XrX2X2X>XrX:X:X9X2X:X:X8X2X2X:XrX2XrX2X2X2X:X9X:XrXeX2X2X2XrXrXeX2X",
"iX2XrX8XrXrXeXrX:XrX2X2X8XrXrX2X,X:X4X4X,X2X2X2X4XaX>Xw . @ 1 1 1 2 2 2 2 > > < @ O X o @ 8 # # + + o u g d N u o o k X P vX2X5X2X2X2X2X2X2X2X2X:XrX:X>X2X2XyX>XrXrX:X2X2XyXrXeXsX2X%X XP 4 $ + $ , Y [..X{.].M I gXgX{.{.].Y I ; + `.DXzXI + ; OXxX(.+ % %XpX2XrXiX8X8X9X0X:X2X8X8X:X8X0X:X9X8X9X8X9X4X8X:X8X8XrX2X9X8X9X:X2X2X",
":X8X9XrXeXeXtXtXeXeXeXtXeX3XeX3X3XeXeXtXeX2X3X2X3XyX;X4 X @ 1 i 1 1 2 1 > > 2 2 @ o = = o o . o @ > g g d d g = o 7 P P  X3X2X:X2X2X2X3X2XeX2X2X2X2X2X2XaX4XiXaX:X:X:X8XmXvX>X%XM.Z % X & 0 W 4 + ; ).{.oXgXgXgX{.oX{.].).I I , . 6 OXDXzX! + $ _.oX(.+ $ ;XyXyX2X3X3X2XeX2X3X2X2XyXrXeX2XeXyX3X2XrX2X3X2X2XrXrX2X2X2X4X2XrX4X2X",
"8XeXuXdXmXbXbXBXCXBXCXMXCXCXCXCXMXVXMXBXNXMXMXBXmXnX;X4 . @ 1 1 1 2 2 1 2 > 2 > @ o i g p u u p f s g s d d g = X b.CXsX2X2X2X2X2X:X2X2X:X2X2X:XeX>X3XtX>X%X%XeXiXsXeX;X XW 6 X X % Z M.;XcXVXQ . . 2 M ).).(.(.].).Y Y I b 5 + @ |.DXDXhX).: ; (.jX).: + +XCXVXMXMXBXMXMXMXMXMXNXMXbXNXMXMXbXMXbXMXbXMXMXMXMXMXMXBXMXMXMXMXMXMX",
"8XyXuXbXmXCXBXCXBXVXBXVXVXBXVXBXVXBXBXBXMXCXBXCXuXrX%X4   > 1 1 1 2 2 2 2 2 , : o = g g d d d d d d s d d g u o $ w Q.sX2X2X3X>XrX2X:X4X4X4X3X2X2X:XyX3XB.- - b.+XB.k % . . 3 R oXcXLXLXLXAXKXGXR . . 8 5 5 5 5 5 5 5 ; ; +   ; }.xXxXSXhX).: : )._.(.: : +XHXHXFXFXJXGXHXLXLXLXLXLXHXLXLXGXLXLXLXLXLXLXLXLXLXPXLXLXLXLXPXLXLXLX",
":X:X8X2XyX3X3X3XeXtXyXtXtXyXeXtXrX3XtXyX3XyX3XtXrXuX%X- o > 1 1 1 1 1 2 > , < @ o < N d d d s s d d s d d g u o 8 % &  X2X2XrX:X5X>X:X:X>X>X:X:X4XaX3XK .   . X O X & 0 W +XVXLXLXLXAXAXAXAXKXAXLX~ $ + @ + . + + + + + + 5 / OXxXDXSXzXjX).: : ).jX[.; + XXPXLXGXFXGXKXGXLXKXLXLXLXLXLXLXLXLXLXHXHXHXHXLXHXHXHXHXHXHXHXHXHXHXHX",
"0X:X8X4XrXrXiXrXiXiX4X4X4X2X2X4X2X2XrXrXyX4X2X2XiXaXQ.O @ 2 b 1 2 1 1 2 > > , @ o u N d d d d s d d d d d d = . 3 J E.>X4X4X2X:X>XiX2X3X3XmXmXsX3X%XW O X o o o . # B.nXMXMXnXbXnXuXNXBXnXnXnXvXCX+X$ # G (.Y U ! I (.(.XXhXxXDXSXkXSXkXjX(.: : )..X[.5   _.KXMXVXVXVXVXVXVXVXVXVXNXVXMXMXVXMXVXVXVXVXVXVXVXCXMXVXVXVXVXCXVXVXVX",
"8XrXrXrX8X8XrX8X2X2XrX2XrX2XiXrX8X8XrXrXrXrXrXrXaXaXM.. + > 1 , 2 , 2 > > 2 > + o i d d d d d d d d d d d g = . N.NXbXiX3X4X:XyXeXuXyXaXyX3X XB.0 % O   = h < > @ + 4 +XvXvX3X9XeXyXeX8X3X2X3X3X3X;X% $ ~ DXDXDXDXDXDXDXxXSXxXxXSXSXDXhX.X(.; : I .X_.v . C.vXvXeX2XeXeXrXrXrXyXyXyXyXyXiXyXyXeXrXaX2X2X4XyX2X2X2X2X2X2X3X4X2X2X",
"rXrXrXrX8X0X:XrX2XrX2XrX2XrX2XrX8X8X8X8X2XrXrXrXaXyXb.X X @ @ @ # # * > 2 1 ; + = g s s s d d d d h d d d g * X 4 E.;X,XaX2XaXuXmX3X;XE.J l = o % 4 o o h c y u < o X q 3XyX2X5XyXiX4X4XaX2X5X4X5X3X0   G DXxXxXSXzXSXSXSXzXzXSXSXzXSXgX.X(.; : Y .X[.v   B.mXrXiXiXiXiX4X4X4X4X,X0X4X4X4X4X5X4X2X8X8XrX2X2X2X2XrX2XrX2X8XrXrXrX",
"2X2X2XaX2X0XiX4XiX4XiX2X2X2X4X2X4X2XrX4XaX4X2X2XeXaX Xq % . . . o + + @ , 1 # $ * i s s s s d d d d d d s g * o j - w >XuX3X3X XB.l 4 O O o 4 Q  XW O o h h y y y o X O  XMX2XBXmXyXyXvXvXmXvX4XaXmXK X m zXDXzXzXSXSXzXSXSXSXSXzXSXSXjX.X(.: : ).jX(.; X M.mX4X8XrX8X8X8X8XrX8X8X8X8XrXrX8X8XrXrXrXrXrX2X2XrX2XrX8X8X8XrXrX8XrX",
"uXyXyXyXuXyXyXyXyXyXyXtXtXtXtX3XyX4XrXrXaX2X2X3XyXaXaX3X%X|.B.Z % . @ * > > @ O # 1 i i g s s s d d d d d g = + 6 k E.%X XL 7 - o % 3 H Q O 4 ;XBXM.X o y y y p h y   $ _.vX;X_.B.P K b._.%X3XvX3XbXN.X 6 hXDXzXSXzXzXSXSXzXkXSXSXSXSXjX.X(.; : (..X(.: # +XmX0XeX8X8XrXrXrX8XrXrX9X8X9X9XrX9X9X0X2X2X,X0X4X2X4X,X4X4X,X,X4X4X,X",
"AXAXAXAXCXZXZXAXAXCXCXCXCXBXCXCXBXCXBXBXBXMXmXmXBXmXmXmXBXBXBXeX6 + @ 1 1 > . # $ * * i i i s f s d d d d g * X ; l L 4 X O = 7 a O 6 cXdXw w J sX X. o y y 2 p h a = . J J w $ X . . X & % K +XvXvX X$ 8 OXDXDXzXSXSXzXzXSXSXSXSXSXlX.X.X(.: : (..XI   4 3XyXiX2XiXrX:X2X:X2X,X4XiX4XiX4X4XiX4XrX2X2XrX2X2XrXrXiX:XiX2X2X4X4XrX",
"uXdXmXbXbXbXdXbXyXaXbXaXsXvXmXyXaXyXyXaXyXaXyXyXrXsXrXiXrXyXsX%X% o > 1 1 + + # @ o o o * < u i i f f f s B * o # 5 < * * # }.nX X4 6 Z |.6 7 % Z E % o < a y y h c = O O o o + = = - = o o . - B.vX+X% $ (.zXSXzXzXSXxXSXSXzXzXSXDXgX[..X(.; + (._.5   C.nXtXiX2X4XiX4X2X0X4X2X4XiX2X:X:XiX2X2X,X:X0X2X8XiX,X:XiX4X4XrX0X2X2X,X",
"eX2XeXeXrXeX3X2XyXrX2XeXrXeXrXeX2XrXrX2XrXrXrX8XrXrXrXeXrX2XaX%X- . , 1 > # > a 1 1 @ o o o O @ 2 2 p p p g u o O $ O O 3 4 W N.0 % O X X   @ . . O 3 o o u p y h a o o = = y 2 h c c h u , @ X &  X%X% $ ).jXhXSXSXSXzXSXSXSXSXDXkX.X.X.X(.; + 5 5 . 4 %XtXrXiXiXrXrXrXrXrXrXiXrXrXrXrXrXrXrXrXrXrXrXrXrXrXrXrX8X2X:XrXrXrXrX2X",
"4X4XrX2X4X2X4X2XrXrXrXrXyXrXrXrX:X2X8X2X:X:XrX:X:XrXrX2X2X2XrX;X4 X * > @ o > a i i i 1 * + X $ . * u i p s a = o o . o O . o     o o = = = < u o O 0 % o = < y y y = > y h y y y h h y y u @ o X  X%X8 : )..X_.hXlXDXDXSXSXSXSXSXjX[..X.X(.; $ $ . X C.yXyX>X2X8XrX:X2X:X8XrX8XrXrXrX8XrXrXrXrXrXrX8X2X:X:XrXrX:XrXrX8XrXrXrXrX",
"iX,XiX,XiX2X0XiXrX2XiX2X2X2XrX4XiXrXiXrXiXrXiXiXiX2XrX,X2XrXrX2Xk . + @ @ . . : > 1 a i a 1 o o @ 1 B g s N N g u u < < < < < y u p a g N N g g # . W Q O o o = p = * u p y y f u y y u < > o X w %X%X% : )..X.X.XjXhXzXlXSXSXkXjX.X.X.XjX(.# $ W M. XaX2X2X2XaX8XiXrXrXrXiXrXrX:X9XrX:XrX:X2X2X4X,XiX5XiX5X4X4XrXrXrXrXrXrXrXrX",
"8X8X:X8X:X8X,X8X:X:X8X:X:X:X8X:XrX,X4X8XrX2X:XiXrX:XiX4X2XrXrXaXB.      % J w . . + > < > 2 > o @ , < u p f f s B B f B f B f N s f B f f f s u $ X _.vXK O . @ = < u u y y h y p y y = # . X Z +XnX+X% : M [..X[..X[.[.jXjXjX[.[..X.X.X.X(.$ % %XmX5X>XaX2X2X2XiX:X,X2X4X2X0X:XiX4XiX4X4XiX4XiX:X4X2X2X4X2X2X2XrX:X2X2X4XrX2X2X",
"8XrXrXrX8X9XrX8X0XiXiXiXiX0XiXiXrXrXrX2XrX0X8X2XrX,X4XiX:XrX2XsX;XK w w B.bX;XB.0 & . @ o > a * @ @ o o > p p p p p i p i p i p p p i i i p i < + X B.BXfXB.% X * i u o o o = = = o o .   0 B.3XtXtX%X4 + v .X.X.X[.I 5 ).[._..X[..X.X.X[.! $ & ..f...L.<X0X8X9XrX0XrXiX2X2X2XiX4X2X2X2X2X2X2X2X8XeXeX2X9XrXrX3XrX4X4XiX2X4X2X2X",
"4XrX2XrXrXrXrX8XrX2X2XrX2XrXrX2X8X4X8XrX2XrXrX4X8XrX8XiX:X4X9XrXyXyXeXfXeXuXvXmXtX XP O o < a m * O @ @ > i i p i i i p i p i i i i i i i p i 3 O O +X3XMXfX0 X = < < . . o   .   # $ % J ;XbXyX3XtX3X4 + S .X.X[..X[.v : ; 5 v ).[.[..X.X).$ & { { S.$XiXeX9X9XrXyXyXyXeXrXeXeXrXyXeXyXrXrXrXeXiXyXrX2XrX2XyX2XeXrXrXrXeX2X2XrX",
"2X4XrX2X4X4X2X4XrX4X8XrX4X8X2XrXrX2XrX3X2XrX2X2XrXrX2XiX2XrXrX8X5XmXBXNXdXdXbXmXmXAXfX4 . @ , 2 @ o , 1 i i i i i i i 2 u 2 u i u i i 1 i p i <   Z MXCXCXCXP   o O o o E +X|._.E.|.|.fXVXVXBXbXBXBXVXZ . v .X[..X[..X).: + : + I .X.X.X[.I $ t  X-XpXBXVXVXCXBXBXBXBXmXBXBXmXBXBXBXmXBXBXBXBXMX5X4X4X,X,X,X5X5XmXBXBXbXBXBXbXmX",
"5X0X4X,X8X4X:X0XiXrX4X2X2X2X:X4X8X8X8X8X8X4XrXiX8XeXrX8X8X8XeXiXrXiXiXaXaXeXuXeXaXaXbX X%   . . X + * i i i i b p i 2 o o . $ # # @ @ * u i i @   K dXiXiXuX%XB.z 4 & - ;XBXMXbXnXmXmXaXdXdXmXmXmXmXbXL . 5 '..X.X[..XI @ X & . M .X.X.X[.I : - %XmXmXvXmXvXvXnXbXbXuXuXuXuXuXsXMXvXmX5X1X$XP.G.f.f.u.u.u.u.t.f.!.pXeXuXuXyXuX8X",
"9XeX9XeX8XiXrXrX:X2X8X8XiX8X9X8XiX8X8X2X4XiXrXrXiX2X2XiXiX0XiX4X3XyX2XaXaXiXiX:XrXyXuXtX+XP q 0 4 . @ i i i p b i i > o % Z j O . = < i i i i @ X P yX>X>XeXyXtXeX;X X X:X:X>X>X>X>X>XyXrX:X>XrX5X,XsXQ.X ; (..X[..X.XM $ & t $ v [..X.X[.v + n 3XvXeX2XeX2XyXiX0XpXsXiXpXpX1X6X#X~.G.S.t.) 4.:.,.o.5.8.o.@.5.X.m.6X0XeX>XrX0X8X",
"2X2XiXiXrXrX:X:XiX5X2X2X:X8X8X8XrXyX2X9XrXeXeX8XyXyXaXyXuXsXiXeXuXyXyXyXeX8XrXiX9X8X:XrXsXmX2XyX XO @ i i p i i i i >   0 nX+X% o < i i i i i o O  XiX0X8X>X3XrX8X8XrXiX:X>X>X2X:X:XeX3X2X4XeX9X>X5X5X-Xt . I .X[..X.Xv $ 9 9 X : [..X.X[.v X C.sXpX<X<X1X=X*X*X&X#X^.!.P.F.S.u.6.4.5.>.>.<.<.+.#.#.2.1.<.$.8.t.&X5X4XrXiXaX0X:X",
"5X4X4X2X8X3XrXsX2XrXrXaXaXiXiXiXpXiXiX0X0XqXwXwX1X1X1X=X-X-X*X*X=X-X*X*X*X=X,X5XrXrXiXiX>X5XaXpX+XX + 1 i i p i i i * . 0 3X XO @ 1 i i i i 1 + O %X8X>X0X:X:X:X>X0X8XiX:X2X:X:X,X>X:XeX2X4XrX8X,X!.S.f.t . 5 '.[..X(.3 X ( ( & : )..X.X(.5 & m.~.G.A.Z.f.f.t.u.t.q.4.4.:.:.o.o.>.>.1.#.2.1.1.9.8.@.1.1.2.#.r.P.5XpX:XrX4X5X:XiX",
"tXeXyXrXiXiXaXiXpXqXqXqX1X*X*X*X&X#X!.!.P.P.G.G.A.A.g.f.u.t.t.u.t.t.y.u.u.d.S.L.:X4X4XiX4X2X2XsX%X% @ 2 i p p i p i * X 0 uX+XO @ 1 i i i i 1 + 4 ;XsX>X,X:X4X,X2X2X2X>X:X2X3X2XrX2XeX3X3X4X1X&XF.q.=.%.[ & X v [.[.I : & X.) & + M _.jX(.: & { 7.:.>.o.+.2.@.@.1.1.1.1.#.$.2.$.1.2.#.*.*.#.@.@.8.5.1.9.$.%.Z.6X,XiXrXiXrXiX:X8X",
"qX1X=X*X&X#X!.I.J.G.F.g.f.u.t.t.6.7.7.4.o.5.>.o.o.:.O.@.&.@.@.@.$.#.#.%.t.S.K.*X4XaX2X2X2XrX>X:XfXw . 2 i i i i i i @ X K bX3Xq . > i i m i > . P 3XiX,X4X>X:X,X2X>XyXrX2X2X3X2X>X:XeXsX4X*XJ.u.5.#.;.0.{ 9 X X : b ; $ 9 4.,.( $ : D I 5 $ t { #.@.#.#.$.2.$.3.<.2.2.3.1.<.1.1.#.3.#.2.2.@.1.8.1.1.1.1.O.h.@XiXiXrXrX9XrXiXyX9X",
"A.g.f.t.t.w.5.>.:.>.,.1.#.+.@.$.1.2.#.@.#.#.;.-.1.#.#.3.2.@.o.o.o.w.f.G.$X1X,XiX4X2X:XiX8XiXyXiX2Xq   > i i p i i < @ . b.bXmXQ.O   o o O o   3 ;XtX>X2X:X2XrX8X2X>X:X4X:X:X2X2XrXiXpX*XP.u.:.8.%.5.w.j.D.f.9 t & X & t [ 4.9.S.9 & $ $ $ & X.%.1.3.1.@.1.1.1.+.1.1.1.1.1.1.1.1.,.1.,.>.1.1.>.1.-.2.2.#.w.I.<X5XaX2XiXiXrX:X8X4X",
"@.o.1.1.<.+.+.<.,.1.>.>.1.1.>.@.1.1.1.1.1.1.>.1.#.3.1.#.o.>.7.h.G.~.=X<XiX8X8X8X2XiX,XiX:X:X8XiXmXK   o * < < > * o . % +XaXyXaXV.q 0 q q q z +XvX2X2X2X2X2X2X9X:XiX>X0X:X0X:XiX4X=XK.t.%.>.,.X.y.D.J.g.%.O.=.X.( ( ( =.8.3.$.0.{ 9 & & & ( r.;.>.@.1.1.@.1.9.8.8.1.8.1.&.#.@.@.#.@.1.@.1.&.#.;.-.:.4.X.A.=XeXtX4X4X,X8XrX9XiX4X",
"1.1.@.3.#.#.9.8.1.1.1.1.1.@.1.+.$.1.:.0.2.#.+.1.<.1.$.8.u.H.@X1XwXpX:XyXeXiX8X8XeX2X4X2XiX9X0X:XaX%Xz % X .     . . k +XmX2X2XaXbXaX2X3XeXyXaXsXrXrX2XiX2X:X9XrX4XeXrX9X0X0XwX#XH.t.5.+.+.,.t.D.I.j.w.,.,.1.$.2.2.2.1.1.1.2.1.1.7.5.%.) ) 7.1.2.#.1.<.#.1.1.@.1.1.1.@.+.1.@.@.@.>.1.<.<.<.+.8.>.t.g.S.I.&X,X4X4X8X4X2X2X,XrX4X2X",
"8.9.1.1.1.1.@.1.1.1.#.1.@.1.1.@.1.1.1.1.+.1.1.8.2.>.t./.1XqXiX,XiX:XyXyX5X<X-X>X9X:X,XiXiX2X:X5X,XmX3X;X XP K K P  X>XmXaX2XiXiXyXyXyXyXeXeXeXrXrX2XrX4XiXrX4XiXaXrX0XqX*XP.g.r.,.0.o.o.q.g.~.D.y.7.:.>.1.3.@.#.1.1.1.2.1.1.@.2.9.8.o.5.1.0.2.$.@.1.1.@.@.1.#.1.@.1.1.1.1.@.1.+.;.@.<.1.+.) A.#X=X<X5X5X5X2X4X4X4X2X4XrXiX2XrX,X",
"o.1.1.2.2.1.1.1.1.#.1.@.1.1.@.1.>.<.*.2.+.2.>.o.6.G.&XwX8X8XyXrXvX2XsX=X#XG.v.-XiX0X,X4XrXrXrX4XeXeXtXmXyXyXdXmXsXsXpXpX5XpXsXiXiXiXiXiXsXsXiX0XiXyXiXrXyXiXpXiX,X*X!.F.u.5.,.,.-.$.5.f.^.&XJ.) =.&.1.#.+.1.1.9.@.1.1.@.1.1.1.@.$.2.*.9.2.2.3.$.1.1.1.1.1.@.1.1.#.1.1.1.#.@.@.@.#.1.2.+.7.P.1X1X^./.>X4XyX8X:X:X4XrX2XiX:XiX:XrX",
"3.<.@.@.>.1.1.1.@.2.1.1.#.1.@.+.8.@.-.1.1.1.O.t./.=XqX:XrXrX2XiX2X<X&XA.r.) G.<X4X:X:XrXeXyXrXyXiX4XpX,X1X1X=X*X&X&X@X@X^.!.!.!.^.!.^.^.^.@X^.@X&X&X&X*X*X&X#X!.A.u.%.O.1.3.<.1.O.t.H.=X1XG.4.9.&.#.2.#.3.1.1.1.1.1.@.1.1.1.@.1.1.1.1.2.2.3.1.<.1.#.@.1.1.1.1.@.1.1.@.@.1.<.1.1.<.2.8.q.J.*X~.u.4.f.-X2X8XrXiXrX2XrX,X:X4X2X4X2X",
"$.e.*.*.o.>.>.,.@.1.1.1.1.1.@.+.1.#.@.<.2.@.t.P.8XiX0X:X2XrXpX5X&XA.r.5.:.t.$XsXeXyXyX4X8X<X<X1X#X~.J.A.g.h.f.u.t.q.7.4.4.4.7.7.5.5.4.4.4.4.4.5.7.q.q.t.t.t.q.%.>.@.1.1.2.9.@.5.S.$X0X1XP.%.#.2.1.1.+.#.1.1.#.o.+.1.1.1.1.1.1.@.1.8.1.9.1.1.1.1.#.1.1.@.#.@.1.1.@.1.1.1.1.@.@.2.3.@.5.D.#XP.) r.J.@XpXrX8X,X,X:X,XrX4X4X,XrXiX2X",
"7.7.{ { _ X.) :.1.1.@.#.1.@.@.1.#.1.>.1.2.o.F.wX:X:XeXeX9X0X&XK.6.8.=.5.g.^.qXrXuXpX5X6X#X!.G.f.r.4.7.O.9.O.+.8.3.@.@.2.9.3.#.;.2.1.#.1.#.#.1.<.@.<.@.+.+.3.2.e.3.+.+.2.#.%.f.P.<XpX*XA.7.8.2.+.1.1.>.1.@.1.3.1.1.1.#.1.@.#.1.1.1.1.2.1.#.1.8.1.1.1.@.<.<.1.1.@.1.1.#.1.1.1.1.@.2.1.5.j.i.X.| ~.iXsX5X6X6X!./.<X2X2XrX2XrX4X:X2X",
"9 9 t t t ( X.1.+.1.1.1.@.1.1.@.#.1.>.1.@.t.!.sX2XiX9X8X<X^.h.X.8.&.0.G.-XqX,X1X&X^.G.u.t.7.4.o.>.>.+.+.1.2.1.@.1.1.9.<.<.1.2.1.1.1.1.1.1.1.1.1.1.1.1.1.<.+.@.1.3.2.1.@.5.A.@XpX*XP.t.%.>.1.@.1.>.1.8.1.1.1.#.#.1.#.@.1.1.1.#.1.#.#.1.#.1.#.@.#.1.@.1.1.1.1.1.#.2.#.@.1.@.2.1.1.0.5.5.O.>.g.#XwXpX$XG.g.y._ H.5X:XiX4XrX2X4XrX4X",
"0 7 w q ` { 5.;.1.1.@.1.1.1.1.+.1.1.@.#.,.A.<XeXrX:XsX1XK.r.o.#.#.=.A.5XuXeX&XG.6.:.O.@.=.@.@.@.1.1.<.2.<.1.1.>.*.@.@.1.1.<.1.1.2.@.#.#.@.1.1.1.1.1.#.1.8.2.1.>.@.@.O.t.P.1XpX$Xj.4.o.9.#.#.1.>.9.@.@.9.@.1.+.1.1.1.@.1.@.+.<.1.1.<.1.,.>.<.1.1.1.1.#.1.@.@.1.1.1.@.1.1.@.1.@.@.-.@.O.f.P.*X=X*XK.f.O.3.<.X.!.5X4XrX2X,XrX2X4X2X",
"D C z ' 7.3.$.<.>.>.1.2.#.9.@.O.>.+.-.1.{ #XpX2X2XpX*XD.5.>.1.8.#.w.#X8XsX~.y.4.1.@.1.1.3.1.2.2.1.1.1.1.>.1.1.9.0.&.*.@.2.2.<.<.#.1.>.,.9.1.1.1.2.@.$.2.+.+.:.,.o.t.G.-X5X*XG.w.+.@.1.8.1.9.1.2.#.#.#.@.#.#.1.1.1.1.@.8.@.1.@.+.@.1.>.@.1.@.#.@.#.#.#.@.1.1.1.1.2.<.+.3.2.+.o.O.{ g.I.~.J.f.h.t.:.O.-.#.) G.6XrXeX4X2X2XeXeX0X,X",
"C x } 7.9.2.1.8.1.9.2.1.2.+.+.@.+.e.#.O.G.<XaX2XeX=XZ.4.&.1.2.2.,.t.&XqX@Xf.o.,.@.1.#.1.1.1.1.1.9.1.1.@.1.2.1.1.1.1.9.1.#.1.2.1.@.0.0.1.5.>.,.:.o.o.5.5.6.f.h.F.!.*XpX1X~.S.7.:.<.,.1.1.1.1.1.<.1.1.1.1.1.1.#.1.#.1.#.+.@.#.2.3.#.1.+.@.@.+.<.@.1.>.>.1.1.1.2.#.o.1.1.>.:.r.g.J.^.~.J.t.4.8.>.*.1.2.+.) F.=X,X2XrX0XaX4X:X8X9XiX",
"e } 5.-.*.&.&.>.2.+.+.<.<.+.1.+.8.%.4.f.&X4X>XaX1XF.%.=.0.1.+.e.#.| &XqXH.X.1.2.@.1.1.1.1.1.1.@.#.1.1.1.1.1.1.@.<.<.<.3.1.o.5.w.G.I.~.~.^.I.P.H.K.K.L.!.#X=X1XqX<X&XP.S.6.o.@.#.1.1.1.*.1.1.1.3.#.@.1.>.1.1.1.+.:.1.1.1.1.1.1.@.#.1.1.1.1.1.#.1.<.<.2.9.2.+.o.@.7.6.f.F.!.#X~./.g.q.>.2.#.@.#.1.3.1.6.J.=XiXiX2X8X:X,X4XiXrXrXrX",
"{ 5.#.1.>.8.2.<.<.1.<.1.>.>.t.A.I.I.!.-XpX4XpX<XF.5.*.9.,.1.1.1.=.u.*X#Xt.,.1.,.@.1.@.1.1.@.1.1.1.1.2.#.@.1.8.9.2.1.1.1.w.g.D.D.A.F.Z.S.A.G.~.&X1X6X6X=X1X&X$XL.S.u.=.+.@.8.9.2.&.1.@.*.*.2.1.1.1.+.@.<.1.>.1.#.8.@.@.2.2.@.@.&.1.#.#.1.#.1.1.1.1.#.+.@.>.7.t.h.P.~.&X#XP.h.h.,.5.>.1.2.1.<.2.,.1.7.K.1XsX3X2XaX9X:XiX8X:X9XiXpX",
">.1.$.1.1.1.1.>.>.1.9.@.t.G.&X1XpX,X0X0XsXqX#XZ.) 8.#.+.<.1.@.O.| K.qX#X6.+.#.8.1.1.@.1.1.@.+.@.+.@.@.#.8.8.1.1.o.7.h.D.J.D.h.7.<.O.O.+.o.o.7.t.y.u.y.f.u.q.7.O.O.O.+.3.2.1.1.1.1.@.9.@.1.1.1.1.8.@.#.2.1.1.@.*.2.#.+.<.1.1.>.1.#.1.1.1.1.1.+.1.8.8.9.y.D.J.I.^.J.F.f.r.%.#.$.$.2.0.<.<.1.#.1.,.q.P.=XiXeX5XyX3XyXeXyXsXqXqX&X!.",
"1.2.2.#.1.5._ [ 7.9.%.u.^.0XiXaXuXrX,XqX-XP.f.:.+.@.@.=.1.:.6.S.@XwX=XG.7.+.#.*.1.#.1.1.1.1.1.1.1.1.#.3.2.1.>.5.f.J.I.D.f.O.$.;.3.3.<.$.#.#.<.,.+.+.+.+.+.+.$.-.3.<.>.1.3.e.-.2.#.3.1.1.1.1.>.1.7.8.#.#.1.,.&.9.$.-.1.1.>.8.1.1.1.1.1.1.1.1.1.1.8.9.0.i.i.y.q.:.+.+.#.#.2.1.1.,.<.2.2.e.-.#.4.r.K.1XiXeX4X,X5X:X8XiXqX*X!.F.u.4.",
"1.1.1.8.) ' ` ` 7.X.u.^.pXsX:X1X#X^.P.F.f.4.O.3.2.@.9.%.%.S.^.=X*X~.F.6.o.#.9.#.1.1.@.#.#.@.1.#.1.1.1.$.1.1.0.j.J.g.6.:.<.3.2.$.@.1.1.o.9.9.8.1.8.>.>.5.8.1.1.2.,.1.8.5.,.5.7.5.7.) { { | ..| | q.5.@.#.1.5.5.7.=.=.r.r.) ) 7.w.>.1.,.1.1.1.#.#.#.#.2.9.8.@.#.@.$.1.1.<.1.,.>.1.1.,.1.3.*.O.u.~.wX0XrXeXiXpX,XwX1X#XG.f.) :.@.#.",
"1.,.7.{ ] Z Z x ) f.!.pXqX-XP.Z.t.4.o.o.+.#.e.-.3.5.4.j.D.I.P.Z.u.) >.#.$.9.1.,.@.1.1.<.1.1.1.1.1.1.1.1.1.<.1.i.1.1.@.1.@.#.1.1.1.1.,.1.1.$.$.2.2.#.#.2.3.+.+.<.7.5.:.6.) } d.s.s.p.z.x.l.x.x.x.| 7.8.8.9.5.5.7.[ [ ( ] 9 9 9 ' ,.1.>.1.1.1.#.1.1.>.,.1.>.,.<.1.5.o.1.#.#.3.#.#.1.1.1.5.4.f.^.wXeX8X2XaXrX0XwX/.A.t.4.o.#.#.2.3.",
"7.[ ] K D C z ' S.$XpX1XI.y.8.<.1.@.9.9.#.2.2.1.4.t.D.D.j.>.>.o.$.*.8.8.&.&.1.1.1.#.1.1.5.8.1.2.>.1.1.#.3.@.2.1.1.0.8.9.8.1.1.<.1.1.1.1.1.1.1.1.5.7.4.) | | } s.p.p.z.z.b.b.b.P W W P T T T z.| 9.#.8.) [ ' e q z w 4 0 4 t ( 6.1.8.1.1.1.1.1.1.>.5.1.1.1.1.$.-.3.#.1.1.1.1.#.#.<.+.#.) Z.-XsXeXrX:XiXqX*X^.h.7.@.#.$.#.1.,.1.,.",
"` x k C M 0 e Z.-XpX&XZ.6.o.8.1.@.9.#.1.9.1.>.1.j.D.j.4.,.:.+.#.2.1.1.1.#.3.1.,.>.1.1.&.@.@.@.@.@.@.1.1.@.>.1.5.<.3.1.#.1.2.1.1.#.#.1.,.7.) _ |  . .s.z.l.l.P b.P P E T Q T T E L P E E P l.| <.1.8.) ( e q q q m 3 - r ` [ 1.3.9.1.1.1.1.1.#.3.9.#.@.@.1.8.8.@.>.9.8.1.@.1.1.<.<.O.t.P.1XpX2XsX4XiXwX&XZ.) o.2.#.8.>.1.9.#.+.#.",
"Z V A M m K Q.6XsX^.g.o.$.2.8.9.1.@.@.9.5.>.y.D.D.q.,.0.9.#.*.8.1.1.1.1.#.+.1.1.5.1.1.1.2.#.3.3.2.#.#.1.3.2.&.@.$.$.1.1.8.4.6.q.} | d.s.k.l.l.l.W W W T T T T T T T T T T T W W L L T T P p.) $.o.| ` q j m j j q 9 ( ) 4.1.1.<.1.8.1.1.1.1.1.1.@.9.8.9.&.&.5.o.1.1.+.#.2.2.>.o.) A.#X<XsXyXrXrXeX<XP.t.o.#.;.$.,.1.1.#.*.O.6.g.",
"S S V C G  XrXwX#Xf.O.#.2.:.@.9.2.@.1.1.8.y.j.j.0.>.1.2.$.9.1.>.9.9.1.3.#.#.@.&.8.1.1.<.<.3.2.2.$.3.3.2.9.9.5.5.6._ { [ ' ` p.p.l.b.P P W T T Q T T T R T E T T Q T T L L L P E L T ^ W a.d.,.3.| p.k 6 j Z q r [ { r.=.2.#.2.*.1.1.1.1.1.1.1.1.+.1.1.9.8.#.1.2.,.1.3.3.2.>.7.h.!.6X5XaXeXeX8X0XqX!.r.+.2.3.<.2.<.#.#.8.t.Z.!.6X",
"M M m J +XMXpX$Xy.:.8.9.1.,.1.$.1.@.@.8.0.i.i.O.o.2.2.1.9.#.+.1.1.1.1.1.1.1.8.&.#.#.1.1.#.9.8.>.1.5.6.{ [ ( ( k.c.r q z q w J P E E E E W T ^ R T Q E W E E W P W P P l.l.P P l.P b.b.z...%.4.q.z.P l w r ` ' ) =.0.2.1.1.2.#.@.2.$.$.-.#.3.3.1.e.<.>.<.2.2.3.<.2.3.+.O.4.f.P.&X,XpX5X5XyX:XqX1X~.r.o.9.<.,.2.#.8.5.t.F.^.=X#XI.",
"A m R %XMX;Xm.| ,.1.1.@.@.2.+.$.1.2.@.1.9.8.#.*.2.1.1.,.1.2.9.+.<.3.3.1.>.,.1.2.9.8.5.7.7.{ [ ' ] ` 9 9 w w 4 / ^ v C C 0 a / T E E L E P T L P T T E R R L P n.d.} | } | | _ } } | | t.7.7.s.l.P x.e ( _ ) 1.2.#.*.#.3.1.1.+.$.3.1.1.8.5.5.5.4.{ ) 6.:.1.#.@.o.%.4.6.f.P.*X<XpXeX>X2XyXrXwX*XK.q.:.8.2.@.1.5.>.u.K.~.~.F.h.6.4.",
"C Q ;XnX+Xl.' 6.1.1.8.9.9.@.+.9.@.9.8.+.1.8.@.1.1.1.1.1.1.@.#.2.$.#.&.5.7.5.8.9.6.[ ' ] ] x z z Z 6 4 6 0 5 5 ! ^ v C C Z 0 J W L T L T T T T T R T Q W x.z.s.[ 7.4.q.7.) q.q.6.{ ) ) { | k.z.b.p.s.) 7.1.2.#.3.>.1.5.:.) _ _ { [ } ' ' ' ] ] ` x ` ' _ X.%.r.f.F.I.#X6X<XiXiX8X9XsXpX1X*X^.f.) >.0.1.+.o.5.f.I.#XP.h.7.+.+.#.,.",
"T.;X;XN.k e ) 2.#.9.1.1.1.8.8.1.9.#.@.8.1.1.1.1.2.3.1.1.1.8.>.>.7.6.{ } [ } _ 6.[ ] z V M S D A S a 5 7 6 5 5 U ^ a C j j j L T T T T T T E T T P L P l. .{ 5.1.}  .s.z.p.z.a.p.v.z.z.z.z.z.s.} ) 0.&.8.1.3.#.1.*.8.) [ ( 9 r z z z z k Z H A V D Z z ' f.J.#X=XqXsXaXyXyXaXiX1X*X&X!.H.g.7.=.;.+.+.+.7.g.I.#XP.g.7.>.#.$.$.1.#.",
"+X_.G C r _ 9.2.2.2.1.8.9.#.#.*.8.8.9.#.3.*.8.1.1.5.7.) | [ ' ' ] K q Z k z e x } ' x k S M F D D v 3 0 n 5 5 I ^ 6 j C j a L W L T P P b.W P P E x.s.| 4._ s.a.P P P T E E P P R Q b.z.s.) 5.>.@.9.9.2.1.1.8.8.{ ( r q w - a A m S S S S D m S C K n.7X6XqXpXqXyXiXqX1X&XI.D.g.u.6.>.,.,.+.1.*.O.5.g.^.#XP.f.4.=.&.&.2.1.2.8.#.",
"H C C z ' r.0.>.8.8.1.3.2.2.1.2.@.2.9.8.5.7._ [ ' ] ` e z z k Z Z Z D D S D D H e ] ' ` Z S S F D v 3 6 6 4 5 ! ^ v C C j w K l.z.p.p.p.p.p.p.p.s.s.{ ) | s.l.b.L L R L T L L P b.l.s.{ 4.:.1.9.1.<.1.3.#.5.{ } r t w v 7 3 v S A m S F S D D m L +XpXpX<X1X1X6X&X#XP.A.t.7.5.5.=.&.@.+.2.#.>.4.h.~.#XG.t.5.#.1.1.1.1.1.1.1.>.,.",
"M C Z ' r.8.3.1.8.2.;.2.1.5.) ) :.) [ ' ] x z z Z Z C C D S M M V M S S S S M M D z ] ] e Z D D D a 3 7 6 5 5 Y Y.1 n q e r a.' }  .d.} } } } [ ) 7.=.@.7.d.z.l.x.P P T W P x.c.s.| >.1.3.3.2.$.3.+.<.5.) [ e q n 4 5 v v 5 m S A A V S M M D Q -X,X&XP.F.S.f.S.t.7.4.>.9.1.2.0.#.2.#.#.+.4.g.I.~.G.f.:.o.9.1.#.<.3.1.1.1.1.$.1.",
"Z Z ] ) 9.-.-.3.8.8.7._ ' ' ` ] ' ] e Z C D V S V A D S V S S F A A V D D V A A M S Z K ] ] Z D D v 5 v n 5 5 Y ^ 0 r ` ' ' a.z.l.l.l.b.l.l.l.c.s.} | 5.>.5.7.{ ..s.p.p.a.s. .| ,.5.@.1.8.2.2.3.1.8.:.( ` q 0 C C 5 5 v 6 3 6 V A M F M m H M.-XP.h.6.o.o.+.o.#.#.3.1.2.3.0.1.1.1.2.@.4.h.I.~.G.q.7.=.#.1.,.,.8.#.#.@.&.&.*.#.#.",
"` } 6.4.0.7.6.[ ' ' ` x n Z K e x K Z D M F S D V A A V A M A M S S M M S M S S D D D Z x ] e Z C 6 3 6 v 4 4 W C.e ] ] r 9 K P T T T L T T E W W P x.s.| ) >.1.5.5.7.7.7.7.8.*.3.3.1.1.9.1.<.,.) ..` r 0 C C C 0 3 7 6 6 3 6 F D S M m G  X@Xf.7.>.1.2.$.<.<.1.1.0.3.1.@.1.9.#.@.,.h.J.^.A.t.O.,.+.1.<.+.1.9.o.&.&.&.&.1.1.,.<.",
"{ ) 4.[ ' ] ] Z Z Z A M D n e Z C C V V S S D A m M V M M A A A D D S S M S D D S D A A Z K a.] r w - 7 w w 9 ] k.r e q q a L T E T ^ R T T T E R R W b.b.p.| r.$.3.-.3.@.3.2.-.#.#.2.$.$.5.) s.k.x.0 6 C C j C C 7 7 6 6 3 m M C C D W.%XK.t.>.+.9.8.@.8.8.,.1.>.1.2.2.#.@.@.o.y.D.J.g.q.,.=.*.e.3.>.1.>.#.*.;.5.1.3.3.2.$.3.#.",
"] ' ` z D H C m D S M A Z K K k V M m V S A V A A S S S D D D D A D A A D D D D M S A A D D e ]  .( ( r ]  .' k.P q 0 m m a / L W W W E E W E E E W W R R P x.v.) 7.8.#.<.,.1.1.9.8.>.,.) ..k.l.b.W C v C Z j j C 7 7 v a 3 m D D W +X%Xv.) ,.$.-.*.1.@.1.@.#.2.1.@.2.2.2.5.w.j.D.j.t.&.-.-.@.1.#.#.<.1.9.8.@.3.>.1.#.$.#.5.7.{ ",
"A Z C M M M M D S S A Z z z Z M D D D A S M V S D V V V M V M M M M M S S A S M D V M M M S Z r ' } _ _ [ ( 9 J ^ v n C j 0 G Q R T T T T L T T P L E T R T W P c.s._ 5.&.2.8.8.@.4.| s.z.b.P T T R n a j C a C 0 7 7 6 7 % j J |.;X|.] _ w.2.3.,.+.,.1.@.#.1.<.1.9.1.,.1.i.j.j.7.5.@.#.3.1.9.>.:.0.9.9.@.1.1.1.&.8.1.5._ ' ` e "
};
