/* XPM */
static const char *letter_L[] = {
/* columns rows colors chars-per-pixel */
"100 100 2 1 ",
"  c #020202",
". c #F5ECEC",
/* pixels */
".......................                                                                             ",
".......................                                                                             ",
".......................                                                                             ",
".......................                                                                             ",
".......................                                                                             ",
".......................                                                                             ",
".......................                                                                             ",
".......................                                                                             ",
".......................                                                                             ",
".......................                                                                             ",
".......................                                                                             ",
".......................                                                                             ",
".......................                                                                             ",
".......................                                                                             ",
".......................                                                                             ",
".......................                                                                             ",
".......................                                                                             ",
".......................                                                                             ",
".......................                                                                             ",
".......................                                                                             ",
".......................                                                                             ",
".......................                                                                             ",
".......................                                                                             ",
".......................                                                                             ",
".......................                                                                             ",
".......................                                                                             ",
".......................                                                                             ",
".......................                                                                             ",
".......................                                                                             ",
".......................                                                                             ",
".......................                                                                             ",
".......................                                                                             ",
".......................                                                                             ",
".......................                                                                             ",
".......................                                                                             ",
".......................                                                                             ",
".......................                                                                             ",
".......................                                                                             ",
".......................                                                                             ",
".......................                                                                             ",
".......................                                                                             ",
".......................                                                                             ",
".......................                                                                             ",
".......................                                                                             ",
".......................                                                                             ",
".......................                                                                             ",
".......................                                                                             ",
".......................                                                                             ",
".......................                                                                             ",
".......................                                                                             ",
".......................                                                                             ",
".......................                                                                             ",
".......................                                                                             ",
".......................                                                                             ",
".......................                                                                             ",
".......................                                                                             ",
".......................                                                                             ",
".......................                                                                             ",
".......................                                                                             ",
".......................                                                                             ",
".......................                                                                             ",
".......................                                                                             ",
".......................                                                                             ",
".......................                                                                             ",
".......................                                                                             ",
".......................                                                                             ",
".......................                                                                             ",
".......................                                                                             ",
".......................                                                                             ",
".......................                                                                             ",
".......................                                                                             ",
".......................                                                                             ",
".......................                                                                             ",
".......................                                                                             ",
".......................                                                                             ",
".......................                                                                             ",
".......................                                                                             ",
".......................                                                                             ",
".......................                                                                             ",
"....................................................................................................",
"....................................................................................................",
"....................................................................................................",
"....................................................................................................",
"....................................................................................................",
"....................................................................................................",
"....................................................................................................",
"....................................................................................................",
"....................................................................................................",
"....................................................................................................",
"....................................................................................................",
"....................................................................................................",
"....................................................................................................",
"....................................................................................................",
"....................................................................................................",
"....................................................................................................",
"....................................................................................................",
"....................................................................................................",
"....................................................................................................",
"....................................................................................................",
"...................................................................................................."
};
