/* XPM */
static const char *main_menu[] = {
/* columns rows colors chars-per-pixel */
"800 600 194 2 ",
"   c #000000",
".  c #090104",
"X  c #000A00",
"o  c #080805",
"O  c #03010A",
"+  c #0A020A",
"@  c #040909",
"#  c #090909",
"$  c #001300",
"%  c #0A1706",
"&  c #001A00",
"*  c #0D1E05",
"=  c #0E160B",
"-  c #071F09",
";  c #0E1E0A",
":  c #111E06",
">  c #11150E",
",  c #111E0C",
"<  c #070010",
"1  c #090110",
"2  c #0F1C11",
"3  c #121710",
"4  c #131D11",
"5  c #181D15",
"6  c #042301",
"7  c #0C2205",
"8  c #002A00",
"9  c #0C2804",
"0  c #072408",
"q  c #0E210A",
"w  c #0E2809",
"e  c #112106",
"r  c #102806",
"t  c #11210C",
"y  c #11290B",
"u  c #0F2010",
"i  c #142211",
"p  c #182013",
"a  c #3FBE24",
"s  c #44BD16",
"d  c #43BF1F",
"f  c #44BD25",
"g  c #4BBC26",
"h  c #49B62E",
"j  c #46BD2A",
"k  c #4CBD2C",
"l  c #51BD2D",
"z  c #51AC35",
"x  c #54A73F",
"c  c #56AE3B",
"v  c #5BAD3E",
"b  c #46B532",
"n  c #4EB334",
"m  c #47BC30",
"M  c #4EBE33",
"N  c #4DB439",
"B  c #4EBC3A",
"V  c #53B536",
"C  c #5CB734",
"Z  c #52BE34",
"A  c #5ABA36",
"S  c #55B43B",
"D  c #5BB63E",
"F  c #54BC3B",
"G  c #5ABA3D",
"H  c #60BB3C",
"J  c #2ACC00",
"K  c #2FCF0D",
"L  c #34C60D",
"P  c #38C70D",
"I  c #35CC0C",
"U  c #3BCE0D",
"Y  c #2DD405",
"T  c #2CD209",
"R  c #34D106",
"E  c #35D30D",
"W  c #3AD20D",
"Q  c #32D90F",
"!  c #3BD90E",
"~  c #2FCE12",
"^  c #37C716",
"/  c #3BC615",
"(  c #35CD13",
")  c #3BCE14",
"_  c #37C21F",
"`  c #3DC61D",
"'  c #36CE1B",
"]  c #3DCD1B",
"[  c #36D213",
"{  c #3AD114",
"}  c #37D810",
"|  c #3CDB17",
" . c #36D219",
".. c #3CD21A",
"X. c #3CD819",
"o. c #3EC521",
"O. c #3ECB22",
"+. c #43C516",
"@. c #42CD15",
"#. c #43C51E",
"$. c #49C61D",
"%. c #43CB1D",
"&. c #49C81E",
"*. c #41D215",
"=. c #42D21C",
"-. c #45DA1E",
";. c #45C524",
":. c #4AC524",
">. c #44CA23",
",. c #4ACA24",
"<. c #46C42A",
"1. c #4BC32C",
"2. c #45CA29",
"3. c #4BCA2B",
"4. c #50C526",
"5. c #51C22D",
"6. c #5AC22D",
"7. c #52CB2D",
"8. c #44D222",
"9. c #4AD125",
"0. c #43D02A",
"q. c #4BD029",
"w. c #46C330",
"e. c #4DC132",
"r. c #46C832",
"t. c #4CCA32",
"y. c #4DC23A",
"u. c #52C233",
"i. c #58C334",
"p. c #52C934",
"a. c #54C33A",
"s. c #5AC33D",
"d. c #53C93B",
"f. c #5BC83B",
"g. c #55AC43",
"h. c #5BAD44",
"j. c #5CA64A",
"k. c #57AA4E",
"l. c #5DAC4B",
"z. c #55B542",
"x. c #5BB644",
"c. c #56BA42",
"v. c #5BB943",
"b. c #57B74B",
"n. c #5DB44B",
"m. c #5DBB4A",
"M. c #5FA751",
"N. c #5EAE51",
"B. c #5EB252",
"V. c #5FBB50",
"C. c #62AB44",
"Z. c #68AC47",
"A. c #62A64B",
"S. c #64AD4D",
"D. c #6BAD4D",
"F. c #61B446",
"G. c #61BA44",
"H. c #63B24C",
"J. c #6AB34D",
"K. c #62BB4B",
"L. c #65A755",
"P. c #64AE53",
"I. c #6AAC54",
"U. c #67A55C",
"Y. c #6DA45B",
"T. c #66AD59",
"R. c #6BAC5A",
"E. c #71AD57",
"W. c #71A55C",
"Q. c #72AA5D",
"!. c #63B252",
"~. c #6AB452",
"^. c #64B953",
"/. c #6AB856",
"(. c #66B258",
"). c #69B259",
"_. c #6EB95E",
"`. c #6F9E6A",
"'. c #769E6D",
"]. c #6DA660",
"[. c #6FA864",
"{. c #74A364",
"}. c #74AA62",
"|. c #78AA61",
" X c #74A36B",
".X c #7AA36B",
"XX c #74AE6C",
"oX c #79A671",
"OX c #7BAB71",
"+X c #56C440",
"@X c #5BC242",
"#X c #55C149",
"$X c #60C140",
"%X c #63C049",
/* pixels */
"                                                                                                                                                                                                                                                                                                                                                                                                                                                                                                                                                                                                                                                                                                                                                                                                                                                                                                                                                                                                                                                                                                                                                                                                                                                                                                                                                                                                                                                                                                                                                                                                                                                                ",
"                                                                                                                                                                                                                                                                                                                                                                                                                                                                                                                                                                                                                                                                                                                                                                                                                                                                                                                                                                                                                                                                                                                                                                                                                                                                                                                                                                                                                                                                                                                                                                                                                                                                ",
"                                                                                                                                                                                                                                                                                                                                                                                                                                                                                                                                                                                                                                                                                                                                                                                                                                                                                                                                                                                                                                                                                                                                                                                                                                                                                                                                                                                                                                                                                                                                                                                                                                                                ",
"                                                                                                                                                                                                                                                                                                                                                                                                                                                                                                                                                                                                                                                                                                                                                                                                                                                                                                                                                                                                                                                                                                                                                                                                                                                                                                                                                                                                                                                                                                                                                                                                                                                                ",
"                                                                                                                                                                                                                                                                                                                                                                                                                                                                                                                                                                                                                                                                                                                                                                                                                                                                                                                                                                                                                                                                                                                                                                                                                                                                                                                                                                                                                                                                                                                                                                                                                                                                ",
"                                                                                                                                                                                                                                                                                                                                                                                                                                                                                                                                                                                                                                                                                                                                                                                                                                                                                                                                                                                                                                                                                                                                                                                                                                                                                                                                                                                                                                                                                                                                                                                                                                                                ",
"                                                                                                                                                                                                                                                                                                                                                                                                                                                                                                                                                                                                                                                                                                                                                                                                                                                                                                                                                                                                                                                                                                                                                                                                                                                                                                                                                                                                                                                                                                                                                                                                                                                                ",
"                                                                                                                                                                                                                                                                                                                                                                                                                                                                                                                                                                                                                                                                                                                                                                                                                                                                                                                                                                                                                                                                                                                                                                                                                                                                                                                                                                                                                                                                                                                                                                                                                                                                ",
"                                                                                                                                                                                                                                                                                                                                                                                                                                                                                                                                                                                                                                                                                                                                                                                                                                                                                                                                                                                                                                                                                                                                                                                                                                                                                                                                                                                                                                                                                                                                                                                                                                                                ",
"                                                                                                                                                                                                                                                                                                                                                                                                                                                                                                                                                                                                                                                                                                                                                                                                                                                                                                                                                                                                                                                                                                                                                                                                                                                                                                                                                                                                                                                                                                                                                                                                                                                                ",
"                                                                                                                                                                                                                                                                                                                                                                                                                                                                                                                                                                                                                                                                                                                                                                                                                                                                                                                                                                                                                                                                                                                                                                                                                                                                                                                                                                                                                                                                                                                                                                                                                                                                ",
"                                                                                                                                                                                                                                                                                                                                                                                                                                                                                                                                                                                                                                                                                                                                                                                                                                                                                                                                                                                                                                                                                                                                                                                                                                                                                                                                                                                                                                                                                                                                                                                                                                                                ",
"                                                                                                                                                                                                                                                                                                                                                                                                                                                                                                                                                                                                                                                                                                                                                                                                                                                                                                                                                                                                                                                                                                                                                                                                                                                                                                                                                                                                                                                                                                                                                                                                                                                                ",
"                                                                                                                                                                                                                                                                                                                                                                                                                                                                                                                                                                                                                                                                                                                                                                                                                                                                                                                                                                                                                                                                                                                                                                                                                                                                                                                                                                                                                                                                                                                                                                                                                                                                ",
"                                                                                                                                                                                                                                                                                                                                                                                                                                                                                                                                                                                                                                                                                                                                                                                                                                                                                                                                                                                                                                                                                                                                                                                                                                                                                                                                                                                                                                                                                                                                                                                                                                                                ",
"                                                                                                                                                                                                                                                                                                                                                                                                                                                                                                                                                                                                                                                                                        O                                                                                                                                                                                                                                                                                                                                                                                                                                                                                                                                                                                                                                                                                                                                                                                                                                                                                                                                                                       ",
"                                                                                                                                                                                                                                                                                                                                                                                                                                                                                                                                                                                                                                                                                . O         O                                                                                                                                                                                                                                                                                         O                   o                         X       @   .                                                                                                                                                                                                                                                                   O O X               O O .         O       .                                                 O         X                     X O         + O               .                                         O                                                                                                                                       ",
"                                                                                                                                                                                                                                                                                                                                                                                                                                                                                                                                                                                                                                                                        O               .                                                                                                                                                                                                                                                                                       .   O       X   X               X       X           X X       O   .                                                                                                                                                                                                                                                           X   .           o       O .   .       X                                                           .             @   X   X X   X           X X   O                                   O                         O                                                                                                                                   ",
"                                                                                                                                                                                                                                                                                                                                                                                                                                                                                                                                                                                                                                                                                                                                                                                                                                                                                                                                                                                    O   @ X 3 ; 7 - * * e q e e q q q q q q q e , i : e , 2 X O .                                                                                                                                                                                                                                                       O             O O       X         O                                                                         o       X % : : = t * 7 q t , 4 : e q ;                           .           O                   O                                                                                                                                         ",
"                                                                                                                                                                                                                                                                                                                                                                                                                                                                                                                                                                                                                                                                                                                                                                                                                                                                                                                                                                                      O     4 t q w 7 9 7 7 7 7 0 0 9 0 0 0 7 q = , 7 t q 4                                                                                                                                                                                                                                                     .                   . O     X     X   X O                                                       O               O             4 t 9 q q 7 7 7 7 * : 7 9 9 q X                                                             O                                                                                                                                     ",
"                                                                                                                                                                                                                                                                                                                                                                                                                                                                                                                                                                                                                                                                                              X                                                                                                                                                                                                                                                                       O O O       .         , - 0 0 6 7 7 7 7 q 7 q 7 7 7 7 7 q t t 7 7 & t   X                                                                                                                                                                                                                                                                 .           : , , ,                           .                                                     O         4 q 7 q * 7 6 q q t r * 9 6 9           O                           O                                                                                                                                                             ",
"                                                                                                                                                                                                                                                                                                                                                                                                                                                                                                                                                                                                                                                                                                                                                                                                                                                                                                                                                                                            4 t q w - * t q t t e t u q i i 2 t : * 7 7 7 q             X O                                                                                                                                                                                                                                                         O       i i 4 i       O                                                       .                     o X   t 7 q t ; q q y q : % 7 9 6 q X     O             .       .                                                                                                                                                                       ",
"                                                                                                                                                                                                                                                                                                                                                                                                                                                                                                                                                                                                                                                                                                                                                                                                                                                                                                                                                                      O               X   X , * - t X   X                         X 9 9 9 *                 O                                                                                                                                                                                                                                         O                   X , * : ,   X X                                                                         .           4 * : = X   X       X = 0 7 q                                                                                                                                                                                                     ",
"                                                                                                                                                                                                                                                                                                                                                                                                                                                                                                                                                                                                                                                                                                                                                                                                                                                                                                                                                                        O       .     X     y q , , X       o                     X 7 7 7 * X           O                                                                                                                                                                                                                                                           X       , ; : t           .         O                                       O                 O           4 : 4 , X   X X       , q q ; o                                               O                                                                                                                                                   ",
"                                                                                                                                                                                                                                                                                                                                                                                                                                                                                                                                                                                                                                                                      O           .     .                                                                                                                                                                                                                                                                                                 X q q t ; X                               q q q q X           O O                                                                                                                                                                                                                                           O                 X   ; e ; :                     O                                                       O             t , : i               t q q t   . .                                             O                                                                                                                                                 ",
"                                                                                                                                                                                                                                                                                                                                                                                                                                                                                                                                                                                                                                                              .           .         O       O                                                                                                                                                                                                                                                                   .       O                   q q q , X                               : q q t     .           .                                                                                                                                                                                                                                   .                         X : q e ; X                     O                                                               X   4 e e t               e e 7 :     O               X   X     X       X       X                                                                                                                                                     ",
"                                                                                                                                                                                                                                                                                                                                                                                                                                                                                                                                                                                                                                                                              O O   O     O .                                                                                                                                                                                                                                                                       O   O                 X q q q ,                             X   , q e ,                                                                                                                                                                                                                                                           O O                 X : q e * X                                                                                         4 e q ,     X         q 7 0 e       X     X = 4 , t , , , t t 4 4 , > X     O O     .                                                                                                                                             ",
"                                                                                                                                                                                                                                                                                                                                                                                                                                                                                                                                                                                                                                                                X                                                                                                                                                                                                                                                                                                     O                   X * 7 e ; X       O X                 O   i : e 4                   .                                                                                                                                                                                                                                                         X   ; e e q X                 O                                         O               O             i q 7 y       O     X q 0 0 q             X 4 t t e q t q e t t : t > X o     O                                                                                                                                                   ",
"                                                                                                                                                                                                                                                                                                                                                                                                                                                                                                                                                                                                                                                          o                                                                                                                                                                                                                                                                                                             X     . .     O     * q t = X   O   O O             . O     i q ; ,       O   O O     .                                                                                                                                                                                                                                       O O                 X : : e ; X                   O                                                         O           4 7 0 4       O       q 6 0 q               , q % q * 7 7 7 7 * * * , X       O                                                                                                                                                   ",
"                                                                                                                                                                                                                                                                                                                                                                                                                                                                                                                                                                                                                                                                X X X     X X                                                                                                                                                                                                                                                                                                             X q q : , X     O O   o                   e q e e                                                                                                                                                                                                                                                                       .         , e e :   X       .       O O                                                         .           , 7 7 i     O O     X q 7 9 e               e e 7 7 9 7 7 7 7 7 q e i X   O   O       .         O                                                                                                                                 ",
"                                                                                                                                                                                                                                                                                                                                                                                                                                                                                                                                                                                                                                                              @         X           X                                                                                                                                                                                                                                                                                           .     O   X ; q e ;           O                     e 7 7 e X         O O                                                                                                                                                                                                                                             O O       .     X     , : e e         .     .       O                                                                   , q 7 ,         O     q 7 9 t       o     X : 7 7 7 9 9 7 9 7 0 q * :   X   O O       .                                                                                                                                           ",
"                                                                                                                                                                                                                                                                                                                                                                                                                                                                                                                                                                                                                                                          o > 4 4 t y 4 t t t 4 t 4 4 = X                                                                                                                                                                                                                                                                                                 X ; q q q X X   O                         : 7 7 q           O                                                                                                                                                               X                         X                 X         X                               .               , , 4 >       O                                                     O                 X           , 9 7 e             X q 7 7 t           X   , q q 7 7 * 7 7 q q ; : p     X   O           .   O                                                                                                                                   ",
"                                  @           O   O                 O O   O . O                                                                                                                                                                                                                         X   O       O                                                                                                                                                                                                                                                                                                                             O O       t e r * 7 * e ; e q 7 0 q q X                                                                                                                                                                                                                                                                                           O     X ; q * t X     O   O               O     t q 7 7     X           X                                                                                                                                           O   O   4 q q q : , : t e q t q q q q q e q q q e q t q q 7 q q q q q q : t 7 7 7 q                               o = 5 5 = @     .                                                                             o     i e 9 q q q q 7 q * q q q 7 t   X             X   X   X                                                                                                                                                                           ",
"                                            O O                   X   O . O                                                                                                                                                                                                                                                                                                                                                                                                                                                                                                                                                                     O         X q q 7 0 7 e t : : q 7 6 9 q   X   O                                                                                                                                                 @   O                                                                                                                           O O         : e : t   X   X O       .   .   O   O   t 0 9 q       O           O                                                                                                                                           O     q 0 6 7 e e q q 7 0 7 7 7 7 7 7 7 7 7 7 0 7 7 7 0 9 7 7 9 0 7 7 7 q 6 6 6 q                                   . . .                                                               .   .                       4 q q 7 7 q 0 9 7 q 7 * - - 4 X                             o                                     .       .                                                                                                                       ",
"                                O       .     O           o             O   O                                                                                                                                                                                                                       o       .   .         .                                                                                                                                                                                                                                                                                                                   .     O     X ; q - u % t 4 , t t q q 7 *       O                                                                                                                                 O     O O O   O               .                                                                                                               .   O   X   X : q e e                 .         X     e 7 9 * X   O .     X   O                                                                                                                                           O   X   q 7 7 7 ; , : * e q q q q q q q q q q q q q q 7 q q q q q q q q t q 0 7 6 q X                                                                                                             O O       o         i , , q q q q q q q q ; i i 4             X           .                                                                                                                                                                           ",
"                                    . .   . .                   X                           .                                                                                                                                                                                                   o     .     .                                                                                                                                                                                                                                                                                                                                     O         ; e q i X X   X   X : q * :     .                                                                                                                                     O   X           .   . .   .                                                                                                                             X ; q e : X       O                     X t 7 9 7       O                                                                                                                                                       O     - 7 0 r ; t i i ; ; : ; ; ; q ; e ; ; ; ; : e q * ; , ; : ; t q ; = q 9 7 q   .                           o                                                                                                 X > 4 ; : * ; q q ; ; ; ; 4 4 4 X         O             .                                                                                                                                                                           ",
"                                O O             X                             O                                                                                                                                                                                                                 O O . O             X                                                                                                                                                                                                                                                                                                                           O           q e u u X     X   X : q : :       .                                                                                                                                                   X     o   O .                                                                                                                 O O       X ; e , : X       O                     X * 7 7 7 X   O                                                                                                                                                         X     e 0 7 * X X       X   X   X   X     X   X   X     X     X   X   X X q q 0 t                                                                                                                                   @         X     X   X               O               .                                                                                                                                                                             ",
"                                O   X o   X         X   X         X X                       O                                                                                                                                                                                                         X       X     X     X                                                                                                                                                                                                                                                                                                     O                 O     X X ; q ; 7 X   X   X X 7 e q ;     .                                                                                                                                       X   X   X     X     o                                                                                                       O                         X : t : * X   X             X X       X X * & 9 *   X   .           O                                                                                                                                                 ; 7 7 q       X                                               X     ; q q e   .                                                                                                                                             X                           O       .   .                                                                                                                                                                           ",
"                                .   : e * y ; i q e q q q ; e * q q 2 X     X                                                                                                                                                                                                                       X = , t q t 7 7 q q q q : ,                                                                                                                                                                                                                                                                                                                           X , q 7 7 7 * t q q q 7 7 q q X   X                                                                                                                                   : ; q q q : : : , , X                                                                                                                                     X ; q q 7 * 7 - u i i * : : * q q q ; , e y 9 7 *     O                                                                                                                                                             X q q q q X                                           .               ; q 7 q   .                             .   .                                                                                                                     @     o                 .     .                                                                     O O                                                                                                   ",
"                                    : e 7 q 0 7 q 0 q 7 q q q q q i =       o                                                                                                                                                                                                                         ; t 7 7 7 7 7 9 7 7 0 q ,                                                                                                                                                                                                                                                                                                   .                       X ; t 7 6 7 9 7 7 7 7 q 7 q ;   X                                                                                                                                     7 7 7 7 7 7 7 q , ,         X X                                                                                                   .             O           4 q 9 0 6 q 7 7 7 0 7 7 7 7 9 0 7 7 ; : q * q -       O                                                                                                                                                             * 9 * y                                                             ; 7 7 q                                                                                                                         .             .                         .     O           .   .   .                                                                         .               .                                                                               ",
"                                  X : r 7 9 0 7 0 7 q 7 q e 7 * q ; i                                                                                                                                                                                                                             X X , t t 7 7 9 7 7 6 7 7 * :                                                                                                                                                                                                                                                                                                   O               .       X 4 , q 9 7 7 q 7 q q q - t t X                                                                                                                                       q 0 9 q 7 7 q q : t X     X                                                                                                     O .               .         4 q 7 7 7 7 q 7 7 7 7 7 7 7 0 7 0 q : : e * y t       O           .                                                                                                                                                 * 7 q ,       O                                     .             X q q 0 e                                                                                                                                     .                                   O             .   .                                           O   .                 .   .       o       .     o       .   o                                                                 ",
"                                    : e 7 r 7 ; q * : ; ; - * y q 7 t X X                                                                                                                                                                                                                             = ; t - t q q q q q q : 4                                                                                                                                                                                                                                                                                                                       o   X 4 , q q ; q : * ; t t ; 4 4 X                                                                                                                                       t q : * q e : : , , X   X                                                                                                           O                 o   X 4 t : q q q q q ; q ; q * q q q e q t t t - 2 =   X                                                                                                                                                               X : r : ,     O   O                       O             O             e 7 0 e                                                                                                                                       O     O                                         O                                               .   O   X                 O                                                                                                   ",
"                                    , e * % X X       X       - q q t           X                                                                                                                                                                                                                   X   X         X   X X X                                                                                                                                                                                                                                                                                                       .   O           .         X         X   X   X                                                                                                                                                             X X   X           .                                                                                                     O           .           X             X             X           X X X                   .                                                                                                                                                   * 7 e :   O   O     O   O O     O     O   O         .               q 7 0 q                                                                                                                                                                           o               O       X                                               X   X                                                                                                             ",
"                                  . , e : *         o       X , q * 4   X                   .                                                                                                                                                                                                   O . O O                                                                                                                                                                                                                                                                                                                                                         O   O                     o   .                                                                                                                                 X                       . .                                                                                                                                 X                                     X   X   X   . .           .                                                                                                                                                   q 7 7 :         O           O   O   O       O       X             X t 0 9 w                                                                                                         O                           O                                     X X X X X X         X .                                   X                   X     X                                                                                                     ",
"                                  X , e e t X       .         : q ; t       X   O                                                                                                                                                                                                               .     .                                                                                                                                                                                                                                                                                                                                   O             X   @     O O                 . .                                                                                                                                         O   O O         O . .   .   .                                                                                                                       .     O X                                     X           .   X                                                                                                                                                           q 7 q t       X                                                     t 7 7 q                                                                                                       O                           O                                   O X > * : : ; = X                                                 X   X   X X   X X   X   X   X   X   X   X X   X   X X   X                                                                   ",
"                                    e : e e       o . . o   X ; q * , X       O                                                                                                                                                                                                                 .   o       . . o         .                                                                                                                                                                                                                                                                                                                         .         O O X   O O X             o     o                                                                                                                                   O O       O O X         . .                                                                                                           O         .                         o     X     X                   . .                                                                                                                                                           O   X q 7 q :                                               O             q q 7 q                                                                                                                                                                           t : e q e i                                                   4 3 3 , , ; : ; q q t , , 4 t ; t ; t t q , , ; t q , q , ,                                                                 ",
"                                  X e 7 7 t   X   .       X X q q q t         O O                                                                                                                                                                                                                                                                                                                                                                                                                                                                                                                                                                             O                     o                                                                                                                                                           @                                                                                                                       X           .     O   O X                                     @       .           O .                                                                                                                                   .     X         - q 7 q X                                                           t q 7 q                                                                                                         O                                                   .         X   t e q 9 * q   X                                             X , 4 ; q e q q 7 7 q q q ; q q q 7 q 7 q q q 7 q 7 q q q q ;                                                                 ",
"                                    e 9 0 e     O . O         q q e t           O                                                                                                                                                                                                                   X   o                                                                                                                                                                                                                                                                                                                                           .       O                                                                                                                                                                                                                                                                                                                               O   O   O                 . O   O   O   O       .   .                                                                                                                                                               ; 9 q q                                             O               t q 7 t                                                                                                               O               O   O             O     .                   , 7 7 0 q q X   X   .                                         i q ; q q t * 7 q q q ; e - q 7 ; 7 q q q ; q ; q 7 q 7 7 q                                                                 ",
"                                    e 7 7 q     O . .   .     t e ; t             O                                                                                                                       O       .   . .                                                                                           X             X     O             O                                                                                                                                                                                                                                                                                                                                                                                                                                                                                                                                                                                                                                                                                                                                                                                                                                         .       O     X q 7 0 ; X   O                                                       y 7 0 q                                                                                                             O       X     O o         X   X     @   O . .               X t e 0 7 0 q X                       X                       X q q 7 q % , , 4 t t i i t q y 4 t i q i i t 4 i t % y * 7 7                                                                 ",
"                                    e 9 7 q                   q q ; i         O O                                                                                                                                                                                                                         .     , t t e , 3 ; : = :   o   O                                                                                                                                                                                                                                                                                                                                                                                                                                                                                                                                                                                                                                                                                                                                                                                                                                                     .         O     7 7 7 -   O   X                                                     t q 0 q                                                                                                         . .     X   X                   X         O .                     t q 7 6 7 q             .                           O       X * 9 9 q X X       X       X                       X - 7 7 q                                                                 ",
"                                    t 0 0 u     O     O     X u q q q X                                                                                                                                 O   X                 O                         O                           .           X             X q q q 0 y q 0 q i i     O       .     O O                                                                                                                                                                                                                                                                                                                                                                                                                                                                                                                                                                                                                                                                                                                                                                                                                                                 O     7 9 q *         O                         O         o               , q 0 q                                                                                                             O X = q = - 4 , : : q q 4 4 : e , 2 X O                       t q 9 q 7 q   X         o                           . O       ; 0 q q X   X X     X     X X X X   X   X     X   X , q 7 *                                                                 ",
"                                    q 0 0 q X       O   O     q q q :                                                                                                                                               O   O     O O   .   .   O   O   O   .     . .     O X     O     .             O             q 0 6 0 q q 9 6 e e           .                                                                                                                                                                                                                                                                                                                                                                                                                                                                                                                                                                                                                                                                                                                                                                                                                                                               X * 9 7 e             O     . O   .   O       .         . . .         , q 7 e                                                                                                             O X ; q q y q q q q 7 0 * t 7 t q 4     .                     4 0 0 7 7 q X             . O .               O         .     * 7 9 t                                             : q 7 7                                                                 ",
"                                    q 0 0 q               X   u q q t   X                                                                                                                             X           O     O   O                                   O   O   O   O     . .           O O             q 9 9 0 7 6 9 0 * ,     X                                                                                                                                                                                                                                                                                                                                                                                                                                                                                                                                                                                                                                                                                                                                                                                                                                                             X O     X q q 7 :       .             O                         .             t 0 9 q                                                                                                     X O       X 7 6 6 9 * 7 r 7 9 7 t t * 7 6 :   X       X             X , q q 7 q ,                                                   * 7 q ;                   X .                       , ; q q                                                                 ",
"                                    7 7 0 q X                 ; 7 q q X                                                                                                                                                       O                                   .   O   O           . .                       * 0 7 7 $ X 6 7 ; : X                   O                                                                                                                                                                                                                                                                                                                                                                                                                                                                                                                                                                                                                                                                                                                                                                                                                                                       ; 7 q :   .                                                       X q q 0 q                                                                                                     O           y q 9 t & * 7 q 7 7 = * 7 9 7 q X           X O           y - 7 q q i                                                   q 7 q =             O                   .   o   . X 4 : q q                                                                 ",
"                                    e 7 q e                   t q q ,   X                                                                                                                         . .               O   .                                         O O           .   .                           , q q t X   , ; : :   X                                                                                                                                                                                                                                                                                                                                                                                                                                                                                                                                                                                                                                                                                                                                                                                                                                                                   O     q q q 2     O                                                       2 7 0 r                                                                                                           .     : * 7 e X   X   X   X X 7 7 7 q               O           i 2 q q , 4                                         X         q 7 q t       .   O . O O                           , q q q                                                                 ",
"                                .   e q q t                   4 q 7 , X                                                                                                                             .           .                                                                                               4 ; , ,     p , e ,           X         O   .                                                                                                                                                                                                                                                                                                                                                                                                                                                                                                                                                                                                                                                                                                                                                                                                                                                   u u u 4   O X                                                       u 7 7 e                                                                                                     O     . .   t * q e         O X   X 7 9 7 *                           4 ; t , , 4                                                 X q 9 7 t                         O     O           X , q 7 q                                                                 ",
"                                    q q q ;         X         i e q ;   X   X                                                                                                                   . O                                                                   X   X                                 o   , t , ,     , , : y X   X                                                                                                                                                                                                                                                                                                                                                                                                                                                                                                                                                                                                                                                                                                                                                                                                                                                                       q 0 q u     X                                                       q q q q   .                                                                                                       .     e e e :     O O O       q q q t X                       X = y , , i 5                                               X   * 6 7 q             O                               ; q 7 7                                                                 ",
"                                    q q q % X   X   X   X   X % ; q : X                                                                                                                             @     X                                                     X     X X   X       O O O                       ; e * : X X : * * t   X                 O                                                                                                                                                                                                                                                                                                                                                                                                                                                                                                                                                                                                                                                                                                                                                                                                                                                       i q q 0 X   X                                                 X   X q q 7 q                                                                                                                 : q * ;         O O X   : q q t     .       O   .         X X   X         .     X               X                       6 9 0 y                                           X : * 9 * X                                                               ",
"                                    0 6 9 7 * , : q 7 - t ; ; y q i i       O                 .                                                                                                   X 3 2 q * y q e t i 4 y e e e y 4 i ; i q u q i q i 2 t ; y t t i , t e t : X                 X               : 7 9 7 * & r 9 e i     X             O                                                                                                                                                                                                                                                                                                                                                                                                                                                                                                                                                                                                                                                                                                                                                                                                                                         O               * 6 0 0 * : * * t ; y t e t t t i q y t t t t t q i t t t q q q ; 7 0 6 6 7                                                                                                           X   X q q q * X               t q q :                                                 = ; q q ; q e ; t t e , t t y e , , , t 9 9 7 * X           X                             X q 7 9 *                                                                 ",
"                                X X 9 6 7 7 , t q 7 7 7 t q ; q - q t                                                                                                                             X 2 q q * 9 - q q ; : q q 7 7 7 7 7 7 q 7 q 7 q 7 7 7 q 7 q q = ; : : e t ,       O   O                     X * 9 6 7 7 0 9 7 * ,     O     .         O   .                                                                                                                                                                                                                                                                                                                                                                                                                                                                                                                                                                                                                                                                                                                                                                                                                                     X       o     * 9 7 9 e e 7 r q 7 q 7 q 0 q 7 q 7 q 7 q 7 q 7 7 7 q q 7 7 7 q t 7 9 6 6 0 X o                                                                                                             * 9 9 q X     .     O X 4 : e 4           O       . .         X X     @       X p y 7 9 0 7 7 7 7 q q q q q q q q q , i 6 6 7 q                                             * q 9 q                                                                 ",
"                                    7 9 9 * t : e 9 7 7 7 q q q , i 4                                                                                                                           X X : 7 9 6 9 r q q * e e e 7 q 7 7 7 7 7 7 7 7 7 7 7 7 7 7 7 q i i q ; e * y     X   O                         ; 7 7 7 e q 9 0 : ,                   O                                                                                                                                                                                                                                                                                                                                                                                                                                                                                                                                                                                                                                                                                                                                                                                                                                         O         .     : q 7 7 e : : e 7 7 q 0 7 0 0 7 7 7 q 0 0 9 7 0 0 0 9 0 7 0 0 q * 7 8 9 6 0                                                                                                                 q 0 q 7                 i ; q ,             O     .                 .         X t * 9 9 6 6 q 9 7 7 7 7 7 0 7 7 7 q , , * 9 0 ;                                         X   , ; 7 q                                                                 ",
"                                . X * q e : 4 , : 7 7 q * * e t , , > X                                                                                                                             : q 7 7 * * q 4 , , : , : : q q q q t y q q q u q y q q q q , ; - e * : , X         O       .               4 y 7 - i , * q , > X     O             O                                                                                                                                                                                                                                                                                                                                                                                                                                                                                                                                                                                                                                                                                                                                                                                                                                         O         .   ; q q ; 4 , e t q q q e t e q t q q q t q : q t q q q t q e q y ; q 7 9 7 * X                                                                                                             X q 7 7 7 X   X           : 7 q e         O O         .         X   . . .       X t q q y & * q 0 q q t t e t ; t e t 4 , 7 7 7 ;             O                             X , q 7 q                                                                 ",
"                                .     X             X X     X     X           .                                                                                                                   X 4 t e q X X X             X   X                           X   X X q e : 4       O   O                 O X     X           X   X     O     .       O                                                                                                                                                                                                                                                                                                                                                                                                                                                                                                                                                                                                                                                                                                                                                                                                                                         O       . .       X X X                                                               X     + +                                                                                                   . .       q q q 2 X               t e 7 e         O   O       .               .       X   ; q * : X X X                         X 6 0 7 u           O O                     .         , , e :                                                                 ",
"                                O O         .         X                   o   O                                                                                                                     3 , , e       X     O                                         X   q ; q 4 X       O                     .       X                 o   O                                                                                                                                                                                                                                                                                                                                                                                                                                                                                                                                                                                                                                                                                                                                                                                                                                                                             .   X                                                   O           + + .                                                                                               .     .     , q q 2                 e 7 9 q       O     O         .   o           .         - q , 4         o           .   .       7 7 7 i     .       .           .                 X , e q :                                                                 ",
"                                                                      . +                       X                                                                                                   t q * t                                                         X q q q ;                                                         O O                                                                                                                                                                                                                                                                                                                                                                                                                                                                                                                                                                                                                                                                                                                                                                                                                                                                                                                                                   .                                                                                                           .   ; q q q X               q q 0 q X     .   O               .                     * 9 e :                     .         X q 0 7 t           X O   O           . .     .       t q 0 7                                                                 ",
"                                                                      O O   X   X X         X     X X                                                                                               q 7 q t             O                                             q q q , X                                                           O                 O                                                                                                                                                                                                                                                                                                                                                                                                                                                                                                                                                                                                                                                                                                                                                                                                                                                                                                                                                                                                                                               e 0 q 7         O       q 0 0 q     . . O                                 O X   : 7 e *     O                           q 0 q q X             .                 .         X e 7 7 q                                                                 ",
"                                                                        O X = q ; ; ; , e e q 9 q q 4 3 O     .               .                                                                     t 9 q ,             .                                       O     q q 7 :                 o                                       O O                                                                                                                                                                                                                                                                                                                                                                                                                                                                                                                                                                                                                                                                                                                                                                                                                                                                                                                                                                                                                                                                   e q q ;             .   q q q 9 X         @ @                             O     ; 7 7 e     O               .           7 q 0 ;               O     O   O   O           X X 4 q 7 q                                                                 ",
"                                                                X         X q 0 0 q q e q 7 7 0 q ; i i                                                                                             q 0 q y                                                     X     q 7 q ,     X                                       O O   .                             O                                                                                                                                                                                                                                                                                                                                                                                                                                                                                                                                                                                                                                                                                                                                                                                                                                                                                                                                                                                                                                             q q q q                 u q 0 q     . .           o       .                   X : q 7 q X                               q 7 q :             O     X   O             O       u ; q ;                                                                 ",
"                                                                  .         7 0 7 0 q * t q 7 q q 7 u 4     o                                                                                       e 0 q t             .                                       O     ; q q , X                         O   O                 X                                                                                                                                                                                                                                                                                                                                                                                                                                                                                                                                                                                                                                                                                                                                                                                                                                                                                                                                                                                                                                                                             t 7 0 q           .     u 7 0 q       .       X                                 : 7 e e                                 q 7 q t X                                   X     X 4 ; q :                                                                 ",
"                                                                    .     X y q 9 t % ; i e q q q 7 q 4 X                                                                                           t 7 7 ,                                                         X q q q ,                         O   O                 O             X                   O                                                                                                                                                                                                                                                                                                                                                                                                                                                                                                                                                                                                                                                                                                                                                                                                                                                                                                                                                                                                                                             ; 0 7 q             .   u q 0 q X     . 4 i i 4 X         .               O     : e 9 * X   O               .           , q q q     X X   X   X   X   X X         X         u q q *                                                                 ",
"                                                                  .   .     q * 6 q X   X       q 7 q i X                     O                                                                     e 0 q t             O                                             q 7 q ;     O                       O                         X                 .     O                                                                                                                                                                                                                                                                                                                                                                                                                                                                                                                                                                                                                                                                                                                                                                                                                                                                                                                                                                                                                                   o           ; q 0 *                 : 7 0 q         4 2 ; 4                   X       O   X * 7 e :                     .           q 7 0 q   X     X       X   X X   X X     X   X X X 7 * 7 e                                                                 ",
"                                                                    .       e 9 0 q X       X X - 7 q 2                                                                                             q 0 q t             O                                       X     q 7 7 , X                                     X   X X                                                                                                                                                                                                                                                                                                                                                                                                                                                                                                                                                                                                                                                                                                                                                                                                                                                                                                                                                                                                                                                                                 q q q q           X     q q 9 q X       i ; q i           .                     : e 7 :     O                           ; 7 7 y % 4 i , t , t i e t q q t e e t e t , : t $ y 7 7 *                                                                 ",
"                                                                            q 9 6 7     X     X q 7 q ;                                                                                             t 0 q ;             O                                           X ; q q ,       X                           i , , : * q q e 4 p                       .                                                                                                                                                                                                                                                                                                                                                                                                                                                                                                                                                                                                                                                                                                                                                                                                                                                                                                                                                                                                                                     .           q q 7 ; X               q 0 7 q         y q q q   X                     X       q 9 q : X                   .           w 9 9 7 , , , ; q 4 , , ; q q q 7 7 7 : e : : ; e q q 7 7 e                                                                 ",
"                                                                          X * 9 7 r X   o       q 0 q , X                     O                                                                     e 9 7 t                                                           q q q , X                           X     i q e q q 7 q q ; p       X                                                                                                                                                                                                                                                                                                                                                                                                                                                                                                                                                                                                                                                                                                                                                                                                                                                                                                                                                                                                                                                                 e 0 7 ;                 t 7 7 t         , q q q           o               O   X : 7 7 ;     O                           q 9 6 7 y i , , q ; , : q ; q q * * q q : * t , q ; q q 7 :                                                                 ",
"                                                                O           - q q t       .     q 7 q ; X                                                                                           t 0 q t             .                                       O     q q q :                 . .             X , : ; q 7 7 7 q , 4       X O     .                                                                                                                                                                                                                                                                                                                                                                                                                                                                                                                                                                                                                                                                                                                                                                                                                                                                                                                                                                                                                                                         t q q q         O       t q q e   X     q 7 0 e                   X       O     : e 9 :               X     .           7 6 7 7 % = , t t t , , , ; q q , , , , , , ; i , 4 t q t t X                                                               ",
"                                                                            : e q t     .   .   q 9 7 :                                                                                             e 0 q y             O                                       X     q 7 7 :                       .           , : e q 7 7 q q i 4 X                                                                                                                                                                                                                                                                                                                                                                                                                                                                                                                                                                                                                                                                                                                                                                                                                                                                                                                                                                                                                                                                       q q 7 q                 e 7 q t         q 7 9 t           .                     * 7 7 : X   O                           7 9 6 7 X X X   X   X   X X X   X   X X   X     X     X   X                                                                 ",
"                                                                      o o   : e e : o   .   X   q q q ,   X                                                                                         t 9 q e                                                     O     ; q q , X                             X   4 > t e , e t t , =                                                                                                                                                                                                                                                                                                                                                                                                                                                                                                                                                                                                                                                                                                                                                                                                                                                                                                                                                                                                                                                                         : 7 7 -                 t q 7 :       X e 7 7 :           .                   X : 7 e *     O                           t 0 q - X         X   X         X       X         X                                                                         ",
"                                                                    .       4 e * %             7 q q ,         .   O                                                                           .   t 0 q t             O                                           X q q q ;     X                               o               X       @ O                                                                                                                                                                                                                                                                                                                                                                                                                                                                                                                                                                                                                                                                                                                                                                                                                                                                                                                                                                                                                                                               , 0 q q         O       : 7 q t         7 7 7 e                           O     : 9 7 e                     .         X q q 7 y       X           X X                 X   O                                                                         ",
"                                                                            ; 9 9 7 * : * e q 7 7 7 q ,       . O   X                                                                               q 7 q ,             .                                       X     q 7 q ;               .                                     X   X     O                                                                                                                                                                                                                                                                                                                                                                                                                                                                                                                                                                                                                                                                                                                                                                                                                                                                                                                                                                                                                                                               ; q q q                 t 7 e ,         q 9 7 e                             O   q e 7 q X   O               .           ; 7 * t X .                                             .                                                                   ",
"                                                                            * 7 7 9 6 q 7 9 9 6 7 q ; i                                                                                             q 0 7 ,                                                           q 7 q 4 X                                             X                   .                                                                                                           O                                                                                                                                                                                                                                                                                                                                                                                                                                                                                                                                                                                                                                                                                                                                                           .                                       .                   O                                                                                                                     X t 7 0 q               X q 9 7 :         q 9 7 e           o               O     q 7 7 e     X                           ; q * i           X O O O   O   .   .           .                                                                           ",
"                                  .                             O X       X q q 0 0 7 0 9 e q q q ; t 4                                                                                             q 0 q t             .                                           X ; q q ,                                                                                   .       O O               O   o                                         O O O       o   X   X   .   .         .     O O         O O           O   X O   X @   O           O         X         . +   X       . .     O @ . .               . .   O O O . O O     X   o       O   O     . .   O O           X     . O X     X . .               o   o     + .             . . .               o                                                                   .   . .                           O       o   X X O O +           X O     X       .   O                       o   X   O   . O   O                 . O o                 o                   X                                                       O   .   X X X             X       . o           X               @ O             .   . O             + .     . .   X   X   X     O O O +       + . .   X     X     . . . . O O .         .       O O O O                                                                                                     .           q q q q                 q 7 q ,   O   X * 7 9 *           .   O           O     : e r :                     .           t 7 q e             O                                                                                                       ",
"                                                            O     O   X   X , ; ; e q q : : e ; i t 4 4             O                                                                               q 0 q t                                                           q q q , X                                                                                   .     < <     o   X $ X X   X X X   X   X X X X X   X X X X X X       O X O         .     X     X X   X X X   $ X X X     . o .       X   O O O   .   X X X X X X $ X   X   X $ X         . o . +     X   O             X $ X X X   X   X   X X   O       @   O       o     X X $   X X   X X X X X X X X X       +         .     X       $ X X X X X   X   X X X X X X   X   X X X X       .                                                                   X     X X X X X X X X X X X $ X X X $ X X X X X X O + O     X       X X X                         X     X X   X     +           X X X X $ X X X       X X X X X X X X     X                                                   O     .       O X O . O +     $ X $       X     X     . .         O       .       O O   X   o       X     X X $ X X X X X   X X     O O       X       . .   X X $   X X X X X X X X $ X X   X     . . o   .   .     . O O   O                                                                                                               e 0 0 q           O     q 7 q y         7 9 7 ; X X               X             * 7 7 :     O                           q 0 q t                                                                                                                     ",
"                                                                  .   O     X       X   X       X     X                                                                                             q q 7 t             O                                       O     q q 7 :                                                                                         X < < X     X $ & & & & $ $ & & & & & & & $ & $ & $ & $ & $ $ X       X @   o . .   X $ & & & & $ & & & $ & & & $ X # . .     .       X X O   .   & & & & $ & & & & & $ $ & & X X X O     X     X     O +     X X & & & & & & $ $ & & 6 & & $ X   X .   o O O       X & & 6 & & $ & 6 & 6 & & & & 8 & & & $ X       X     + .   X X $ $ & & & & & & & & 6 & & & & $ & & & & & $ $ X X   O                                                                 X   X X $ & & & & & $ & & & & & & & & & & & & & & $ X     O   O     $ $ & $ X                   #     X X $ $ & $ X @   .       X X & & & & & & $ & & $ & & & & & $ & & & & $ $ X X   . O                                                             . o @ X $ & $ X X X .   @     O           O     X             @ X     .       & & & & & & & & & & & $ & $ $ $   . O .     @     X X $ & 6 & & & $ & & & & & & & & & & 8 & $       + O X           o                                                                                                                   t q 7 q               X q 7 7 e         q 7 7 *           .               O     : 9 9 :     O               o           e 9 q t             .                                                                                                       ",
"                                                            O       . .     .                       X     X   o   O                                                                                 q 7 q t             O                                       X     q 7 q ,   X                                                                                       O O O   . X ).z.#Xz.~.I.P.!.P.!.P.P.P.P.!.!.!.P.!.P.!.R. XX X       O   .   o   $ & M.!.B.!.!.P.H.!.P.P.P.n.D n.$ X   . .   . .             $ $ h.%XJ.C.I.I.H.H.H.!.I.Z.G.K.I.$ X     X     O     @       X & T.G.G h.P.!.R.I.I.!.b.b.b.s.x.& X   @     O . . o   X T.z.a.S ~.R.S.H.B.N.N.(.!.n.!.n.!.!.L.& X X     X     O . X $ U.!.m.b.n.H.P.P.!.!.n.B.T.T.!.!.H.H.H.S.P.R. X@ X   O                                                                   X X '.].I.!.n.H.P.R.P.H.c.v.x.v.n.P.P.A.J.J.S.P.}.X   O O O     X D.H v.I.X                 O . . o   $ U.J.J.R.$   @   .   X $ [.K.x.n.B.!.N.!.P.P.!.!.B.!.!.P.!.B.n.m.!.R. X$     . O                                           . .                 .   X }.~.!.Y.$   o             O     O .             O .   X   O .     X $ S.c.n.!.!./.!.l.!.!.T.P.^.K.n.& X   . . o   O o . X $ P.m.c.c.n.S.P.S.!.(.P.P.).!.j.P.^.z.z.& $ X   X < +         . .                                                                                                                   q q 0 q           O     q 7 q :     @   : 7 * :   O                           X : 7 7 q X                               q 0 q t             O                                                                                                       ",
"                                              .                 .     .     .             O         X         .                                                                                     t 9 q t             O                                       O     ; q q , X           X   .                                                                       X   O O   . X K.<.2.y.x.P.!.!.P.!.!.P.!.!.!.P.!.!.!.P.!.R..XX   .   O   X O     $ D V F c.n.B.!.B.S.H.!.!.H.D 7.<.@X& X     .         X     $ & K.u.g H.I.T.!.H.n.!.H.H.b.1.;.j c.$ X X       .   @     X X $ 6 +X:.1.H.E.P.I.I.D.P.!.B.c.<.3.G.& $   . . O .       $ K.;.>.r.H.Y.A.P.N.^.P.~.h.~.P.l.K.V F v.& $   +     O O   X $ _.B e.B c.^.P.P.!.P.!.!.P.P.P.P.H.n.H.n.P.R. XX X                                                                     X X $  XY.I.H.n.S.P.T.n.M ;.#.<.Z D !.S.P.J.S.Z.J.Q.X     X       X H $.:.G.X               O   . .   X & ^.M Z F.& X         X & l.M <.u.z.^.P.!.H.P.!.!.!.!.R.R.T.P.n.n.!.R.{.X   o . O                                                       X       o X $ P.Z Z ~.$     . .         O O   O       X                 O     X $ 8 Z :.d.S x.S.H.H.l.H.H.F.S M e.m.$ X   O     . .   X & K.k ;.1.F ^.P.P.!.S.!.P.T.!.P.!.z.e.e.v.6 X               .                                                                                                                       e 0 q q               X q 7 q q         , e q :                                 e e e : X                               q 0 q t                                                                                                                     ",
"                                                          .                       O       X             o     O   O                                                                                 e 0 q q                                                         X q q q ,                                                                                       X       O     X F O.' 2.8 & & & & & & & $ & & & & & & & & $ X X   . + O         & H.i.:.F 8 & & & & & $ & & & 8 :.@.;.F & X X           .   X & v.<.;.M & & $ & & & & & & 8 a.;.8.1.H.$ X         O O   X $ & ~.a.w.e.F & $ & & & $ $ & $ 6 <.+.3.m.& X   .   +   .   $ s...[ o.& & & & 6 $ & $ 6 & $ & 6 x.1.1.S &     @         X & z.2.>.e.8 & & & $ & & $ & $ & & & & & & & $ $ X X                                                                       X X $ $ & & 6 & & & 6 3.{ { %.l 8 6 6 & $ & & & $ X             $ 5.*.] Z $             O   O   .   X & z.,.:.v.&   .     X X & %X:.;.t.8 & $ & & & $ $ & $ $ $ & & & & & $ $ X   .   .                                           .       O               $ H.<.,.D & X . .       X       O   O .       O O     .     . o X $ H.Z k p.S 6 6 & & & & & & & 8 a.;.r.j.& X   @     .   X & x.,.&.r.8 6 & $ & & & $ & & & & & S e.:.G & X X X X                                                                                                                   X           , q q *           X     q 7 q t       X = i t 4 X O       .       X       O     q 9 7 *     O               .           q q q y             O                                                                                                       ",
"                                                  .                 O         @               X                   O                                                                                 t 0 q t             .                                             q 7 q ;                                                                                         X           $ F .. .<.6 X X   X X   X X X   X X   X X   X     O O         X $ v.:.;.u.l.& X X X X     X   X $ G ,.O.;.c.& X O       X     & A #.9.m /.$ X   X   X X   X X & S.Z 5.V 6 & X X . O . O X $ & C g 1.F n.6 $ X @ X X X X X X $ v.,.%.;.G & X .   X       $ k { U p.& X X X X X   X X X X X X $ c.1.3.D $ X   O   .   X & N >.O.B 6 & X X X X X   X X     X   X X X X X     O O                                                                 . O   X X X X X X   X $ u.) { @.S 6 $ X X X X X X X .   X         $ k [ { k $ X         O           O X 8 N >.%.S &   O o   X X & D :.,.S 8 $ X   X X   X X X     X X X X X X X             X                                                       o     X & D >.] c & X   . .   X       .     .               X           & 6 F g F P.& $ X X   X X X $ X & !.e.<.k G.& X   O   .   X & c 3.:.D & $   X X X X X X     X $ & x.:.7.D $ X                 O O                                                                                                               ; 7 0 ;                 q q 7 u     X     X X     O                       O     : r r :                     .           q 0 q q             .                                                                                                       ",
"                                                                            .           X           O       O                                                                                       e 0 q t             O                                       X     q 7 7 , X X                                                                                 .               $ a.)  .w.&                                       O   X   o   $ !.:.%.7.8 $ X   X     . . .   . X & Z ] ..<.K.X O     O   . X G.>.) ,.8 $         .     O O     $ 8 u.5.G I.$   X . O .   $ S.4.+.u.8 $ X X @               X & S O...>.D X .         X X a.( W l $           .   X X     . X 6 k &.1.P.$     X     X & G O.>.c.& X   .           .     . .               .                                                                   . O O             .   $ l { { >.m.& X   X O O       . O           $ r.} ( t.$     O       O         X   & c.] >.v.& X 1       X & S >.;.F &   .   .       O                                                                         . .                 X $ & m.O.%.c.& X .   O                 .         O   O       X   X Y.F 2.2.8 & X   X   . O + O     @ $ 8 2.#.5.H.$   X     X X & H.1.:.v.& X   .         . o     X @ 6 :./ l J.$     o           O O                                                                                                               q q 7 q                 q 7 7 q     .           .         .                     * 7 7 :     O                           e 7 q ,                                                                                                                     ",
"                                                                    O         . .     .       .             O                                                                                   .   e 7 q q                                                     O     q 7 q ,                                                                                   O O O             $ u.] { Z $                                       X   X   .   $ F >.O.G & X           O .     .   X & ,.{ ] F $     O       $ Z ] ] 1.6 X X               O O   X 6 C :.l F.$ X           & F.$.4.c.& X     X       O     .   X & r.[ ] Z X O         X @ e.{ @.4.X .     O . .             X & G &.;.n.& X       . X & F O.>.c.& X . . .       X                                                                                             . .             O     $ k W [ o.v.& X       O O     . .           $ y.[ ..y.$                   X X   X & c.>.>.c.$           X & F %.] F & X               X         O . . O                                                         .                   X & c.>.>.b.& X               .                 .     .         $ n.1.] <.&           X O O O     X $ 6 Z &.>.v.$   O     X X & n.:.;.v.& X                 .     X & r.) %.F X o               o                                                                                                                 ; q 0 q                 q 0 0 q           X       .       .               O     : 7 7 : X   O               .           q 0 q t             O                                                                                                       ",
"                                            O       o       X   X             .   . .             O   O                                                                                             e 0 q t             O                                             q 7 7 t                                                                                   O O O .         X $ u.W @.Z X .                                               X & M 8.,.v.$ X       O O O O   X . O O X v.,.;.F $   O         $ y.{ { Z $                   X       & C.Z f.g.& X         X & v.$.$.G.$   .       .               X M { E r.$ O           $ Z { { Z X         O .     O   X   X & A ;.>.v.& X       .   & F %.>.v.$   .     .     X           .                                                                               . . .         X       O $ 1.} [ >.v.& X       O O     . .           $ e.] ] M $   O                   o   & F >.>.x.& X O       X & S 8.%.F &   .       X               o O . O         X     O                                         X     O       O .   X & b.>.2.b.& X   O             .               . .   O O O     $ a.] ) e.$           O   O   O O   X & G &.>.v.& X       X X & b.;.%.c.& X     O O X     .   .     $ <.[ ( +X$   O +                                                                                                                           X e 0 7 q                 q q 7 q     .             .                         X   : 7 7 ; X         X     X               q 9 q t             .                                                                                                       ",
"                                          .                           X         o         O O           O                                                                                           t 9 7 i             .                                       O   X q q 7 : X X                                                                                     O           $ l { ) Z X             O               O             O O O X 6 c.,.;.v.& X       + .   X     . . O   $ ).x.I.X             $ B ] ) l $               O         X @ }.!.S.XXX   .   X X X & n.4.4.D & X     .     O O   X     . X Z { [ e.$     .       X M { { 5.$           O O O O O X   X & D ;.<.c.&         O X & F >.>.v.&   .                         .                                                                               . .     O O X O O     $ M { { 2.v.& X       O O O         O O O   $ u.@.@.Z $               .       .   & G &.%.c.& X       . X $ x.;.;.v.& X     X                 X                         .                                                     O     X & m.2.1.x.& X X           . .               .   .   O <     X & 1.{ ] Z $ . . .       .     O     X $ x.;.;.v.&       X O X & b.>.%.F & @   O   X         .   O O $ B X.O.b $             X       .                                                                                                             t q q q         .       y q q q       .         X                             X ; 7 e *     O               .           q 0 q t                                                                                                                     ",
"                                                    o   X , 4 t e t : ; , y , t = = X     O   O   O                                                                                                 q 0 q t                                                           ; 7 t ,                                                                                         . .         $ Z { { u.$                                     .           X & c.;.;.F.& X       . O           .   @   X & $   .           $ Z ] *.1.$         X     O       X X X $ $ $ X X           $ & v.$.&.c.& X     .     O O X       . X Z { [ e.$     X       $ Z ] { e.$   X   X   O O O O   X   X & x.2.2.x.& X       .   & G ;.;.K.$ X               O     O           o                                                                                     O   O     $ k { ] ;.x.&   .     O O O   X         O   $ l @.@.Z $     O           O     . X & G &.%.G & X     .     $ n.1.,.v.& X           O O                                 O                                       O O           O O O   X & x.;.3.x.$ X           O . O O                   . O O       $ <.E { u.X   .   .                 X $ x.:.2.x.& X       O   $ v.>...F & X     O               . + X e.( ..d.X o   .                                                                                                                             , q 7 q                 t 7 0 q X   . O         .         .             O       : q 7 :     O                           e 0 q e             O                                                                                                       ",
"                                                          t t t q 9 7 * 7 7 q r t q X     O     X                                                                                                   e q 7 4             .                                             q q q t         X       .                                                                             .     $ M ..[ M $                                   O           . X & c.>.;.H.$         o               X   X X X       o . .     X e.{ U l $             O + +         X   X X X X X     O O X & c.%.>.c.& X o   . .       O         $ Z ..) e.$             $ F ] { M $     X                 O   & x.>.2.c.& X       o X & D <.1.x.& X             O . O O                                                                                         X     X   O         $ 1.E [ >.D &   .         O   X         .   $ Z U U u.$   O .                 O   & G %.%.G & X       .   & x.<.:.v.& X           O O .                                                                       O               O .   X & c.:.:.x.& X X           O O O X   X               O O       $ 1.Q [ e.$                     O   X & x.>.O.D & X   O O O   & x.>.>.G & X   O                 X O $ y. .( k X   .           .                                                                                                                   e 0 7 7                 2 0 0 e                           .   X           O     : e r :                                 q q q t             O                                                                                                       ",
"                                            O   X .   X   t ; ; q 7 e r 7 7 7 & q q X   X     O                                                                                                     q 0 q q                                                     O   X q q q ;                                                                                     X               $ M ....e.$                                     O     X   .   $ F >.;.K.$ X               X     X       o   X     . O       $ 5.W W 1.$             O O   . O     O O     X       . O   X & c.@.%.c.& X   .           O O       $ M ] ] M $             $ M  .{ e.$           X         . .   $ b.O.O.c.& X         X & c.,.3.n.& X     X O     .       O   O   O O                                                                           X             O       $ e.[ [ >.D &   o .                         $ 5.{ { u.$     O                 X   & G &.&.G & X         X & D :.1.v.& X           O   o                                                                         O X           O O   X & x.&.,.x.$ X             O   O                           . . $ <.[ [ r.$   X   O O               X & c.O.>.c.& X     O . X & x.;.;.c.&               .           X M =.) s.$ o             .   X                                                                                                   .           ; q q q             .   i q 0 q X   . .                                 O       * 7 7 :     O               .           q q q t                                                                                                                     ",
"                                          O O           X i : t t = ; t ; 7 y t - t   X     O                                                                                                       e 0 q t             O                                             : q 9 ; X                                                                                       X     . .   X a.) ) e.$           .           O                           $ A =.>.v.$ X       O O         X O   . O             O       $ 1.[ ] Z X             O                 O             .   X & v.&.>.b.&   O           O       .   $ e.{ ..e.$         .   $ e.[ [ e.$   . .         .       .   & z.O.>.v.& X .     . X & c.,.<.c.& $                                 O O                                                                         O O .               $ B [ ] >.c.6 X O                   O .   O X r.[ { e.$       O O O           @ X & c.:.$.v.& X         $ & G ,.3.m.&                                                                                         O O     X         .   X & G %.&.m.& X   .           O                   X X   X     . X e.[ [ y.$                       .   & z.O.O.v.& X       O   & C >.;.v.&   O O       .             X p.( 2.n.X     X     .   O O                                                                                                                 , 7 q q                 q 7 q q     .   X                 .                     : 7 7 q                     .           q 7 7 t             .                                                                                                       ",
"                                                X     X   t ; q 4 X X   X   * t : p       . . O                                                                                                     q 0 q t                                                         X * 7 q 3 X                                                                                 O             .   $ e.[ ] Z X . . O                       O     X             X & G &.>.v.& X       O . .       O O   @ . .   X   O       X   $ 1.W { Z X .             X       X       . . . . .         X & D &.:.b.& X O         O O       .   $ 1.{ { e.$         .   $ e.[ [ e.$             X   o       X & c.O.>.v.$   . O     X & F ,.,.G & X     O   O                   .         O                                                                       O O     .   . .   $ M ..) >.c.&   O     . .         O     .   $ B  .[ e.$       O   O O         O X & c.:.4.G.$   @ O     X & S ,.<.x.& X     . .             . .                                                                   O                   & G %.%.v.&   O O                       .               . . . X F  . .M X .             X         X $ b.O.O.m.$ X       X X & D >.,.v.& X   . O .   . .   X X     $ k ,.c.$     X X         O O                                                                                                               X q 7 q q                 q q 0 q X     .                                       X : 9 e : X                             X 7 7 q t                                                                                                                     ",
"                                                      X X q q t 4     X X   , , , 4 .   X . . .                                                                                                     t 0 q t                                                         X ; q q ,                             .             X O                                               O O     $ 1.E ) Z X .                     .     .   . O .         O X & c.:.g D 6 X       @ O         < O X     O           .       $ M { { M $                                     . .         X & G >.;.b.& X X   .             X     $ p.E ) Z $   O         $ u.{ [ y.X                 O   .     & s.] +.x.&   . O O . X & G &.>.G & X     O . O       . .       . . O . .                                                                                             $ M ..) >.c.& X                           . X y.( } 2.$         X X O . . + O   X $ x.:.:.v.& X     X   X & x.,.;.x.& X                   . .       X       O .                                                                     X & c.>.;.v.& X X .                                             X M [ ( u.$         . .       .   O X & v.,./ v.& X X   O O X & c.>.>.v.& X   X O . .           X X & B c.$     X X                                                                                                                     .     X   i : , ,     X   X   X X * 7 q ; X                         .             O       y ; , 4                 o     .     X X 7 7 ; ,                                                                                                                     ",
"                                          .       @     X ; 7 7 4 X X   X X * : > ,                                                                                                                 e 0 q e             O                                             q q q , X                   .               o                                             .       O +       $ 2.E [ a.$ . .         o       @   o       .   O         O X & K.g 7.A & $       O           O O   X X     .               $ u.) ) M $   .                                             X & G #.q.z.& @     o .     O       O   $ ;.E { h $   X         @ l ) X.j $         o       . .   O X 6 N 8.>.D $ X     X O   & F ;.:.v.& $       .   +       .   O   O     o                                                                             O                 $ M { [ >.x.&                   .           $ u. .[ y.$                 . +     X & G.:.:.v.&           X & D ;.3.c.& X o     O O       . . . o X   X     O                                               O       .                 X $ m.;.;.v.$       O   X     .                             .   $ e.] =.B $                     .   X $ c ,.,.G & @   O . .   & F >.>.G & $ $ X   X   X X X X X X & P.l.6 X . O O   X     X         .                                                                                                             e : * t X   X       X X 7 q q 4 X                     O               O   @   X e * ; : X   X X                     X $ * q t , X                                                                                                                   ",
"                                              O       X   q t q q & 7 q t * e q , y X         O                                                                                                 o   q 7 q t             .                                       O     q q 7 :   X                                 ; ; , i q q :                                           .       $ p.{ [ M $       .   .                 o                     $ ~.l #.,.a.& X     O     .       O   O   . . .               $ l { { M $                                                 X $ v.:.:.x.$ $     .   O O O O       O $ p.R | a.$             $ Z { ( e.X O   O + O .       .   O   6 #Xo.w.n.& X       X X & x.3.3.c 6 X X @ O   O O + O X   X   X                                                                                                       X M { { >.x.& X                 .           $ 1.I ..M $     O     O     X       $ & V >.&.G & X           & c.;.;.F & X   .         o               @                                                                               X & v.,.2.v.& X   O .                                 O         $ e...( B X + o   X o           .   X & n.;.` m.& X o       X & c.;.%.a.8 & & & & & & & $ & & & 6 F F & $   O .         O .                                                                                                                 X X X y q q t * * e q i q 7 6 q q ; ,                       .                 O       t e 7 w & * q 7 q q t e e t q , : q * 0 7 q ; ,   o                                                                                                                 ",
"                                                  O     X ; ; * 7 7 7 7 9 9 7 7 * q   X     O                                                                                                       q 0 q t                                                     X     ; 7 q ,                       O       X     i q 7 q 7 q q                                                 o $ Z { ( r.& X X   X   X X   X X X   X                           $ 8 1.;.1.V.& $   X   X X X X $ X X       O                 $ u.] { e.$                                                 X & x.:.:.x.& X X     O   O   X         $ 1.E U M $         . . X Z { X.e.$   O           X   . . X $ 6 y.O.O.n.& X X     .   & x.:.;.a.8 & $ $ & X $ X $ $ X $ $ $                 o                                                                                     . $ e.{ ( >.c.& X         o                   & 1.E ) r.& $ X X $ $ $ X $ $ $ $ $ $ 8 d.^ 9.F & X     . . X $ c.>.O.F 6 X X X X X X   X   X X X X   O     o                                                 O   .   .       .         X $ v.2.;.v.& X .                                               $ M [ X.M X +                       X & v.>.>.c.& X   .     X & c.>.&.1.F B.!.B.B.n.~.P.P.R.P.n.F O.e.&     X         + O         o                                                                                                   O O         ; 7 7 0 7 7 7 0 7 7 t q ; , = i   X                                 O .         , * 7 9 6 9 7 9 7 7 7 7 7 q 7 7 7 7 q q ; ; ; i   X                                                                                                                 ",
"                                                O         4 t e t r 7 7 7 7 9 t e ; X     X   O                                                                                                     q 7 q t             .                                       O     q q q , X           X   . O         X   X X i q * q 6 9 q                                         O     X   X F { [ ,.8 & & & & & & & & & & $ X X X         X             X X $ l.#X<.j Z 6 & & & & $ & & & & & X X     X               $ Z { ) k $                                       + O .     X & G :.#.G 6 X   . .             .   O $ Z @.{ u.$     .     . X e.[ ( 1.$         X   X   X .   X & a.` ] 1.I.$   @     O X & c.%.[ ] ;.k F e.1.1.<.e.r.e.k Z F.$               o +                                                                       O               X k { { >.v.&                   .         . X Z { E ..1.V Z i.F B F u.3.:.:.1.u.e.;.( E ) s.&   . .       & x.;.8.w.8 & & $ & & & & & & $ & $ X   O O O           O                                               o                 X $ v.;.;.b.& X   .           .                       O   O     $ M ..( p.$     O   o   O   O       X 6 +XO.,.G.& X       X X & c.;.%.1.G n.B.B.n.n.!.P.P.R.P.n.F o.1.& X   .   .   + O     X .                                                                                                         O       X q q 0 q 9 9 9 7 9 7 * q ; i i 4                                         O   X X , t 0 r 7 0 7 7 7 q 7 q q q 7 q q q * t ; i 4 5                                                                                                                     ",
"                                                        X = , , * q * e q e * q q = X     X O                                                                                                       q 0 q q                                                         X q q q ,                     O               ; q q y 7 7 =                                                   $ Z / [ +.x.I.I.H.!.H.n.n.B.!.T.XX`.X     O O     X             X X & 6 c.1.4.x.H.P.P.!.~.!.!.K.b.J.A.& X X       .         $ u.) { M $                                         o       X & c.>.%.M 8 & $ $ X $ $ $ $ $ X X $ X & Z ..U 5.$ . .     .   $ 1.{ [ o.6 $ $ $ $ $ $ $ & X X $ & H %.) ;.G $ X X @     .   $ c.*.E ..@.;.3.>.` >.&.] @.8.;.4.F.$     .         O + .                                                                                     $ Z { [ >.x.& X                         O O X V X.Q I ,.:.$.&.>.2.1.:.+.) @.,.2.<.O.) } ] v.&   O       X & x.o...<.N ^.R.!.!.B.B.H.H.!.~.I.W.$   O < +       X O O                                       O                         X & x.;.>.x.& X     O                                           $ M [ W / 6 $ $ X $ X $ $ X X X $ $ $ 6 e.O.` v.& X       . X & c.;.&.Z 8 6 & & & & & & & & & & 8 F e.H.$     . +     O     X   .                                                                                                               X = t ; * * q q q q 7 , t 3 i 4 4                                       O       X , , * q q ; ; q t t t 2 t t t e t t ; t t i 4 3   X                                                                                                                 ",
"                                              . O   O     X       X   X   X   X   X           O                                                                                                     q 7 q ,             O                                             ; 7 q ;   X                 .                   X     X X                                           X   O   X G *.| / K.I.I.T.P.S.S.n.n.!.T.].oX$ X   O O O   X     . .       X X $ U.K.D H.S.!.P.I.T.R.P.l.m.k 3.1.v.X                 $ e.{ { M $   .                                           .   & m.O.E 8.;.e.a.j p.1.1.e.u.u.5.Z S @Xj ..T E 3.$ . . O       $ 1.E Y -.:.A +XF B a.a.M h i.s.Z d +.*.#.m.& X       X   o   & b.;.{ #.l C x.G S G.V D D S S F.Q.X O . O O         O                                                                                       $ k { { >.v.& X                           O X a.{ E ( Z S D G c.v.F.F.c.G G S n.m.N 2.%.;.K.&   X       X & m.>.( <.+Xl.P.P.N.B.B.!.S.P.I.I.|.X X O < .         O O                                                                   & v.,.>.x.$ X   .             O                       O       $ B } Y | <.B a.M Z a.u.e.u.u.e.l 5.5.Z 7.I >.m.& X         X & c.;.,.D & $ X $ X $ X   X X X X $ 6 l.u.z.$       X     O                                                                                                             .   .               X   X       X         o                               X     O               X                             X   X                                                                                                                             ",
"                                                  O X                                 o   .   .                                                                                                     q 7 q y             O                                           X q * 9 , X                     .   o       X                                               O               . X F *.E ,.8 & $ $ & & & & & & $ $ $ $ X     O O             .         X $ $ & & $ & $ & $ $ $ & 8 Z ;...;.6 X               $ l ] ..M $                                                 X $ v.%.[ ) ] 2.;.2.] ] >.;.<.$.:.;.2.<.2.[ Q R 3.$ . . O       $ 1.{ } ( ,.:.e.<.,.;.<.<.7.#.2.<.,.&.:.S & X   .   X         & b.;.>.Z 6 & & & & & & & & & & & $   . . O O   X X                                                                           O         O     $ M ) [ >.x.& X                 o           $ e.I } ;.8 6 & & & & $ $ & & & & & & 8 u.#.1.x.$   O     X X $ v.] ] r.8 & $ & & & & & & $ & $ $ $   O + .       X   O O                                             .                 X & v.>.2.b.& X .   O                                           $ e.[ E E O.O.;.#.3.;.%.O.;.;.;.&.&.&.:.#.{ ] x.&         X X & m.,.:.F.& X                       X & 2.3.& $     X   O .                                                                                                               .     o                 X     X                                                   .   X                                                                                                                                                                       ",
"                                                O   O           O O O       O       .     . .                                                                                                       t 9 7 ,             O                                           X ; q q ,               .   .   .   .         O   O   O O                                     .   X       X . X e.{ { 1.& X X X X X X X X   X X     X       O             O   o       X X X X X X X X X   X $ $ I.S :.>.r.B.$             $ Z ) { M $                                           X     X $ v.#...#.k c.m.S m.D b.x.H.x.G F c.c.y.O.'  .1.$           X X Z @.] &.Z D x.n.c.c.F.D F F c.b.c.H.I.$ X               . X & c.<.2.c.& $ X X @ X   X X X @ X X   X .     X       .                                                                                       $ e.{ { >.v.&         .                     $ u.{ { 4.$ X X X X   X X X X   X X $ 6 F >.:.c.& X         X & S %.%.F 6 X X X   X X X X X X X X       O   .       X O                                               .                 X & v.>.;.v.& X   . O         .                                 $ e.] @.:.F c.F F v.v.F F c.c.b.c.c.S l :.U ] m.&         X X & c.,.:.G & @   O O                   $ e.] <.x.X           O       X                                                                                                     .   o   .     X     O   O                                                     O                                     X                                                                                                                                         ",
"                                                      O           O   O   O           .       o                                                                                                     e 0 q t                                                           q q q , X       X                         O   O   O .   O                                 O       X         X e.[ [ y.$                 .                 . O         O X   .   .     O             X       X $ 6 :.@.( y.$             $ e...{ M $                                               . X & x.:.&.5.8 & & & $ & & $ $ & & & & 6 8 <.]  .e.X O       X   $ F ] >.f 8 6 $ & 6 & $ & & 6 & & & $ $ X o .             .   & c.2.2.x.& X         O O               .           .                                                                       O                 @ M { [ >.x.& X                 .           $ Z { { l X             O           X & c.>.&.G & X         X & F ,.>.c.&   .   . O           .     X X                     .                                 O                         X & v.>.2.b.& X .                                       O O     $ e.] >.g 8 6 & & & & & & & & $ & & 6 8 4.=./ v.$ X         X & b.2.;.F 6 X   O +               O   $ B [ { 1.$         . + O                                                                                                                           O . O O   O                                       X         X                                                                                                                                                                                 ",
"                                                O   O               X                                                                                                                               t 0 q ,             .                                       O     q q q :                                                                                   O O               $ 1.E  .B $   X                 . o                   O         + .                   X             & 4.) [ e.$             $ Z { { M $                                                 X & x.3.:.v.6 $ X X X X   X X X X   X X & a.] { k $             $ Z { E p.& X X     X X   X X X X X X   X O         o . . . X & B >.>.v.& X   X O   O     X     X     . .       .                                                                                     O     $ M { { >.x.& X                             $ Z @.W 5.@     X     O   O   .     X & H :.:.v.& X   O O O   & G >.#.c.& X . .   O O         . O O                   X                                       O       .               O   $ v.;.>.x.$ X     .         .                           .     $ M ) ) i.& X X     X X X   X X X   $ 6 d.] O.v.& X         X & c.;.>.c.& X   O O     .         O   $ Z ..[ 1.$       O O .   X                                                                                                                               .                                                                   X                                                                                                                                                                   ",
"                                O                                                                                                                                                                   e 0 q y             O                                       X     ; 7 7 :     X                                                                                         X     $ 1.[ { Z X             O   .     .               O   O                         X       O O . #   o $ k { [ M $   .         $ M ) { Z $   .                                               & n.g 3.S 6 X X                   .   $ M *.{ 1.$ .     .     $ e.[ [ 1.&     X   O O X             + +   .   X     + . O X 6 F >.>.x.& X                             .                                                                                                   $ M { [ #.v.& X                 .           X Z { W 1.$             O         @ X $ v.:.:.v.& X       O X & G :.>.v.&         O           . O       X           X       .                                     .           .         X & v.;.>.b.& X   O O                                   O       $ M ....M $     .   o     .   .     X 8 F >.2.z.& @         @ & c.,.;.x.&   O +         .           $ F ] ( 1.$     O   . . O                                                                                                                                                                                           .             O                                                                                                                                                               ",
"                                                                                                                                                                                                    t 9 q e                                                     O     q q q , X                               X                                                         O O O     $ e.{ { Z X o     O                               O   .       X               O O               X X $ i.) { u.$     .       $ u.) ] 1.$                                                 X & c.<.3.x.& @     . . .             . $ 4.W U i.X .       . . $ Z [ E 1.X   O   X     .   .       X O   . .       O O . O X & Z &.;.v.&     .           O   X           O O                                                                                               X k { { >.v.&                           O O $ M { E e.$ O O O           .   O X X & c.,.&.a.& X         X & G ;.>.G & X       O O           .             O O O O O                                               .                 X & v.;.,.x.$ X                                                 $ e.' ( M X O O   @     O O         X $ z.2.>.z.& X     .   X & c.,.>.v.&   X O                   X $ Z ] { M $     X             .                                                                                                                                                                                             O   O O   .                     .                                                                                                                                     ",
"                                                        .                                                                                                                                       .   t 0 q t             O                                           X q q q ;                                                                                           O   O     $ e.] ] u.$     .                             X     .   . .     X           O . O     X X   . .     @ Z U *.k $             $ Z { { e.$                                       .         X & c.;.;.x.& $     o .   .   X     . . X :.W W i.$             X Z { [ d.$         o .   .   .     @ @ O   . o     @ O   .   6 F >.:.F.& X       .   .   O O             O O O O                                                                                           $ e.{ { >.v.& X         .       o           $ 1.W { Z $ O O O           .     X X & c.>.>.G & X       .   & c.,.,.c.6 X               O .                 O   O O O                                       O                         X $ v.>.2.b.& X   . O         .                       O         $ M ..[ d.$ O       X   O O O O O O X & m.;.O.m.& X         X & G ;.>.D & X   O   X                 @ e.) ) Z @   .             .   .                                                                                                                                                                 .                   .                                 O   O O .                                                                                                                                 ",
"                                  O                                       X                                                                                                                         q 7 q t             .                                             q 7 q ;               .       . .       .         X                                                 o       $ a.] ] Z $                           X   O         O     .       @ O O X .     . . .         O   @ $ p.W I a.$             $ e.) { k $                                               O X & G >.,.x.& X @           O           $ <.[ ( h $ X O         X Z { ( m @   X @             . . O         .     < @ O   X   & F ,.<.x.& X               O         .   .   O X                                                                                             $ M { [ ;.v.& X                             $ 1.W ] u.$     O             . .   X & x.,.;.c.& X         X $ c.;.;.c.& X       O             X       .                                                           .                     & v.>.;.v.& X         X                                       $ M [ ) k $     X             O     X $ F.,.&.V & $     O . X & G >.O.c.& X   X         .           $ 1.{ [ M $                     .                                                                                                             .             O X                                       O   O                   O           X                                                                                                                                                       ",
"                                              X                     O   O                                                                                                                           q 0 7 ,                                                         X q q 7 4   X               o                   .     O O                                           .         X F ] ] e.&                     X O           .   O           X X X X X             O .       @ O O $ g E { M $             $ Z { { M $   .                         X $ $ X             X & G ;.;.z.& X   .               O X   $ j } ..F $ O O         $ u.{ ..y.$ .     . .         . . O   X     X     O O     . X & G ,.<.v.& X   X       .   O O     .   .   .                                                                                 O         O     $ M { { >.c.&                         X     $ 4.U { Z $             o   . .   . X $ x.3.<.v.&       . .   & b.2.>.c.& X                       O                 .                                                                 X   & v.>.>.v.& X . .           .                           .     $ 1.) X.M &       o .           .   X & D &.&.G & X X O O .   & c.>.>.G & X                 X     . X u.( } <.$ .     O   X                                                                                                                 o .       o   O         O                                     O                                                                                                                                                                                           ",
"                                                                    X O     X   X X   . .                                                                                                           q 0 q t             .                                           X ; q q ,       X                                     O     .       o       .       O                 .     . X Z ) [ t.$ X                 O   O               O O .       $ ~.F G T.$         O           X   o X k | I y.$ X           X Z ) X.M X . .           X O O O .   & B.B c.I.$           X & v.<.2.c.& X     O                   $ 1.E { Z $           O $ Z ..) M $                                           O . O X & a.%.O.c.& X O O   X                     . . .                                                                                     .         $ y.[ ] >.D & X .         O                 $ k { ) e.$     O                   X & x.;.2.m.& X           & b.>.` c.6 X       X                       .         o . .                                                       O   O O   & G %.%.D $ X   . .           . .     X   . .   O       . .   $ r.[ { e.$       X .       .   .     $ G >.>.v.& X     . . X & c.>.>.v.& X       . O .   X   o + . $ A X.T o.$ O               X                                                                                                                                                                                                                                                                                               .                       O O X                                         ",
"                                    .                                 O O   * * * *     O O                                                                                                         q 0 q t                                                         X ; q q , X                                     . .     O O   O             .     .               . .       . $ M { E f &   O     O   O               O         O + . o O X & S ;.:.D & X X           O         + $ l W { M $             $ M { E 1.$ +   . O               . X & #XO.o.D & X   .     X & c.<.3.c.&   .         X     O O     $ M { ..Z $             $ e.) ..M $                                             . . X & F O.] F 6 X . <     X   O X   O         .                                                                                           .       $ y.[ { #.G &   O   O @     . .             $ e.{ { 5.$                       O   & G ;.2.b.& X     .   X & v.` 9.N 6   X         X     o o           O O                                                           . . O     O   O X & G ` 9.S &   . . +         .     X     .     @   o     O +   $ 1.{ { e.$                   .     X & F O.O.v.& X       . X & c.>.,.m.6 $   X     + o     X . .   X Z I | 3.$ . o       O                                                                                                                                                                                                                                                                                   .     X                 . o                   O                                         ",
"                                                                      O     y t y t     O                                                                                                           q q 7 t             O                                       O     q q 7 :                         X   O                   O O .                     X         O           X   $ t.{ { i.X 1                                 o             X & K.<.,.v.& X   . .     O       . O   $ k { { u.$       .     $ Z @.W j $   X               .     $ & z.r.;.m.$ X   o .   X & v.;.;.c.& X o                       $ 5.{ ..B $             $ M [ ) e.$     O                                           X & G 2.;.D &   O O .     X @     X           X   O                                                                       O     o       .       $ e.] { %.G & X       X                     $ a.] W 1.$                       o   & c.>.;.G & X   . .   X & C +.+.G &     . . . .   X   .           + O   X           O                                             .                 & G >.>.n.$ $   O                   X o     X       X     O   $ e.{ ] Z X             X O         X & c.O.O.v.$ X         X & v.;.;.n.$ X X     + .     X X X + X $ k *...n $       .                                                                                                                                                                                                                                                                                     . .   O     O . . .   O   .           o     .         .                                   ",
"                                                                    O       ; q * ;   X   X                                                                                                         q 7 q t             O                                           X q 7 q :                                   .           X X                     .           O X X         O   $ <.E ] Z X                                         X     X X $ j.+XM F 6 $ X           O     +   $ 8 1.@.;.K.X O       .   X x.;.] <.8 $ X         .   . .   @ X 8 a.;.e.!.$       . . X & c.>.>.D &   O               O       X Z { ] M $     .       $ M ..{ u.$         .                                       X & c.1.1.K.& X . + .                     o     O X O O .                                                                 O                     $ Z { E &.c.& X             .       O       $ M { ] Z X     X   .             . X & G >.>.G &   . . O   X & H +.,.x.& X . . . O                     O O             O                                     O                         X & c.;.2.b.& X @ O               X                     X   O   X e.) { Z $ O o             O o     X & x.O.>.v.&           X $ b.>.>.m.& X   o             @ O   @ & 4.) ;.x.X     + . . .   .                                                                                                                                                                                                                                                                         . . . . . O   O     X   O O     .       X     .   X       .                                   ",
"                                                                    O O     * 7 * *           X                                                                                                     t 9 q t             O                                       O     q q q t                 .     O                 .     X           X           O                     O O O @ $ 1.X.@.Z $ .                                 @     X X     X X $ 8 S 1.i.j.$ X                 X n.r._ <.H.$   O       .   X $ K.;.^ r.n.X         .   . . .   & Z >.;.c.$ X       . . X & c.&.&.G &   .           . .       . X Z ] ..M $     .       X u.{ { e.$         O                                         & v.e.1.S & $   . .   . . . .   . .         o   o                                                                       O                     $ A ) { &.G & X     X X     .               $ M ] ] Z X             .         .   & G &.>.c.&   . . O   X & v.:.,.S $ X     . .   X                 . .       X     .                                         O       O   X   X     X & v.;.;.m.6 $     @     . . . .     + .     X @ O .       @ O $ B { [ e.$ O   .     X     .       X $ D &.] c.&         X X $ v.&.] B 6 X . . .           O   X 6 c.,.4.K.& X   @     . .                                                                                                                                                                                                                                                                                 .   .                                             X O   O                                 ",
"                                                  O       X                 : q q q X                                                                                                               e 0 q q                                                           q q q ;                                               X     X X   X X X                               O @ X $ u.) ) :.6 $ $ $ $ $ X $ $ $ $ $ $ $ $ $ $ X X           X       $ ~.1.:.S 8 & $ $ $ $ $ $ X $ 6 <.' 3.x.&         O         X & c.3.] j 6 $ $ X $ $ $ $ X X & F.4.$.s.6 X @ X   . o     & v.&.&.A & X +           O           $ Z { ) u.$     .       $ e.{ { e.X       . .                                     X X $ n.1.>.e.8 & & $ X $ X X $ X X X $ $ $ $ $ X X       .                                                                   O             .     $ l @.) %.v.& X                             $ e.{ ] M $         .   .         O X & G &.:.D & X .   O   X 6 x.<.3.F 8 & $ $ $ X $ $ $ $ $ $ $ X $ X $ X X X                                               O                         X & x.;.>.Z 8 & $ & $ & $ X X X X X $ X $ $ $ $ X   .           $ M ..[ e.$     . .           . .   X & D >.>.b.& X         X $ H &...r.8 & X X X X $ $ $ $ X $ & S 3.5.D & $ X           .         O                                                                                                                                                                                                                                                                     . .     X X X           X         X X           X     @ O                                   ",
"                                              . .     O   O .       O     X , q ; ;   X X                                                                                                           t 0 q t             .                                       X     q q 7 q X                 .                     o   X 4 2 t q , 4 , : , ,                     .   . .     X $ G @.R | s 6.u.M F M M u.Z e.e.Z Z M Z Z u.F !.& X + +   X X .   X $ F >.O.>.<.r.1.e.u.F u.e.k :.{ %.n.& X X           X X   X   & h.<.%.1.1.Z Z Z Z 1.<.r.e.1.:.5.A & X               X & v.:.:.G & X   O   .         . .     $ r.E [ e.$             $ e.[ [ e.$                                             X   X & b.2...O.` t.M e.u.e.k 1.4.Z F Z u.M M e.Z S ^.$ X O O                                                                           O   .       & Z ] [ >.n.$ X X                     O     $ e.[ } e.$     .       O     .     X & C ,.:.c.6 $         X $ K.;.] >.a d.B 1.1.1.e.y.e.F F Z B u.e.1.e.Z F.$     .                                                         X         X $ n.>.^ ,.2.u.5.g p.1.1.e.Z F M e.e.a.Z Z 5.a.l.&     o     . X Z ] @.5.$     O . O O O O . .     X $ x.<.,.x.& X       . X $ v.&.{ >.<.a.M 1.5.5.Z F a.e.e.M p.%.;.v.& X   X   @               X                                                                                                                                                                                                                                                                         O   X , ; 7 q : : e t * q : e q q 7 q : , t : y - u ;                                     ",
"                                                .               .     X     , e e ,                                                                                                                 e 0 q t             O                                             q 7 q t     O     X           O           .           4 , q q , , q q ; ,               O .   . . .         X ~.G 4.:.6.l Z Z e.e.Z e.e.e.F M u.M e.e.Z c.T.$ X   O +     . 1   X & F y.y.e.e.Z u.F F B B u.1.1.c.$ X o       X           . o X $ x.a.e.e.Z F S Z r.w.<.r.1.A F.& X X               X $ P.c.G I.$ X                         X b.e.e.n.$             X b.e.e.n.X                                               X   $ P.F <.1.r.M B a.j e.t.1.M F F M e.e.e.M u.S H.& X   O                                                                     X       .         X x.Z e.F R.$             O                 X n.e.e.m.X         O               X $ !.v.G !.$ X         X $ A.G e.y.B B a.M 1.1.k e.M Z V u.e.Z e.1.1.Z H.$     .   X                                                 .       X     X $ R.c.a.M M Z l p.1.e.e.M u.u.e.1.e.M a.g u.M !.X X   .       X Z.Z C H.$       . O O     O         $ I.v.c.R.$ X     X     $ !.G 1.Z F l l 7.f 1.G S Z e.e.M k u.S & X   O O @ O         X     O .                                                                                                                                                                                                                                                                       X     7 7 7 7 q e e q 7 7 q q 0 0 7 q e e : 7 7 * q q X                                   ",
"                                        .         O             .           X     X                                                                                                             .   e 7 q q                                                         X ; q q ,                     .                       X , 4 q q t t q q q :               .             X       X X $ $ $ @ $ $ $ $ X $ $ $ $ $ X $ $ $ $ X X       O             X X $ $ $ X $ $ $ X $ $ $ X $ $ $ X     .             .   .     X X $ @ $ $ X X $ $ $ $ $ $ $ $ X                 .     X $ @ X X                             X $ X X                 X $ $ X         O                                       O .   X $ $ & $ $ $ $ $ $ $ $ $ $ X $ X $ $ $ $ $ X X X                                                                                             X $ $ $ $ X             o                   X @ $ X       X                 O   X X $ X X     .           X $ $ $ $ X X $ $ @ $ $ $ $ $ $ $ $ $ $ $ @ X     . .                                                                     X $ $ X X X $ $ $ $ $ $ X $ $ $ $ $ $ $ $ $ X         O     X X X @ $ X             X               X X $ $ X               X X @ $ X $ X $ $ $ $ $ $ X $ $ $ X $ $ X   O +             O   X                                                                                                                                                                                                                                                                           O     X q 9 7 7 * 7 q e 7 7 q q 0 9 7 q * e q 7 9 & r ; X                                   ",
"                                                                                    X   O   .                                                                                                       e 0 q t             O                                           X ; q q , X                 O                         X ; e q q % ; q 7 7 q                 O       O X   X   . . O O                                             O   .                 . . O   .         O   O   X       O .   X       . O   .           O .                         . .     .       O   O         O                       . . .   O O           O .           .     O                                           . .                         O @                                                                                               . .             O O           X   . O   O .                       O   . . .                       O         O O O         . .   X X     O X .                           X           O                                                           O   .   X X     .             O   O             X X o O . o   O <     X         X .           X     X           X     O O                 O                 .                 X O               O O     . . .                                                                                                                                                                                                                                                                 X O     X * 7 9 9 % * ; t q r u ; q q 7 * , : e 7 r 9 q ;                                     ",
"                                                .           X           X     X             .                                                                                                       t 9 7 i             .                                       O     q q 7 :                     O                       X 2 q 0 7 X X 7 7 7 *     o       O     O   .           . .                                                     .     X           . . . . .     O             X   O               O . .               .                         .   . .               O   O                     O O                       O                   .                                             . .   .       O   O       X     O   O + O O   X         .                                                                           .   O         X             .     O                       X           O       X X         O   O     O             .         X X                 O   .         X         . o       X O                                                 O .   O .         O O     O         O             .             O   O   X       .   .   X                                     .   O                   O X @ O             X                 . .   X O O X   . .                                                                                                                                                                                                                                                                             : e 7 % X               X X X X       X & * y 2   O                                 ",
"                                                      X X   X X X   X   X               O                                                                                                           q 0 q t                                                         X q 7 q :     X           o                 O   O     X ; q 7 7 X   * 7 6 q         X X   O O                           X                                                               .       . .       . X             .               O               X   .         .       O @     .   . o       X       O           O O     X                         X                       X                                                 .     O O   O   O           O O O + O     X     .                                                                                 O O               O     . . O   .   .                                   O         O                 O O   X       . .                   O   O   O     . .                                                                         o O   O   . .           O O   . O .   .     O O   . .     O           O O           .       X X O O         O       X O   . .     .   O     X   O     O   O                           X   X   . .   O + O X     .                                                                                                                                                                                                                                                                     . O     , e e q X   O X                         * q t 3                                     ",
"                                                    4 , t ; ; ; : : ; ; ; X . . .             o                                                                                                     e q 7 4             .                                       O     q q q t                                     O       X : q 7 e     ; 7 9 q               O         O                 O O O     .   .   .   .     .   . o       @             O   O   O         O .             .         O O       O O     O   O . .               O O + O O .         O .   .       X   O     .       O       O       .                                           .     O                                 X                       X   .                 .   . .       O                                                                             O                   O O     .       .           .                                   .     O             O X         . .                                 .                                                                           o . .     .                 O O   O               O O O O X           O O O   X         X   O   o   .   .     X                   .                                   o       O       X         .     + O                                                                                                                                                                                                                                                                           .   O     : : q :     O O   O                   X t 7 e t                                     ",
"                                                    4 , y ; q q * 7 q ; q         O                                                                                                                 q 0 q q                                                           q q q ;       X                         . O           ; q * q X   ; 7 7 *   .       X   O     O                       O O O                                   O O       o . . O O   X     X   X O           .   .         .   O           X   O . . .               O   X O         X               O O O                 .                   O           O     .                                                           O                                   X                                                                                                   O                       X                                     X       .       O         O         .   O O O O   X         .   . .       O         X           . . . .   X     . .                                         .                                     . . O X               . O O                   O                   . . .   .         O     .                           X         . .           . O . O                   . + O O                                                                                                                                                                                                                                                                           O       : e q t     O O O             . O O     9 7 7 e                                     ",
"                                                X   i ; q & 9 7 7 7 0 q u   o     . O                                                                                                               e 0 q t             O                                       X     q q 7 ; X                                   O       X ; e 7 t   X : 7 q q           X   O             .         X       .                                       O       . .   X                 O o   .             .         O O   .       X   .       O O <       .         O                       O                     .           .                   O     .               .                                       O             O             . . O                   O O                                                                                 O             O   .           X       .           .   .         O       .           .             .                     X     O             O       X     O           O                                                   .   .                                                       . .           .     X   O .                 O                           .                                                             + <       X     O O                                                                                                                                                                                                                                                                               O X   ; 9 7 e     O   X               O   X X 0 9 9 q                                     ",
"                                                  X t : e 7 q 7 7 9 0 7 u X                                                                                                                         q 0 q t                                                           q 7 q 3 X                                   O       X : r 7 t     * 9 9 q         X     . .       O     o                                                               .                         O + O     X     . .             . o           . O   O O O O O             O .   X         O       O       .       O               X     o     O O                                     O                                 O   X   X                         .       X   X       O                                                                         O o       X                                             .             O   O                     .                                                                           O       O O O                                                                       O X                         .       X       . .         . . O       O                                   .   O   X               O O     .                           < < O X X       O                                                                                                                                                                                                                                                                                 O   X q 0 7 7 X           X           O O     q 7 7 q                                     ",
"                                O           O     X , e : , . X X q - ; 4 X             .                               .                                         O   O           .               X 4 7 ; t                                                           q q 7 :                       X         .           X ; 7 7 :   X q 7 7 q           X   O                                                                                                                                                                                                                                                                                                                                 +   X X X X X     X X       X     X X   X X   X X X   X .                                                                                                                                                                                                                                                                                                                                                                                                                                                                                                             O                                 O             .                                                                                     X                   X     X                                                                                                                                     q 7 0 q                         O       q 7 7 q                                     ",
"                                            O   O   : : : :     X q i q 4                   .           O           .                                           O   X             .   .     .       q 7 7 t             .                                           X q * 9 ,                                       O     X q q e : X   7 9 7 7   X X       O                                                                                                                                                                                                                                                                                                                                   O X = 7 q 7 4 5 4 ; q 4 i 4 q ; q e : t , i 7 9 * ;       .                                                                                                                                                                                                                                                                                                                                                                                                                                                                                                                                     .     O                     O           X                                                             X   X ; ; y q y : t , t , q q ; 4   X                                                                                                                                 : 0 7 q                                 q 7 7 u                                     ",
"                                              O   X : : e *     X & e q , X   X                         O   X                                                                                       q q q t             O                                           X ; q q , X                                 .         X q e : :   X e 7 7 q               O                                                                                                                                                                                                                                                                                                                                     q 7 0 7 ; , u t e : t , e q q q * , , , - q y ,       .                                                                                                                                                                                                                                                                                                                                                                                                                                                                                                                                               O                                         O   O .   O O                                       X X t i q 7 7 7 q q * * q q , 4       .                                                                                                                             q q 7 q         O         O             y 7 7 q                                     ",
"                                            O       e e r * $ X X 7 q q ; X                                     O   O   O O   O     O   O   O . O   .   .   O         X               X             q 0 q y             .                                       O     ; q q ,     X                     O                   * q e :     q 7 q : X             O                                                                                                                                                                                                                                                                                                                                     : 9 6 q e i : ; : ; , : : q e e , i 5 ; 7 7 q ;                                                                                                                                                                                                                                                                                                                                                                                                                                                                                                                                                 O             .         O     O .                         o .   .   O   .   O . O     O .   . O         ; q q 7 q 9 0 7 9 7 q 7 , 4 X       O                                                                                                                         X q q q q                                 4 7 7 y                                     ",
"                                O           O     X 7 7 9 7 - - 6 t e q e X                                         O       O                                                                       e q 7 t               O                                           q q q ;                                           X X ; q : ,     : q q :                                                                                                                                                                                                                                                                                                                                                 .   7 9 7 9 * : , e t t 4 , , e , ; , , 2 = y 7 * ;     .                                                                                                                                                                                                                                                                                                                                                                                                                                                                                                                                                       .                                                                                         X , ; q 7 7 6 7 7 6 7 9 q q : X                                                                                                                                   t 7 7 q                   O             u 7 7 q                                     ",
"                                  O               X 7 7 7 7 q y 7 7 q e ,   X         X   O                             O     O                                                                     e 0 7 i                                                     O   X ; q q , X             o         O O                   q q q ; X X t * q ,             . .                                                                                                                                                                                                                                                                                                                                 .   7 9 7 *             X   .     X       X 7 7 q : X                                                                                                                                                                                                                                                                                                                                                                                                                                                                                                                                                                                                                                             .       X , t q 7 q 9 9 7 9 7 7 * ; ;           .                                                                                                                         q q 7 q                                 t 7 7 u                                     ",
"                                    .         O   X e q 7 & e - q * : , ; X                     .                   .                                           O . O   O   .                       t 0 7 t             .                                           X ; 7 q :                         O       .             ; q q ; X   q q q ;                                                                                                                                                                                                                                                                                                                                                 .   e 7 w q X         X     X   X       X   q 7 q q                                                                                                                                                                                                                                                                                                                                                                                                                                                                                                                                                       X     O   X                                                                           . O .       > , : * * q 7 7 7 7 7 r q ,                                                                                                                                     e 7 0 q                   .             t 7 q q                                     ",
"                                                  X , : e * i , , : i i 3   X       O     O       . .                   O                                             O   O   O       .   o         q 9 q 2                                                         X ; q 7 :     X                     O               X X ; q q ;     7 q q ,               O                                                                                                                                                                                                                                                                                                                                     e & q ;   X           O           X     q 7 7 q                                                                                                                                                                                                                                                                                                                                                                                                                                                                                                                                                                                                                                               .         , 4 , : q q 7 7 7 * 7 q q ,       O     O       O                                                                                                               ; 7 q q                                 e q 0 t                                     ",
"                                                  X       X         X                             O O                                                                                 o   .         q 0 q t                                                           q q q , X                         O             X     i * q 7   X * 9 7 ;           X                                                                                                                                                                                                                                                                                                                                         t 7 q q             O O               X q q t q                                                                                                                                                                                                                                                                                                                                                                                                                                                                                                                                                                     .                                                                                 X % t , ; e & y : * 7 7 7 q :           O         O                                                                                                   O           t q 7 q                   O             t 7 7 q                                     ",
"                                                                            O           .         O     X   X                 X                                 X   X X X     X           . . . .   q 0 q t             .                                           X q q q ;       X                 O         .       X   t * 7 7 X $ * 7 7 -           O                                                                                                                                                                                                                                                                                                                                     X   t 0 - 4           O   O O O X           ; q 7 q           X                                                                                                                                                                                                                                                                                                                                                                                                                                                                                                                                                   . O       X                                                                       X   X X X X X X X X * * 7 * 7 9 * :                                                                                                                                     q 7 7 ;                                 u 7 7 u                                     ",
"                                  X                                         O                     X 4 ; t q q * i e 4 t , : t r , t u u y t i 2 i q 4 q y t e q q e ; ; * 7 ; - q = X               q q 7 t             O                                       O     q 7 q ,                         O O             O     i : e r % * 9 7 q u X                                                                                                                                                                                                                                                                                                                                                   t 7 7 i                     O         X * q 7 q                                                                                                                                                                                                                                                                                                                                                                                                                                                                                                                                                                 O   X X > , q q q * : ; y t q t t e t t t q i q 4 q t 2 y t , , t , y t t 2 q q q q q q * * 6 7 7 7 q 7 7 9 7 7 7 q                                                                                                                                     , q 7 q                                 y 7 7 q                                     ",
"                                          o .     O   X     .       O   O     O O O                 : q 0 7 7 * q q q : q e 7 7 7 7 q 7 q 7 7 7 q 7 7 7 q 7 q q 7 6 7 9 9 9 t q q q X       O       q 7 q t             .                                             e * 9 , X             .                             X , ; q 7 * e 0 7 u u         O                                                                                                                                                                                                                                                                                                                                           q 0 q y               O                 e 7 7 q                                                                                                                                                                                                                                                                                                                                                                                                                                                                                                                                                               O         , t q w 0 9 q 7 7 q q q q q q 7 q q 7 7 q 7 q 7 q 7 7 7 q 7 q 7 7 7 0 0 7 9 7 7 7 7 q 7 9 7 9 7 7 6 7 9 * ; X X                                                                                                                                 e 0 0 q                     O           t 7 7 y                                     ",
"                                              .       O       .   O                 O           X   t * 7 7 9 r 7 q , e e e 7 7 7 7 7 7 7 7 7 7 7 7 7 q 7 0 q 0 7 7 7 q 7 6 7 7 7 ;           O     y 7 q t                                                         X q 7 q :                                               4 4 q q : i * q u 2                                                                                                                                                                                                                                                                                                                                                     q 7 7 t             .     X           X : q q q                                                                                                                                                                                                                                                                                                                                                                                                                                                                                                                                             X               O         X : * 7 9 6 6 0 7 0 7 q 0 7 q 7 7 7 7 7 7 7 7 7 7 7 7 0 9 q 9 q 0 0 q 7 7 7 7 7 ; q q q 7 7 0 7 9 9 7 9 7 q ;                                                                                                                                     t q 0 q                                 u 7 7 q                                     ",
"                                        . .       O                           X                 X X : * 7 9 & 7 q e 4 4 : , e e e y q q u q q y q q q q q q q e t e ; , * % y e q y X X X   O       q 0 q q             O                                       O     q 7 q :                                     .   O O X , , 4 : i i : : i i           O                                                                                                                                                                                                                                                                                                                                         q 0 * ,                                 q q q * X                                                                                                                                                                                                                                                                                                                                                                                                                                                                                                                                             .               O O X     t e 7 y & 7 7 q e q e t e t ; t , y q u q , q q q q t t q q e q e q 2 i 2 i ; ; ; t ; q q q 7 & 7 0 7 0 q t   X                                                                                                                                 q 9 q q                                 t 7 7 2                                     ",
"                                                      O                                           X 4 t t * X X                                       X           X   X   X e * * , o   X           t 7 q t             O                                             q q q , X                       O             O       X     X       X         .                                                                                                                                                                                                                                                                                                                                               u 0 q i             O                   : 7 7 q X     .                                                                                                                                                                                                                                                                                                                                                                                                                                                                                                                                     O                 O     X   , * ; : X X X                             X       X                       X   X     X     X ; q q * 7 9 q ;   X                                                                                                                                 ; q q q                 O               t 7 q q                                     ",
"                                                                                    O       O       3 , e t   X     X O                                 .     O       X   X , ; , ,           .     q 7 q t             .                                           X q q q ;     X         .                       O   X                     X   o       O                                                                                                                                                                                                                                                                                                                                         q q 7 q       O   O                     * 9 7 ;                                                                                                                                                                                                                                                                                                                                                                                                                                                                                                                                               O   .         O   O     X t q : 4         o           .                                                           X   t q 7 7 7 0 q y                                                                                                                                     q q q q         O       O   X           ; q q y                                     ",
"                                                                                                    t q q t                       .     O                                 X ; 7 q ; X               t q q t             o                                       O   X q q q ;                 .                                                                                                                                                                                                                                                                 X     O         . O                     X     O                                                                                     q 9 7 7 X   O O             X     O   X t 6 9 * X X O                                                                                                                                                                                                                                                                                                                                                                                                                                                                                                                                                           O       : 7 e :                     .                                             X                 t q 7 7 0 7 7 ,             X                                                                                                           O         X i : , ,           X         O     X     e t 4 2 X                                   ",
"                                                                                                    e 0 q t             O         .                             .           q q q ;                 e 0 q t                                                           ; q q e           X                                                                                                                                                                                                                                                                                 O O                                                                                                                       7 9 9 q   X O O                 O       r 7 7 *     O                                                                                                                                                                                                                                                                                                                                                                                                                                                                                                                                             .                     : e 7 e X   O                                                                             X t q 7 6 7 7 * ; X           O                                                                                                                   X   : * ; : X X X                   X   X X * e , 4                                     ",
"                                                                                                    q 0 7 t             .         O                                         q 0 q 2               X q 7 7 t                                                     O     q q q t                                                                                                                                                                                                                                                                                               O                                                                                                                       : 7 6 *     O . .   X           O O O   t 7 7 :       O                                                                                                                                                                                                                                                                                                                                                                                                                                                                                                                                                           O   X * 7 q :     O               .                                                               ; 7 7 9 9 7 q q                                                                                                                         O         X y q 7 t * * q ; t e t e , , , , , q * * 7 7 * :                                     ",
"                                                                                                    t 7 q t                         O                     O       O       X q q q q X       O       q 0 q q                                                         X q q q , X   X                                                                                                                                                                                                                                                                                                                                         O                                                                   .   , q 9 e X                   O   O O     : e e :     O   .                                                                                                                                                                                                                                                                                                                                                                                                                                                                                                                                         .       X             : e 7 ; X                                                                                 X ; 7 7 9 7 7 q ,             O         O                                                                                                   O X   X   ; * 7 9 * 6 9 7 7 7 9 7 e e : q * q 9 9 7 9 7 e X X                                 ",
"                                                                                                    q 7 q t             O                                   O     O         q q 0 q         O     X q 6 q q                                                           ; 7 7 :   X                                                                                                                                                                                                                                                                                                                                       O                                                                       O   3 y 7 * X     O     X     X         O   : q e e     .                                                                                                                                                                                                                                                                                                                                                                                                                                                                                                                                                                   q 9 7 : X                                                                                   , q 0 9 7 7 7 :                                                                                                                           O     X X ; q q 7 9 7 9 6 9 7 7 7 7 q : q q q 6 9 7 q q i                                     ",
"                                                                                                    q 9 q t                                                     O           q q q q X         O     q 0 0 7     X                                                   X q 7 q t                                                                                                                                                                                                                                                                                         X                                                       O                                                                 X   4 q * % X             X             X X % * q q       O                                                                                                                                                                                                                                                                                                                                                                                                                                                                                                                                           .               O   X : 7 7 :     O               .                                                               , q 9 7 0 7 7 ;             O                                                                                                                     X = 4 ; 7 7 q q * t 7 e e : t i 4 t ; q t * q 2 2 X                                   ",
"                                                                                                    t 0 q t             . O                               O                 * 9 7 ;                 q 9 q u X           O                                       O   X q q q ;                 .                                                                                                                                                                                                                                                                                                                                                                                                     ; t 0 9 e * t : ; 7 7 q ; 2 y q e : , % 9 9 7 q X     O                                                                                                                                                                                                                                                                                                                                                                                                                                                                                                                                                                 : e 9 *                     .                                                             X , - 7 0 7 7 q q   X       O                                                                                                             .   .       X     X   X   X   X     X           X         X                                     ",
"                                                                                                    t 9 7 ,                                                   .             : 7 9 q                 q 0 q q             O                                             q 7 q , X                                                                                                                                                                                                                                                                                                       .     O         O                                                                                             7 e 6 9 7 q q q q 7 9 7 q 7 9 7 q * e 7 0 9 9 q                                                                                                                                                                                                                                                                                                                                                                                                                                                                                                                                                   .   X           O     * 7 e :     O                                                         X                     , ; 7 7 7 9 q t             O                                                                                                             .     .                                                 O O .                                 ",
"                                                                                                    q 0 q t                                                                 y e 7 t     o           q q q ;         X   O .                                           q 7 e :                                                                                                                                                                                                                                                                                       O         O         O     O   O   O O                                                                                         X ; w 7 0 * : * q 7 7 q 7 q q 7 9 q e q q 7 7 7 7         X                                                                                                                                                                                                                                                                                                                                                                                                                                                                                                                                         .                   X : 7 q : X                   .                                                         X   X i t ; 7 0 7 q ,             O                                                                                                           .   .   .           O     O                     .         .                                     ",
"                                                                                                    q 7 q y             .                                     o   O         t * * t           O o   ; 7 7 ;         o     . O                                   O     q 7 q ,                                                                                                                                                                                                                                                                                           . O     . O         O       O       O       .   .                                                                           = u * t t y : ; q 7 7 q : t q q e e : ; q ; - ; X   @                                                                                                                                                                                                                                                                                                                                                                                                                                                                                                                                                             O     : 9 7 ;     O                                                                               3 t ; q 7 7 7 ;                                                                                                                                         O O   . O   O .       X O                 . .                                   ",
"                                                                                                    q 7 q ;             O                                         O         t e q i                 t q q t             O     o                                 X   X q q 7 , X               .                                                                                                                                                                                                                                                                 O . O     O                     O     O O     X .           .                                                                     O X     X         X X   X       X         X X X X     .                                                                                                                                                                                                                                                                                                                                                                                                                                                                                                                                                             O     q e 9 :               X     .                                                               X     X 7 7 q t X X       O O         O                                                                                                   X                               O O                                                           ",
"                                                                                                    q 7 q t             .                                   X   O X         ; q q q         X O .   ; 6 * q X           . O                                           q q q ;       X                                                                                                                                                                                                                                                                                       o                                                                                                                   . O O X                                             . . . . .                                                                                                                                                                                                                                                                                                                                                                                                                                                                                                                                         o                 O   q 7 7 : X   O                                                       O               o             X 7 7 7 :                                                                                                                               X                         O   O   O                                                       ",
"                                                                                                    y 7 q e               O             O         o       X               X ; q q ;                 t 9 7 t X             o   X                                 O   X q q q ,                                                                                                                                                                                                                                                                                                   X           X X       X                       .                                                                 .           .   o           .     O O             o . . . .                                                                                                                                                                                                                                                                                                                                                                                                                                                                                                                                               X                 : e e *     O                                                                           .         X q 7 q :             O                                                                                                                                             O O     O     X       O                                       ",
"                                                                                                    e 0 q t                           O                     X X X   X     X * 0 6 % X   X   X     X & 9 9 7 X     X X                                                 ; 7 q , X                                                                                                                                                                                                                                                                                 O     O     X   X     X X   X   X X X   X   X   o X                                                                             . X           .               . O   . O . O O             .                                                                                                                                                                                                                                                                                                                                                                                                                                                                                                                                           .               O     * 7 7 e                     .                                         .             O     O   X     * 9 7 ;                                                                                                                                                       X                   O   O                                         ",
"                                                                                                    t 7 e t             .             O   .           X   X 5 3 y t t : > * 0 9 9 9 = 4 : e e t 4 , 7 9 6 9 * , i ; 4 3                                         O     q q 7 :   X                                                                                                                                                                                                                                                                                     X X X 4 ; 4 4 t q , t : : * : , ; , , , 4 =     X   O                                                                               O O     X         .                         . .                                                                                                                                                                                                                                                                                                                                                                                                                                                                                                                                                             O     : 9 7 q X   O               .                                                       .               q q q q   X         O                                                                                                                     . .             O O               .                                                   ",
"                                                                                                    q 7 0 q                                   o             , : * e e e t * 9 6 9 9 * t e e q * , , 7 6 6 9 q ; q 7 i 4     X                                         y q q ,       O                                                                                                                                                                                                                                                                             X   X     4 ; q q q q q q q 7 q q q q q q , q i       X                                                                               O                     .                 @                                                                                                                                                                                                                                                                                                                                                                                                                                                                                                                                                     .   X               X : 7 7 e     X                                                                         . . O   O   X e 0 q t             O                                                                                                                 .         .         O           . .                                                       ",
"                                                                                                    q 9 7 7         .                                       t q 9 7 q q e q 7 9 9 7 & q q q 7 7 : e 9 0 6 0 q 7 q q : 4     X                                   X     , t , t X       .                                                                                                                                                                                                                                                                                     q q 0 7 ; q q q 7 6 9 * 7 7 q q * * ;   X                                                                                                                                                                                                                                                                                                                                                                                                                                                                                                                                                                                                                                                                                                 X     e e r : X               X   .                                                                       q 7 q :             O                                                                                                                                                                                                           ",
"                                                                                                    : 9 9 7 X                         O           .       X ; q 6 7 ; y , ; 7 6 9 0 * q ; e t t : * q 6 0 q 7 q 9 e e ,                                               , t ; ;         O                                                                                                                                                                                                                                                                                     q q 7 w - q * q q 7 q q e * 0 0 9 q e       O                                                                                                                                                                                                                                                                                                                                                                                                                                                                                                                                                                                                                                                                             .               O     q 9 7 :     O                                                                                       q 7 q ,                                                                                                                                                                                                                         ",
"                                                                                                    : q 7 6 X   O O   .     O           O                 X , ; e ; X     X * q 7 - X X       X   X t 7 t q   X * * t 4                                             X ; q q t           .     X                                                                                                                                                                                                                                                                           X : q 7 * X X   X X X   X   X X % q q e                                                                                                                                                                                                                                                                                                                                                                                                                                                                                                                                                                                                                                                                                     .                     : r 7 :     O               .                                                                       q 0 q e X                     O                                                                                                                                                                                                 ",
"                                                                                                O   : * 7 ; X   O           O O     O O O           O O     , ; ; ,         , : t q X               q 7 q q X X 9 q t ;       o   X       X       X   X           X X * - 7 * X     . O                                                                                                                                                                                                                                                                                     : 7 7 q               X     X ; t e , X X                                                                                                                                                                                                                                                                                                                                                                                                                                                                                                                                                                                                                                                                                                 O     * 7 e 7                                                                                           X q q 7 e             O O                                                                                                                                                                                                         ",
"                                                                                                    = q q q X                           X         X o     X : , t t X       t , ; ;         O   X   u 7 7 7 7 7 7 6 7 i , 4 t e ; : * : * * : e ; : ; * q * : : q 7 0 q 0 7 t X     .                                                                                                                                                                                                                                                                                     X ; q q q           . .         , : * ,                                                                                                                                                                                                                                                                                                                                                                                                                                                                                                                                                                                                                                                                                                     O   X : 7 9 q   O                 o                                                                       q q q q             O                                                                                                                                                                                                           ",
"                                                                                                    : q q 7     X   X     X X     X   X     X X           X ; r q t     X X , q q y     O   .     X - q 7 & 7 9 9 6 0 7 ; : e 7 q q q 7 q q q 7 q q q r q 7 q q q q 7 0 0 7 q           .                                                                                                                                                                                                                                                                                   e q q i   O o . O   . . .     4 i e e X X                                                                                                                                                                                                                                                                                                                                                                                                                                                                                                                                                                                                                                                                                 .                     : 7 e q     O                                                                                       q 7 q : X                     O                                                                                                                                                                                                 ",
"                                                                                                  X , q 9 7 X X       X X               X         X     X X 7 * 7 q X   X   q 0 7 q X   .   .   X   u 7 q * 7 7 9 6 6 0 q e 7 9 7 7 7 9 7 7 7 7 7 7 7 7 q 7 7 q q ; t 7 7 q t X       O                                                                                                                                                                                                                                                                                   X , q * t     . . . O O .       t * * : X                                                                                                                                                                                                                                                                                                                                                                                                                                                                                                                                                                                                                                                                                       X           O     ; 7 7 :     O                                                                                       q 7 q ;                                                                                                                                                                                                                         ",
"                                                                                                X   ; q 7 q % e , i t e e e , y , e y , i 4 t : e , 4 4 4 % r 7 9 q - i t 7 7 7 0 w                 4 ; t , e * 9 6 9 7 q e q q q q t ; u q u q ; e q ; ; q q y , = y q ; t 4                                                                                                                                                                                                                                                                                             X = q * y           .   .     X q * q q X       O                                                                                                                                                                                                                                                                                                                                                                                                                                                                                                                                                                                                                                                                           .       X           X : q 7 : X                   .                                                                       q 7 q e X           O                                                                                                                                                                                                           ",
"                                                                                                  X q q 7 q e t , , e q 7 : : : : e : q t ; e : t : , , * 7 7 9 9 7 q * q q 7 9 0 q X                           q 9 7 ;                 X               X               X   X                                                                                                                                                                                                                                                                                       .     X * 7 7 q X                   X t * 7 ; X X     O .                                                                                                                                                                                                                                                                                                                                                                                                                                                                                                                                                                                                                                                                                         O     : 7 9 *                     .                                                                     X ; 7 q q   X                                                                                                                                                                                                                     ",
"                                                                                                    t q q q t t , , q q 7 7 , : e e , ; ; q e ; t , 4 t : * 7 7 6 7 q ; t t 7 q q q X         .   .             : e * :                                                                                                                                                                                                                                                                                                                                         O           * 9 9 7 X     X         X X X q * r ; X         .                                                                                                                                                                                                                                                                                                                                                                                                                                                                                                                                                                                                                                                                         .                     : e e :     O                                                                                       q 7 q :             O                                                                                                                                                                                                           ",
"                                                                                                X   2 ; - : 4 = , , ; q t , , , t q 2 i 4 3 4 , , , 4 2 ; ; r 7 w q ; , i 4 ; ; = ;       O     .         O o   : 7 q :       O                                                   O                                                                                                                                                                                                                                                                                 .       : q & 7 X   X   X X   X   X X q 6 q ;   X   O   .                                                                                                                                                                                                                                                                                                                                                                                                                                                                                                                                                                                                                                                                         .               O   X * 7 7 e X   O               o                                                                       e 7 q * X                                                                                                                                                                                                                       ",
"                                                                                                    X   X   X X o   X     X       X   X X X   X       X   X & 7 7 % X         X X X       . O                   * 9 7 * X   O                                     o   .                                                                                                                                                                                                                                                                                               .   X ; ; 7 y % ; , * * q e q q q 7 u 0 7 e X       O                                                                                                                                                                                                                                                                                                                                                                                                                                                                                                                                                                                                                                                                                                 : e 7 q                                                                                           X q 0 q :               O                                                                                                                                                                                                         ",
"                                                                                                X                 X   X X                                 X q q q q                     +         X           X 7 0 9 q X                                               . O   O                                                                                                                                                                                                                                                                                     .       ; : 7 q ; 4 t : t q t t t i q q * * , X                                                                                                                                                                                                                                                                                                                                                                                                                                                                                                                                                                                                                                                                                                         q 9 r :                                                                                             ; 7 q ;                                                                                                                                                                                                                         ",
"                                                                                                      X                 X   O   .         X               X t q q q X     o           . +   X                   7 0 7 q           O       X         O                             O                                                                                                                                                                                                                                                                                     X   4 y q ; i ; t ; q q * ; ; ; 2 ; e i 4       O                                                                                                                                                                                                                                                                                                                                                                                                                                                                                                                                                                                                                                                                             .   X           O   X : 7 e * X   O         X O   .                                                                       q 7 q :           O O         O                                                                                                                                                                                                 ",
"                                                                                                      o   O   . .   X       .                   o   @       t * 7 q       .     X                               ; q q ,                                                                                                                                                                                                                                                                                                                                                 .   ; * e : p 4 , : q q i y t i u ; , , ,   o   O   X                                                                                                                                                                                                                                                                                                                                                                                                                                                                                                                                                                                                                                                                                         O     : e 7 :                                                                                             q 7 q q X           O                                                                                                                                                                                                           ",
"                                                                                                . .             .             . .   . .     .             o e * 6 t X               @       X     O       o     , q q y       .                                               O                                                                                                                                                                                                                                                                                       .     X   X   X     X X     X   X     X         O     .                                                                                                                                                                                                                                                                                                                                                                                                                                                                                                                                                                                                                                                                         .                     * 7 7 e     O               .                                                                       q q q :                                                                                                                                                                                                                         ",
"                                    O                                   O                                                   .     O                 O       q 7 q ; X                 .                         q q q :   X                                                                                                                                                                                                                                                                                                                                                     X                                       O                                                                                                                                                                                                                                                                                                                                                                                                                                                                                                                                                                                                                                                                             .                   X : 7 9 q     O               o                                                                       7 7 e t           O                                                                                   .                                         O     O O   O                                                                   ",
"                                                                                                              O                       . .           O O   X e 9 9 ;     O               o           O           t 0 q :                                                                                                                                                                                                                                                                                                                                               O O                                                   O                                                                                                                                                                                                                                                                                                                                                                                                                                                                                                                                                                                                                                                                                         O     : 9 e q   O                                                                                         e 7 q : X X                 .                                                                                     .                     O                                                                                       ",
"                                  O                                                                                             X                   .       : 7 e *                                             q 0 q e                                                                                                                                                                                                                                                                                                                                         .       X                   O     O O                   O                                                                                                                                                                                                                                                                                                                                                                                                                                                                                                                                                                                                                                                                                             O     q e 7 :                                                                                           X * 7 7 7 % q e q u q , ,                                                                                                                                                                                                         ",
"                                                                                                                                                    O       : r 7 : X   O                                       q q 7 :                                                                                                                                                                                                                                                                                                                                             O               .       O                                                                                                                                                                                                                                                                                                                                                                                                                                                                                                                                                                                                                                                                                                         .                 O   q 7 9 : X     O             .                                                                       q 7 7 0 q q 6 7 7 7 q y X     O                                                                                                                                                                                                 ",
"                                            O       O                   O       O           O                                               X             X * 7 7 :                     .                       ; 7 q e X O                                                                                                                                                                                                                                                                                                                                                     .                 X                                                                                                                                                                                                                                                                                                                                                                                                                                                                                                                                                                                                                                                                                                       X                 : 9 7 *                     .                                                                       q 7 0 7 0 9 7 7 6 9 q e X                                                                                                                                                                                                       ",
"                                  X                     O   .     O   O   O O     O   O O     O                                   X                 O       : q r :     O                                       q q 7 ;                                                                                                                                                                                                                                                                                                                                                                                                                                                                                                                                                                                                                                                                                                                                                                                                                                                                                                                                                                                                                                                                               .               O     : e e :     O                                                                                       q 7 0 7 7 q 7 e e q q = X                                                                                                                                                                                                       ",
"                                                O O         O         O         O               O                                                           , q e *     O               o                     X ; 7 q e                                                                                                                                                                                                                                                                                                                                                   X         O                                                                                                                                                                                                                                                                                                                                                                                                                                                                                                                                                                                                                                                                                                                                 O     * 7 7 q X   O               o                                                                       u 7 7 ; X       X                                                                                                                                                                                                               ",
"                                            O                                                       O     O                             O     X           X : q 9 q X     X                                     , 0 q e                                                                                                                                                                                                                                                                                                                                                                       X                                                                                                                                                                                                                                                                                                                                                                                                                                                                                                                                                                                                                                                                                                       .   X             X   : e 7 e       X                                                                                     7 7 7 i X       .                                                                                                               .                                                                                               ",
"                                                    o       X                                     .                         O .       O             .   .   t * 7 : X               X   .                     X q q 7 :                                                                                                                                                                                                                                                                                                                                                                     X   X     X                                                                                                                                                                                                                                                                                                                                                                                                                                                                                                                                                                                                                                                                                                                   X ; 7 r : X                   .                                                                       7 7 ; ,   .   O O O .                                                                             O   .           O     O               O     O                                                                                 ",
"                                          X                                                                               X         O . . O         . o     t * 7 :     O                                       q 7 q :                                                                                                                                                                                                                                                                                                                                                         . O O         X     X     X                                                                                                                                                                                                                                                                                                                                                                                                                                                                                                                                                                                                                                                                                           o   X           O     : 9 7 :     O                                                                                       q 7 e ,       + O O                                                                                     O     .       O               X           O O     O                                                                     ",
"                                          O                                                                                   .   . O O O                   : q e :     O               .                       ; 7 q e X                                                                                                                                                                                                                                                                                                                                                           O   o X , 3 , i t 4 , 3                                                                                                                                                                                                                                                                                                                                                                                                                                                                                                                                                                                                                                                                                                           O     : e 7 :     O               .                                                                       ; e e , X     O X           . .                                                                     .         O                         X                 O                                                                     ",
"                                                      X   X X     X       X   X   X     X     X     X     X X   X     X             .   O     X X         X q 0 9 :                                             q q 7 ;                                                                                                                                                                                                                                                                                                                                                           O         , t q q : : 4 ,                                                                                                                                                                                                                                                                                                                                                                                                                                                                                                                                                                                                                                                                                           .                     * 9 e 7                 X                                                                         X q 7 7 :               X                                                                                           .     .   .                     @           O                                                                 ",
"                                                X o   3 3 ; q ; : q ; ; q e , ; ; * ; e ; q ; 2 t , , , : t ; q ; ; , 4 i 3         O O O     X X   X     X & 7 9 q   O                 .                     X q 7 q :   O                                                                                                                                                                                                                                                                                                                                                       O   O   X ; * * 7 7 q i 4 X           O                                                                                                                                                                                                                                                                                                                                                                                                                                                                                                                                                                                                                                                                             .               O   X : 7 9 q                     o                                                                       q q q , X   X                                                                                   o       o     X                                                                                                                 ",
"                                                      4 ; q t q q q q q 7 q 7 q q q q 7 q q q 7 q q q q 7 t q q ; q ; t 4 i   X     .       X = ; = , t ; q y 9 7 q     O                                       ; q 7 e                                                                                                                                                                                                                                                                                                                                         .                   O X     t e 7 9 7 * ; 4                                                                                                                                                                                                                                                                                                                                                                                                                                                                                                                                                                                                                                                                                                                 : 7 e q   O O                                                                                       q 7 q ;   X                                                                                                       X   X   X   X X   X X X   X                                                                                   ",
"                                      .           X X t e q 7 7 7 7 7 7 0 q 7 7 7 7 7 7 q 7 7 7 7 7 7 7 0 7 0 0 q q * - - i X X X           X i i ; , t : 7 6 6 9 :     O                                       ; 7 q e                                                                                                                                                                                                                                                                                                                                           O             O         X t 7 6 7 9 * q t X X                                                                                                                                                                                                                                                                                                                                                                                                                                                                                                                                                                                                                                                                                                       O     ; q 7 :                                                                                             ; 0 q 4       o                                                                                   X   X   X                       X             o                                                                               ",
"                                                      i ; * 7 q q q t q e q q q q q q q q q q q q q q q e 7 q q 7 q q q ; t X   X       O X   u q q : : * q 7 9 7 * X                   .                       q 7 0 q                                                                                                                                                                                                                                                                                                                                         O   .             O X       t 7 7 7 9 * q t   X                                                                                                                                                                                                                                                                                                                                                                                                                                                                                                                                                                                                                                                                                       o                   X : q 7 : X                                                                                           q 0 q t       . . . O                                                                             X = , t , 4 4 i i 4 4 4 i t 4 t t 4 t i 4 4 4 , = o                                                                           ",
"                                                      y q q ;             X           X           X   X     X     X q 7 7 q                   t q q e t > , t 9 7 y     O               .                 O   X - 9 7 * X                                                                                                                                                                                                                                                                                                                                                     .   O       X q 7 9 9 7 7 * ,                                                                                                                                                                                                                                                                                                                                                                                                                                                                                                                                                                                                                                                                                                               X t : t * X .     X   X       X   X           X           X             X         X             X   X 7 9 * ,       .           .                                                                         e q * * : : , , ; q ; ; q q e e ; : , 4 ; q q ;                                                                             ",
"                                                o     e 7 q t                                                       t 7 7 u                   t q 0 % X   X * 0 & t             X               .         O     q 9 7 *       X                                                                                                                                                                                                                                                                                                                                         X       O   O     X * e 7 7 7 7 q :                                                                                                                                                                                                                                                                                                                                                                                                                                                                                                                                                                                                                                                                                                     o     X     4 ; e t * ; : e e t q t : : e ; t t , : t t ; t , : t q 2 t , : t q ; i , : t q 2 t , : t t ; , : ; 7 7 q 4                                                                                         .   e 0 9 7 t p : ; q q q q q 7 q q q q , , 6 9 9 *         .                                                                   ",
"                                                      e 0 7 ;                                                       e q 7 u                 X t q q q       q 7 7 t X   .           o . .       .     X O O   X q q 7 :       O                                                                                                                                                                                                                                                                                                                                                 O         X : e 6 6 7 7 q ; X                                                                                                                                                                                                                                                                                                                                                                                                                                                                                                                                                                                                                                                                                                 .         X   t : * * q e 7 e q q q e q e e 7 q q e 7 q q q q 7 e : 7 q e q e q q q q 7 e q e q q e 7 q q e q q 7 7 * : 4   X O                                                                                   .   q 7 7 q * = , t t t , , q * q ; , , , , q 7 7 q                                                                             ",
"                                          X           t q q i                                                       t 0 7 q     X             ; 7 q t X X   e 7 q q       o               .       .       O     * q e :     O                                                                                                                                                                                                                                                                                                                                   O                 O         ; 9 9 7 7 7 q , X                                                                                                                                                                                                                                                                                                                                                                                                                                                                                                                                                                                                                                                                                             .               X 4 i e 7 q 7 7 * * q 7 * 7 7 7 * 7 7 * 7 * q q q * 7 7 7 7 q 7 * 7 * q * 7 * 7 * 7 7 7 * 7 q q 7 * 7 q e , 2                                                                                             - 7 6 * X X   X   X   X   X   X   X   X & 9 0 q           o                                                                 ",
"                                                o     q 7 7 :                                         O O           t 0 q e X               X t 7 7 2       q 7 r : X                               X           e e : ,   .   O                                                                                                                                                                                                                                                                                                                                                   O     X   ; q 9 6 7 7 q ,           O O                                                                                                                                                                                                                                                                                                                                                                                                                                                                                                                                                                                                                                                                       O                   O   X   3 = e e y ; ; q 4 ; i q , ; : t t q t q , q t q t q : e i q , q i q , ; t q : e t q t q t q t q , y q , , 3 X O   O                                                                                     q 9 7 q X   X     X   X       X   X     q q 7 q                                                                             ",
"                                                      t 7 q ,                                                       t q 0 t                   q q q i   X   q 7 7 % X           X X         X       X     X X   q q q :                                                                                                                                                                                                                                                                                                                                           O                       X ; q 7 7 7 q , , X                                                                                                                                                                                                                                                                                                                                                                                                                                                                                                                                                                                                                                                                                                       @         X             X X     X X       X X     X   X           X       X X X X     X     X     X   X     X   X       O       X                                                                               q 7 7 t   X   X           X   X         e 7 q e                                                                             ",
"                                                      e 0 7 2                                       .               u 7 7 t                   i 7 7 :       q 7 0 9 % : 4 4 i y q 7 : : , : q q ; : q 7 q q - 2 7 7 7 :                                                                                                                                                                                                                                                                                                                                                             O     X = q 7 7 7 q q ,                                                                                                                                                                                                                                                                                                                                                                                                                                                                                                                                                                                                                                                                                                                                                                                                                           X O O O O               O                                                                     e 0 0 t             O           X     X t * q ;                                                                             ",
"                                                .     e q q t                                                       t 7 7 q                   ; 7 q , X   X e 9 9 9 * q ; 4 7 6 7 9 7 q ; q q q * 7 9 6 9 q q q 0 9 7 *     X                                                                                                                                                                                                                                                                                                                                     .                     X   4 t 7 7 q q , , X         O                                                                                                                                                                                                                                                                                                                                                                                                                                                                                                                                                                                                                                                                         O               O O   O   X     X   O   X               O     X   O   O   X O   X O     X O     O     O     O X O     O     O                 O       X X                                                                           q q * t               . O X             i - 7 :                                                                             ",
"                                                      , 7 q ;                                           O           t 7 7 q                 X q q 7 2   X   q 0 9 9 7 q , * q 9 9 6 7 7 r t 7 q * 7 9 6 9 7 ; q 7 7 e t                                                                                                                                                                                                                                                                                                                                           .               .   X   X 4 ; * * q ; i ,                 O O                                                                                                                                                                                                                                                                                                                                                                                                                                                                                                                                                                                                                                                                                 O   O O             o       .       o       .   o       .   .   O   .       .       .   .     O .       O   .         X       .     , : , 4                                                                         q 0 q ;         O   O .                 2 q q q                                                                             ",
"                                    X     X     .   X e 7 q 4                                                       i 7 7 q                   t q 7 i       q q 6 7 q i i - * 7 7 7 q * = t , e y q 7 6 9 7 q i u ; e ,     X                                                                                                                                                                                                                                                                                                                                         O                   X 4 4 t t y = 4 >   X                                                                                                                                                                                                                                                                                                                                                                                                                                                                                                                                                                                                                                                                                                                                 .                           X                                                   .             O   X : q q ,                                                                         : 7 q t X             O   O O X         ; 7 q q                                                                             ",
"                                                      t 0 q ;                                       O               q 7 7 t   .               t q q q     X q q q * X       X q * q % X   X       X * 7 7 :   X         o                                                                                                                                                                                                                                                                                                                                       O                     .     X X   X     X X               O                                                                                                                                                                                                                                                                                                                                                                                                                                                                                                                                                                                                                                                                     O                 O O                                                                                                                       O       , q 7 t                                                                         q 0 q 7             O                 o ; 7 7 e                                                                             ",
"                                                      e 7 7 4                                                       2 7 0 q                   2 q q t       q q t :           , e i 4               e e e ,       X   . . . O                                                                                                                                                                                                                                                                                                                                                     .                 X     X                                                                                                                                                                                                                                                                                                                                                                                                                                                                                                                                                                                                                                                                                                                                                                               X       X       X       X               .     X         X e q 7 t                                                                       X ; 0 7 ; X         X   O                 ; 7 q ;                                                                             ",
"                                                o     ; 7 7 ,                                       O               2 7 7 q                   t 7 0 q       u q ; :     @   X ; * : :       o   O   : * * :   O       . .   O O                                                                                                                                                                                                                                                                                                                                                       .   @   O   X                                                                                                                                                                                                                                                                                                                                                                                                                                                                                                                                                                                                                                                                                                                                                                                   X                                         .             O     7 7 9 q                                                                         q 0 q q                       X   X     q 0 0 q                                                                             ",
"                                                      t 7 7 4                                                       t 7 7 q                   , q q i     X q q e , X         y , y p           X   e r e t   O O       . .   +                                                                                                                                                                                                                                                                                                                                                                           X                                                                                                                                                                                                                                                                                                                                                                                                                                                                                                                                                                                                                                                                                                                                                 X                                                                   .     X X   O       7 9 7 q                                                                     .   * 9 q - X   X   X X     X X   X         q q 7 q           O                                                                 ",
"                                                    X : 0 q ,                                                       y 7 7 q     .           X q q 7 2       q q ; ,   X     X ; * : ,               * 7 * :                                                                                                                                                                                                                                                                                                                                                             X           .       O O     O                                                                                                                                                                                                                                                                                                                                                                                                                                                                                                                                                                                                                                                                                                                                                                                               .                           . .         O       0 9 9 q                                                                         q 7 7 7 X X               X     X   X X * 6 0 q         O                                                                   ",
"                                                .     e 7 q t                                       O               t q 7 u                   t q 0 2     X q q q t         X ; q , t       o       * 7 r : X   X   o   .   @                                                                                                                                                                                                                                                                                                                                           O                       O     O   . O . .                                                                                                                                                                                                                                                                                                                                                                                                                                                                                                                                                                                                                                                                               O                                   o   .       .   .       .   .       .   .       .       .           .       .       .   .     O     X         X q 0 q q                                                                         7 7 q i % 4 4 y , i t , i , 4 4 , , , ; y 9 7 q                                                                             ",
"                                              .     X q q q :                                     O O   O           4 : q t   o               , 7 7 t X     u 7 7 q X   X     q q ; t               e 9 7 e             .                                                                                                                                                                                                                                                                                                                                                                           O       O .   . O                                                                                                                                                                                                       .                       O                               .                     O                                     .                                                                                                                                         .   .                                                                                                                                                                                                                                                                                                                                                     i t ; p                                                                       X t e ; ; q t q q q q * q q q ; q q 7 q 7 ; 7 q ;                                                                             ",
"                                            .         ; q q ,                                             X         4 q q e                   u q 7 4     X q 7 7 q           i q ; t               q q 7 4                                                                                                                                                                                                                                                                                                                                                                                     O         .         .                     .                 .     O                   O O   O                                                                                                                             .                                                                             O             X       .   .           .             .                                                                 O                                                                                                                                                                                                                                                                                                                                                                                                   O         X     X 5 3 3 4   X                                                                     4 , , q q q q q 7 * * q ; q q q q q q q q ; i i X       .                                                                   ",
"                                              . O     q q e ;                                                       ; 7 7 q                   t q 7 q   X   q 7 q q           t q - 4 X             q 0 7 t             .                                                                                                                                                                                                                                                                                                                                                                                                                                   O   O                       O                                                                       . O . O                                                 O                                                                             .         O     O   O O   .         O     O   O         .         .                         .                                                                                   O   O O                                                                                                                                                                                                                                                                                                                                                     X 4 p 5 4 X                                                                   X   4 4 4 , ; ; , q ; ; : t , , ; t ; q q ; 2 t = ,                                                                             ",
"                                    O               X q q 7 t       .   O   O     . O   .   O                       q 0 0 7               X   , q 7 i       q 7 7 q X         u q q t               q 7 q 2             O                                                                                                                                                                                                                                                                                                                                                                                 X   X   X X                   .   O           O     O     O                                                                                                       .                   O       .             @   O   O   .                                 O                             .       . .           O O O O               O   O                                           .   O O O                   O O                         .           O                 O X O   @                                                                                                                                                                                                                                                                                                                                                             X                                                                           X   X   X   X X X   X   X   X   X   X X   X X         o                                                                   ",
"                                                      q 7 e :                                                       q 0 9 7               X   q 7 7 2       q 7 7 q           t q - t X             y 7 q t                                                                                                                                                                                                                                                                                                                                                                                                       X           .     O   O . O               O                                                                                                   X                           O     O O   O       .           O       o   .   .   .   .     . .     .     .                                   .               O O   O       O               O       .   o   .     o     . .   .   O O   O   O       X   O X         . .     . .   .   o   .   .   O   O       O           O X   X                                                                                                                                                                                                                                                                                                                                                 o X         X                                                                   X               X                                       .   O                                                                   ",
"                                            .       X q 7 q t                                         .           X t 0 0 0                   t q 0 t   X   y 7 7 q X         , q q t         .     q 7 q y             O                                                                                                                                                                                                                                                                                                                                                                                   X                           O     O           O O                                                                                                                           O   O O O   X     O O           X   X                                   .   .   .   .                 O     O                     O     O   O                       O                                           O     O                                                   X   O O O     .                                                                                                                                                                                                                                                                                                                                                                                                                                                             X       X                   X X       X       .                                                                   ",
"                                            .   O   X q 7 q q                                   O   O . O           e q 7 q   .               , q 0 ,   X   q 7 7 u     o     q q ; t               q 7 q q             .                                                                                                                                                                                                                                                                                                                                                                             . .     O O . O                     O                                                                                                                       X         o   .     O O   O             O O O                                                     O       O         O           O                           X             .   .                                                             O           X                                     X         O O                                                                                                                                                                                                                                                                                                                                                                                 o                                                                 O .   .   o                 .   X                   O       O                                                                   ",
"                                                      * 9 q ; X                                     O O             e q q e     .             q q q t       q 0 q q           t q ; y               q 7 q t                                                                                                                                                                                                                                                                                                                                                                                               . O O   O   .                               X                 O   O                                                                                   O   O   .     . O   .     O X       X               .                                                 O       O   O             O   O             .                         . . . .     X                                                   .   . .                                                           O             .                                                                                                                                                                                                                                                                                                                                                                                                                                     O                     . X O O . O O O X           @     O X                                                                   ",
"                                                    X q 7 7 t                                                     X t q 7 :   .               t q 7 2   X   e q 7 q X         4 q ; i               t 7 q t             .                                                                                                                                                                                                                                                                                                                                                                                     . .                               X   X                 o                                                                                             + O O . O O                             X             .   .       .     .     o                   X X                             X                                 X X . . .                   .           .         .     X   X     X   + .   . .                                       .             X             .                                                                                                                                                                                                                                                                                                                                                         O       O                                                                                                     O       O                                                                                     ",
"                                            .   X   X 7 7 q t X                                 X         X   X     * q q e                   t 7 7 ;   X   q 0 q q           q q q t X             q 0 q t                                                                                                                                                                                                                                                                                                                                                                                             X               X   O                     X     X X   X       X       O                                                                                   .   O   O     O           X     .   .   @             X   O O .                       .       X X                                     o X     O O   O         . .   X     .   . .     @   . .                                             o             .   .     .     .                     .   .     X X               O O                                                                                                                                                                                                                                                                                                                                                                                                                                                               O O   O                                                                                           ",
"                                            .     X 2 i 6 7 q ; t , t e y t t 2 t i 4 q y t e t q 7 q q q e q q , e q 6 6 q   .               t q 7 t       q q 0 t     o     t q ; t               q 0 q t             O                                                                                                                                                                                                                                                                                                                                                                       O     X , * 7 r 7 7 ; ,     X                   5 4 , : i , t , > ,   X     O                 O                                                                   X o       X     @       o     o . O . O       X           O                                     X     X .   .     .               .   o       O O O O . . . . . +       @         X X     . .         .         .             O O     X         X X X O O + O .                     o         . . .           X         O O O                                                                                                                                                                                                                                                                                                                                                           .   O                                                                                                                                                                                                 ",
"                                                    = 7 7 q ; t q 7 q q q 7 7 7 q 0 7 7 q 7 q 0 9 7 7 7 7 9 0 q ; t 6 9 0 q                   q q 7 , X   X q q 0 q           4 u - t       .       q 7 q e                                                                                                                                                                                                                                                                                                                                                                                       O     : 7 7 9 9 7 q t       O                 2 , ; q t , e , i , X     O                                                                                             X                     . .     O O O                 O O                                   .   .   . . + .                 .         o     O O +       . . O           X @   X       + O                                 X O +   X     X     O   O   O .                                 O   O O O O O                 @                                                                                                                                                                                                                                                                                                                                                   . O                                                                                                               O                                                                                           ",
"                                                    - 7 7 9 ; q q 0 0 0 7 0 7 9 7 0 q 7 7 0 7 7 9 q q q q q q q q q 6 0 0 q                   y 7 7 2   X   q q 7 t     .     q q - y               y 7 q t             O                                                                                                                                                                                                                                                                                                                                                                       X       t q 9 7 9 7 7 t X     O               X , t * q e ; e q : ,         O   .       .                                                                       .         X   X                     X @   O @               X                                   X   O O   O .     . X           O . . .   o                           o     X         o     X                                   1     @   X         X         X                                     X @ O   O                                                                                                                                                                                                                                                                                                                                                                           O                                                                                                                                                                                                       ",
"                                            .     X p 7 6 7 e ; t e e t q t q t q q q q q t t q : t : t e q q : t q q 9 6 q X                 2 7 7 4       u 7 7 e X         t q ; t X             q 7 q t                                                                                                                                                                                                                                                                                                                                                                                             , = q 7 e q ; =                         t e q q * & y q e i   X O O                 O                                                                         X X   X X X X X X X X X   X X X X X   O   .             X X   X X X   X X X X   X X X X     X X X   X   @                 O   o     X X X X X X X X   X X $ X     O     X   X   O   X X X X X   X X X X X X X X   X X X     X     O     O       X X X $ X X X   X X   X X X   X X X X X X X X X X X   O     o                                                                                                                                                                                                                                                                                                                                                 .                         O                                                                                                                                                                                                 ",
"                                            .   O   - * 9 7 ;   X                                             X   X * 9 9 e                   t q 7 t X   X q 7 q q           ; q ; t               q 7 7 t             .                                                                                                                                                                                                                                                                                                                                                                       .                     o     .     X             = q - 7 $ $ q q * : X X X O O       .         O                                                                 O     X X $ $ $ & & & & & & & & & $ $ $ X     O   . . .       X $ & & & & & & $ & $ & & $ & & & & & & & $ $ $ X X X       O O     X X $ $ & & & & & & & & & & $ & &     + O         O +   X & & & & & & & & & $ & & & & & & $ $ $ X X       + . +     X $ $ $ $ & & & & & & & & & & $ & & & & $ & & $ X X         . .                                                                                                                                                                                                                                                                                                                                                                                                                                                 .       .                               .       O     . O                                                                 ",
"                                                    q 7 7 9 q                                       X               * 7 7 q   .           X   q q 7 ,       q 7 7 q X   X     4 q ; t       .       e q q ,                                                                                                                                                                                                                                                                                                                                                                                         o                                         X q q 7 * X   q q * i             .                                                                                 @ X X & I.H.H.!.!.P.!.P.!.P.P.D.D.P.R.& $     .     . O     X W.P.P.!.P.!.H.S.H.K.x.c.c.x.H.D.H.H.S.P.T.}.{.@ X           .   X $ $ ].).!.L.!.P.H.!.!.!.P.P.H.x.S.& X @ O         O +   X I.D G x.S.I.P.H.P.P.P.P.I.P.P.H.K.S.R.& $   . . . O . .   X X  X}.Y.P.!.S.!.I.P.x.x.c.v.F.H.H.P.P.H.Z.D.Q. X$ X   . O . . . .                                                                                                                                                                                                                                                                                                                                                                                                                                                                                         X                                                                             ",
"                                                    u 0 7 7 *                                                     X , 7 7 q           O O     2 q 7 e       t q q q X   X   X , q ; p         X O   , : : : o     O                                               X     X X     X   o       X X     X X               X   X       X                                                                                                                                                                                                                                                                                             .               7 7 q q   X e q q ;         O     .                                                                             . X @ $ s.:.;.M b.(.(.I.P.P.!.!.P.S.a.y.c.& X           @     X {.R.T.P.B.H.H.F.x.Z <.2.O.r.n.I.I.S.!.N.P.R.{.X X   X       .   X & 6 v.z.b.!.T.!.H.H.H.P.P.P.x.1.1.A 6 X X     X     . . X F ] ] ;.F.E.A.!.!.!.I.T.R.).P.b.G Z M x.& X   O .     . o   X  X].R.!.n.P.A.Q.!.M >.>.2.l D H.!.l.!.S.D.W..XX X   . O   O . .                                                                                                                                                                                                                                                                                                                                                       .                                                                                                                                                                                                               ",
"                                            .       y 7 7 7 ,                                       O               4 7 7 u         O     O   t 7 0 t     X u u 7 q           2 ; ; 4 X         X   , : : :       O                                                   ; q q q q t t , , e e q q , : q q q q ; : i i , i , t q y 7 *   X O               .                                                                                                                                                                                                                                                                       O .         .   y 6 7 ;     , q t 2 X                         O                                                                   X $ B.3./ 3.m 6 & $ & $ & & & & & B t.o.F & $         O O   X $ $ & & & & & 6 8 l ` {  .O.8 $ $ & & & 8 & X X       X .     $ & ~.S M c.8 & & & & & & & $ & 8 e.;.:.v.& X @           . X e.[ E ` 8 $ & & 6 & & & $ & & 6 8 a.;.r.~.$   o     O .   X X $ $ & & 8 & & $ 6 f  .{ ] 1.8 6 & & & & $ $ $ X     O . . . .                                                                                                                                                                                                                                                                                                                                                                     X                                                                                                                                                                                                   ",
"                                .                   , e 7 7 y                                                       u 7 7 q             O     t q 7 e X   X q q 7 q       X   3 q ; 4       X       : e e : X   O                                               @   X t t q q ; t 4 , t , t 2 q q 7 q q q 7 7 e ; e ; : * q 7 7 t t   X .   X           .   O                                                                                                                                                                                                                                                                     . X           q 6 7 ,     t q q ; X                                                                                           X & 8 B 2.<.x.6 X X X   X   X X $ $ !.N %.,.G & X             X X X X X @ $ X $ & G.:.%.( M & X   X X X X $   o O O O O   @ X & F <.1.S _.$ X   X X X X X X X $ S.F :.5.x.& X X O         $ e.{ ( a.& X X X X X X X X X X $ & ).F j F & $ X   @     . X X X X X X X X X X $ d.' X.@.G 6 $ X X X X X X X X   @   .                                                                                                                                                                                                                                                                                                                                                                                                                                                                                                                                                                               ",
"                                    O               t q 9 q ,                                         .             u 7 7 t               X   q r 7 e     X q q q y         X ; 7 7 - X X   X   X X * r 7 e X     O           O                                       , 7 * ; t 2 , , > , , ; ; * * 7 * 7 7 7 7 q t e e 7 7 7 9 9 ;       O                                                                                                                                                                                                                                                                                     .     X     o   ; 6 7 y X   q 7 t ; X         X               O                                                               X $ ).B r.1.c.& X       X           X & 8 >.U ;.x.X . . .   O       X       X   X & D $.@.%.u.$   .   O @   X   . O < O   X X X ).1.>.k 8 & X . X                 $ 8 1.%.5.^.X   O +       X M { 8.S $                   X   X $ 8 u.Z A & X   O           X   X o         & w. .( >.S & X o O     X X O   O               X                                                                                                                                                                                                                                                                                                                                             O   O       O                                                                                                                                                                                                           ",
"                                .                 X t q 7 7 t                                                       t 7 7 q X                 t 7 * :   X X * & q 4         X q q w y * - : 7 ; 7 - 7 7 7 * X   O         .                                           e t q i - 4 i 4 t 4 t 4 i i q : ; t 7 q t ; * ; ; * * w 7 7 :   X O                                                                                                                                                                                                                                                                                             X         e 6 7 7 X X q 7 q ,   X                                                                                         & n.j ,.a.6 X                     X   & 3.) &.F $   . . .         X     O O   X & H @.W X.5.$     + O +     . . O   O     X $ H.>.O.@X& X . . .           . O   X & 1.( ) V &   O <       $ u.) ) M X     O @ O     . o     X X 6 F ;.5.H.$ X O     X   . . . O O O       & m [ } ,.S & X   + + O   O   O   X           X   O                                                                                                                                                                                                                                                                                                                                           O     O   O     O                                                                                                                                                                                                       ",
"                                                    : 7 7 7 t                                                       2 7 7 q                   : 7 r y , 3 = y t e ,           q 0 7 q - q t q q q q 7 7 7 7 X         .       O                                 X     ; * ; ; X                   X X X X   X   X   X   X   * * q :   X O               .                                                                                                                                                                                                                                                                       . O             q 9 0 *   X * q q ; X       .   .                                                                             X & m.;.:.G & X . .     X @             X G #.;.c.$   . .                 + O O X 6 V ] ! I k &     . .         o   O     X X & x.>.>.z.& $   .     X X   O O   O   $ e.W W a.$     +   O   @ Z ..{ d.$   O @ O O         . O O X & G ;.,.c $   @   X X     O O O O .       $ d.[ [ %.v.& X   . O . . . O O O                 O O                                                                                                                                                                                                                                                                                                                                             O               O     O   O                                                                                                                                                                                         ",
"                                .     O         X X t q 7 7 :                                                       y 7 7 q             .     t * * : , > , 9 7 q ,     .     q - q q q t ; q q - q 0 9 7 e                   O                                       : e e ; X       X                                   X 4 q * :                                                                                                                                                                                                                                                                                               O       .     * 0 9 q X X 6 q q , X                       .                                                                 X & M q.;.x.& X @                 o   o X R.#Xz.T.X       O         X   .   .   X & c.>.R { e.$   X     @ X           @ O   X 6 z.O.;.m.& X       X       .         X t.E I g $ X       O   $ B ) [ j $   O 1 O     X         O X $ v.;.&.m.& X X   X     .   O       O @   $ B ] ) :.D $ X @     o     .   X         X       O O                                                                                                                                                                                                                                                                                                                                                       .             O   O   O                                                                                                                                                                                   ",
"                                                    t q 7 7 ,                                       O               t 7 q q                   t q 7 : i , : 7 7 q t           i ; q ; ; , , * q 2 i * e * :   X                                                 O     y t q ,   X           X       .                 o     4 ; e *                     .     O                                                                                                                                                                                                                                                                                 e q & q t ; q 7 q : X                                                                                         X 6 B >.;.D & X           @         o     $ & & $     O O       X       . . .     & z.O.{ { a.$   X X   X             O   X X & c.>.;.v.& X   X           .       O $ 1.W | u.$ X         . X M ..{ 1.&       O   X       O X     & n.:.;.G & X O X   X     O   X   X       $ y.=.] ,.n.& X     .             O             .   .                                                                                                                                                                                                                                                                                                                                                                                                                                                                                                                                                                 ",
"                                .             .     : 7 7 9 t                                                       t 7 9 t                 o 3 ; q t i 4 = y 9 q *             X X X   X   X     X     X X     O                                                 X   : : q ; X                     .   .   .               , , e q   O                 .                                                                                                                                                                                                                                                                                     X t q q q ; q q q : , o                       .                                                                 X & c.;.>.F 6 X   O O O O   O O           X X   X   X O                 . . .   X & n.:.] ] Z X     X   O             O O   X & G &.;.v.& $       O O O   .         $ 1.[ ) Z X     X     . $ B [  .r.$     .           X       X $ x.:.:.G & X     X               O O     X Z ] W $.x.$ X .   .           X         .                                                                                                                                                                                                                                                                                                                                             .                 .     .                 O                                                                                                                                                                                   ",
"                                                    , 7 7 q t                                         O             q 7 0 t     X             X   X   X   X * 6 0 * X                                                                                                 t ; q 4   X                 .             . o         , q q q     O                                                                                                                                                                                                                                                                                                       , q q q , , q , t ,         .                                                                                 X & x.>.>.F & X .   . O O O   .       X                                         X $ b.:.U ] u.$       . O O O .       . O   X & D %.;.v.& X     . O O O             $ e.[ { Z X             X e. . .e.$   .   .                 X & v.:.:.G & X               X     .   O   $ e.{ W &.v.$ X O .     X       O O                                                                                                                                                                                                                                                                                                                                                               .               .       o           O                                                                                                                                                                               ",
"                                .   O           X   t q 7 7 t                                                       t q 7 e             .                   q 9 7 * X   .               .                         .       X                                           t e q ; X                                         X X 2 q 7 :                           O                                                                                                                                                                                                                                                                                 4 , , , , , , , , = X       o                                                                                   $ K.:.;.v.&   .                 O         . .         X       O O     X       X & x.&.W W u.$         . . .       .       X & D ;.<.n.$ X . . O . o           O . $ 1.E [ M $ O         . $ e.[ [ M $ .                     X X & F ,.$.G 6 X   O   . .                   $ 1.E W @.G & X             O O O   O                                                                                                                                                                                                                                                                                                                                                   O O O     X       O   O         X     .     +                                                                                                                                                                                 ",
"                                                  X : 7 7 7 t                                           O           t 0 q q       O     . O     X X X       * 7 9 q X     .                       o O       O   O                                                 X   , : e t         .       O                           X q 7 q : X   O           X   .                                                                                                                                                                                                                                                                                         X   X   X     X X                         O                                                                 X 8 z <.1.x.& X .     X X         O X           . .       X                     X & G &.U U e.$         o       .     . .   X & v.;.2.n.& X                 X     O X 1.} [ u.X + .         $ e.[ ..M X   . .       O           X 6 S ,.$.G & X O O   . .                 X $ 1.{ W %.c.& X       O   O         . . O     X X X                                                                                                                                                                                                                                                                                                                                           O                                                                                                                                                                                                                       ",
"                                .                 X 4 * 7 7 :                                         O             t 0 q q       O     .         X         : 7 9 *     O               .         .       O                                                     O     t : q 2 X                                         X X q u 7 *     O                                                                                                                                                                                                                                                                                                               X         X     .   O                                                                                 X & D r.r.z.&       X       .     O             .               o O     O   O   X & D &.W *.Z $                         O     & v.&.>.x.& X     O O     X       . . $ 1.W E u.X .     O     $ 1.{ { F X .     .     O           X & F &.>.G & X   O . o                     $ u.{ { :.x.& X         O                   O O   O O                                                                                                                                                                                                                                                                                                                                 O   X                 X         X         X   .                                                                                                                                                                                 ",
"                                            o   X   t q 7 7 ,                                                       t 7 0 q                 .             X e 7 q q       . O                           O         .   .                                               , : q ;                 O                             ; q q :                                                                                                                                                                                                                                                                                                               X                         .                                                                                 X $ ^.k 2.y.8 $ X     X     . O   O   .           . .                           X & x.#.U ) Z $               O         O O X & v.` =.D & X     O             . .   X 5.W { 1.X     O   O   $ l { { Z $   .       O + O .   .   X & F ,.;.G &                 .             X B ] @.,.x.$ X X                                                                                                                                                                                                                                                                                                                                                                         @ X   X X   X X X     X X X     X X         O     O                                                                                                                                                                         ",
"                                .                   ; q 7 7 t                                       .               t q q q             . . O   X       .   * 7 q - X   . O X                                     . o                                                 e : t , X X                             .   .       X : q q q X   O               .     O                                                                                                                                                                                                                                                                   X     .                   o       .     O                                                                                   X X Y.Z >.O.B &   . O           .     . o           O   O                 .     X & c.;.) ] M $               O             X & v.>.>.v.& X                         $ u.@.{ u.$     X   O . X l { { M $                 .       X $ x.,.2.v.&                               $ M { { ,.b.& X     .                           .                                                                                                                                                                                                                                                                                                                                     X   3 4 = i t t q q q ; q q q , 4 , 4 4                                                                                                                                                                                         ",
"                                                    e q 9 q t                                                       e 7 7 q                 .               , e t ;                                                                                             X     t q q ;                             .     .   .       : e e e                                                                                                                                                                                                                                                                                                                         .           O   X                                                                                     $ 8 j 8.2.x.& X   X X X X X   X X     X X X   O O O                         X & x.>.) ..Z $   O   .     X               X & v.>.,.x.$ X     O   .   .   X       $ l @.) e.$     X O     $ Z W W 1.$ X                       $ & Z ;.1.n.&   o .                 .       $ Z ] { >.b.& X @                                 . .                                                                                                                                                                                                                                                                                                                                     , t ; q ; * q q q q * q q q q ; t 4 X           O                                                                                                                                                                           ",
"                                                  X ; e e q q X     X         X     X     X     X       .   O .     y 7 9 * X                                                                                                                                         t q q q                             .     .   .       : q 9 : X               X   .                                                                                                                                                                                                           X                                     o                                                                                                                                                       X $ H.,.( ;.F & $ & & & & & & & $ & $ X X       .                           X $ v.>.( { Z $                             X & v.&.:.x.$ X     .           .     O $ Z { R 3.$     X   .   X u.{ W 1.$   o   O       X   .   X & B ] *.f H.$   . .   X       O             $ F { { >.v.&   O                                                                                                                                                                             .     X       . . .                                         X                                                                                                                             X 7 q 7 q q , q ; ; q , t ; q 9 q * ,                                                                                                                                                                                         ",
"                                                  X , q q * i                                             . . O X   t 7 7 *                                                                                                                                           q q q , X               O                     .       * 7 e *     O                                                                                                                                                                                                                                     o                   .                                                                                                                                                               $ X $ F ;.%.e.n.I.P.P.n.n.S.P.P.n.K.H.Y.& X X         O                 O   X & c.>.[ { M $   O       .                 X $ v.>.@.S 8 $ $ X $ $ $ $ $ $ X $ $ X & 1.W W 1.$       . .   $ 1.{ { ;.& $ $ X $ $ $ $ $ $ X $ 6 b.o.&.:.@X6 $   .             . .           $ e.{ E >.x.& X                                                                                                                                                                             .               .                                                     .                                                                                                                       7 9 0 y ; : 4 q q , , , q q q 7 7 :             O                                                                                                                                                                           ",
"                                              O   X ; * q 7 ; X         .                   .       X       O O   X q 7 7 :                                                                                                                                           ; q q ;             X                       . .       q 9 9 :     O               .                                                                                                                                                                                                                                                                                                                                                                                                             X 6 J.v.z.!.T.P.H.J.H.D.D.!.v.j ;.p.x.& X   .     O O   .               X & x.>.( ..Z $                             X & v.] [ >.<.B a.y.r.e.u.Z F F u.r.r.a.e.=.E I k $ X   O       $ e.{  .8.p.m a.a.y.e.l 6.M j 7.4.f <.,.1.n.& X   X                     X       X M ) [ >.c.$   O                                                                                                                                                                             o       X                           X     X             X                             .                                                                                                     7 q 6 & X     X   X X     X 7 7 q ; X                                                                                                                                                                                       ",
"                                                    t q q 7 *                                         X             7 7 q e                                                                                                                                     O   X q q q t                                             X 0 9 7 *                                                                                                                                                                                                                                     X   X   X   X     X     X X X                                                                                                                                                                   X $ $ 6 & & & & & $ & & & 8 r.>.) <.b.& X       O     .         O     X & x.&.[ ) M $           .                   & v.O.[ O.;.2.o.>...] >.<.w.1.2.O.>.o.`  .{ =.i.$   X   O .   $ 1.[  .^ ) *.L ..[ ( +.$.,.,.%.+.&.4.k m.$ $ X         O O O X                 $ e.W [ >.c.& X                                                                                                                                                                       O   . .     X   X   X   X   X                             X       X           .                                                                                                                     7 q 7 7 X X   X   X   X     q 0 q :             O                                                                                                                                                                           ",
"                                          O   O X   y * 7 7 q $ X             X                 X   X   X       X X 0 6 q ;                                                                                                                                         X q q q ,                             O               X 7 9 9 q   O                 o                                                                                                                                                                                                                   = , , , * : , ; : , , , 3 ; 4   X .                                                                                                                                                   o O O   @   X   X X $ X     X X $ !.d...( ,.!.X   X           .             X & x.>.( { e.$     O     o       .         X $ v.;...a e.@Xc.c.c.c.c.b.H.!.x.D S F d.( [ ) F $         O   $ 1.{ ..] =.) { [ [ ] A F.x.F.v.S G.v S.$ X O O @   o   O O         X   .     X X Z W [ >.c.$ X                                                                                                                                                                         O .       = - q ; , ; : ; q ; ; : ; : : e : * ; : q * : * ; * y i i 3                                                                                                                             ; 7 q q                     q 7 7 :                       O                                                                                                                                                                 ",
"                                                    t * r 9 q & t , e ; t t , , : ; t t t t e ; 4 , : * , 4 i i * % 7 7 7 y                                                                                                                                           q 0 e t               O O                     .       6 6 7 q     O                                                                                                                                                                                                                       .   .       i i q q q q q t e q ; : t , t           .                                                                                                                                                 . @   @           O   O     X $ 8 `  .] M $                       O     X & G >.[  .M $                             X & x.2.] a.8 6 & & & & & & & $ $ & & 6 8 >.[ ) F $             $ u.{ { &.#.,.8.I X.;.8 & & & & $ & & $ X   O O       O O +   O                 $ M W [ >.x.&   @                                                                                                                                                                         O       i q q q q , t q q q 0 q q 9 q 7 q 7 q q q q 7 q q q q * t 4 X     X                                                                                                                 o   ; 7 q q       X           X q 0 q : X         O O                                                                                                                                                                           ",
"                                            O   X   e * 7 7 0 q q q * 7 * q q q 7 7 7 q q q 7 7 e ; 7 7 7 7 q q q 9 9 7 q e                                                                                                                                       X   q q q 4               O .           X         .       7 7 9 :     O                                                                                                                                                                                                                       .       X   ; - q q 0 7 q q q q 7 q q t 4                                                                                                                                                       . . .     X . . .   X O   @ O @ X     & k { ..M $       .                     X & x.>.( ] e.X                               & v.` %.c.& $ $ X X X X X X X X X     $ 1.{ I M X O .         $ Z W [ ] S x.g ,.U 3.6 $ X $ X X X     X   X     #   O   .   O               O @ e.{ W >.x.&                                                                                                                                                                             .   . X q - 0 7 q q q q 0 0 7 7 7 q 7 7 q 7 0 7 7 7 q 7 7 7 7 q e 4                                                                                                                             e 7 q i   o           .     q 7 q ;                                                                                                                                                                                         ",
"                                        .     O     e * 7 7 7 q 6 7 9 7 7 6 7 9 7 7 7 6 7 9 7 7 7 q 7 7 7 7 7 7 7 7 7 9 7 ,                                                                                                                                           q q q t     .           X   O   .                   X * 9 7 * X                   .                                                                                                                                                                                                         o       X q 7 0 7 9 q q q q q 7 6 7 ; i X       .   O                                                                                                                                             o       X           O   O         $ F { ] Z $   O     .                   X & D >.[ { u.$           .                 X & v.,.>.x.&   .   o               O O X i.{ W e.X O           X Z { E ,.8 & 6 G ,.;.B.& $     X @ O o       X       . .   . O   .             $ u.W } >.b.& X O                                                                                                                                                                       O         i 7 q 7 q t 4 q q q q q u q q q q q t e u q e q q q 7 9 * i         O X         .                                                                                                       y * q ,             . O X   q q q e X           O                                                                                                                                                                           ",
"                                                  @ ; q e 7 q * 7 7 9 6 9 7 6 7 7 7 7 6 9 7 7 7 e : 7 7 9 7 7 7 e 7 7 7 ; t                                                                                                                                           q q q 4     .             O     .             o   O   y 7 e *     O               .                                                                                                                                                                                                       O .       X y * 7 & $ X X X X X X 6 q 7 q X       .                                                                                                                                               X     o             .               $ r.) ] Z $       .   O           O     X & x.>.{ ) M $   O       .                 X & x.<.3.x.$ X   .           O   O     X e.{ { Z X O O     .   $ e.[ E <.$ X X & N ;.3.S $ X     O         o       X         X O               X Z W [ >.c.$ X O                                                                                                                                                                               X q 0 q 0 X   X   X         X       X     X         X 7 7 q :   X       O                                                                                                                 q 6 q e             O O     q 7 q ;           O O                                                                                                                                                                           ",
"                                        .     O     X * e t , t q q q * q q * q 7 7 q 7 q q 7 * : e 7 7 7 7 * 7 e e q 7 q 4                                                                                                                                           q ; e ,                                       . O O   q 7 7 e                                                                                                                                                                                                                               .     X   q * y q 7 7 7 q q q 7 9 q 7 i                                                                                                                                                                                         .   $ 1.{ @.Z $     X   .   O               X & G >.( { e.$                             X $ G.:.1.n.& X           .     O X     $ e.{ W 1.$ O   X     . X e.[ [ u.$ .   X 6 c.#.,.h.& $   O               @     X         . O           $ M { } >.x.&   X                                                                                                                                                                                 * q 7 7 X       X                                   * 9 q ,         O                                                                                                                   q 9 0 t                     q q 7 :                                                                                                                                                                                         ",
"                                        .       @     * t e = 4 t t : : , , , 3 t t : : , , t t , t : q q q t t ; , ; ; 2 4   o                                                                                                                                 X   X q q q , X X       X                           . .     e q 7 q X   O               .                                                                                                                                                                                                       .           y ; * * q q q q q q 0 q * ; i   X                                                                                                                                                   X         O   O .   .           . +   $ 1.E W 5.$     X                 O     X $ D >.[ { Z $         . .         .       X $ v.;.,.c.& X X O O       . .         $ e.) W 1.$   O X   .   X M { ) 1.X o   X $ & G :.3.c.& X . . . .     @     .     X       O           O $ M W [ >.x.$   O                                                                                                                                                                                 * q q q     O                                       7 9 * : X       O                                                                                                                 X 7 0 7 e                     ; 0 q t X                                                                                                                                                                                       ",
"                                            O O       X   X             X     X         X           X   X X       X       X                                                                                                                                           q q ; ,         X   X X     X     X   X   X           t q 7 e                                                                                                                                                                                                                                       X 4 i ; q e q ; ; , ; q ; q : , X         O                                                                                                                                           X X $ $ @ X @ O O O     X   .   . . O $ M W { 5.@             X         O     X & c.>.{ ..M $                             X & v.;.;.c.& $   O         .           $ Z ) W 1.$       .     $ M ....u.$         X & A ;.1.x.& X   . . X   O O   .     O O O         X       $ Z W [ >.c.& X                                                                                                                                                                                 X : e q *                                             7 7 7 :           O                                                                                                                 7 9 q q                   X 7 7 q :             O                                                                                                                                                                           ",
"                                      X   . .       X   X   X                                           X               @                                                                                                                                           X q q q ,     X 4 , : , : ; q t , , , , ; 4 ,     .     : * r :                     .                                                                                                                                                                                                                   = , p i , ; t , i y : t i i , X                                                                                                                                                     $ E.D v.P.$ X     O         . .       $ M ) { Z X + O                         X & c.>.{ ) e.$   O       .                 X & x.2.2.m.$ X   O .                 O X Z { W 1.$ O           X u...( a.$   . +   X X & v.u.<.c.&   . o   X   O .         O           .       $ u.{ { >.x.& X O                                                                                                                                                                           O     e 7 q ; X   O O                                   X q q q , X                                                                                                                           7 9 7 i                   X q 7 7 :             O                                                                                                                                                                           ",
"                                                o           O   X   .       .           .             X X       .     O O                                                                                                                                             q q q : X X   , t q q q q q q e e : : u u t   .     X * 7 7 : X   O         X                                                                                                                                                                                                                 o       . X           X                                 O                                                                                                                                 X & v.1.:.D & X     O O         .       $ F ] ] Z $ O + .                 O     X $ D >.[ [ M $                               & b.;.;.b.&   o .                   O $ u.W E e.X O           $ Z { [ B $   . . O     $ & c.t.<.n.$ X X     @   . . .     O O                 @ M { E >.c.$                                                                                                                                                                             O     X q 9 7 ;     O             O     O     X             q 0 q ,                                                                                                                           X q 0 q ,             .       q 7 7 ;             O                                                                                                                                                                           ",
"                                            . .         X     O                                 .               .   O   @                                                                                                                                       O     q q q q     X t * 7 6 q 0 7 7 7 7 * q 7 7 : X       X q 9 7 e                     .                                                                                                                                                                                                                       X       X       X   X     X                                                                                                                                                   X & c.;.:.G.& X         O O O           $ S @.) 5.$       .                     X & c.>.( ..M X                             X & v.;.;.v.&   o             .         $ 1.[ E e.X +   X       $ Z { { k $ o   + + O .   $ $ s.;.e.S & $ X . O           .                     $ e.W { >.x.&   O                                                                                                                                                                           O     * 7 9 *     O                                       q 7 q ,                                                                                                                             q 0 q ,             .     X q q q ;   X                                                                                                                                                                                     ",
"                                X                     o   .   O               X X     O           .           o .           o                                                                                                                                         u q q ; X X   t q q 7 q q q q q e e q q q t   X       * q e *       O                                                                                                                                                                                                                     X                                                                                                                                                                                             X $ H.1.:.Z & $ X X     O X         X $ & M ;.3.G $ X       .                     & x.%.[ ) u.$                     .       X & c.&.,.D & X     .     O O   O       $ w.Q { Z X O   X     . X Z E { p.$         O   .   $ & Z ;.,.b.& X   O .     .     X     . .   X       X 5.{ { >.b.& X X                                                                                                                                                                     .     .     * 9 7 * X     O                   .                 q q q , X X                                                                                                                         , q q i                     * 9 q , X             O                                                                                                                                                                         ",
"                                        O                     .     .   . o     O     . .                       . .         O O                                                                         .                                                             2 q q t     X , * q q   X X     X   i ; e t           , * : y       O   O       .       O                                                                                                                                                                                                                                                                                                                                                                                                 X $ b.:.,.l ~.X                   X K.e.#.3.J.$ X     X O . X             .     & b.%.E U Z $                 X   .     X X & F.&.#.b.& X   + .         O         $ y. .) Z X .         @ X p.U U i.$ O   O O   O .     X & S ;.;.F $ X     o . . .   X     .         O + @ p.I @.;.z.& X   o                                                                                                                                                                   . . .       q q q q   X                   X   O .             X , q : e                         X     o O                                                                                           , t : ,           O   O     * e 7 q               O O       .                 X       o   O                                                                                                                                 ",
"                                    O O   O                 .         o           X                       X             X   . .                                                                               X                                                     X u q q e X X   ; 7 q q X       X   X , : t * X X   X X : : * e X X X   O               O                                                                                                                                                                                                                                                                                                                                                                                                   O X & V :.,.F 8 & $ $ $ $ $ $ $ $ 6 j ` ,.c.&   X         .           O       X $ ^.>.{ @.G $                     . O O   X & x.&.>.v.& X             X O         & e.{ ] i.$           O $ k W *.g X   X   X     O   o   X 6 F >.<.H.& X   . . o   X   X         o       $ f X.*.1.v.& X O                                                                                                                                                                           .     t q q ; X         O             . O     X X X       t q 7 * X X   X X       X         X       O                                                                                         4 t e * X X   X       X     e 7 7 q       O .           X X           X   X                                                                                                                                                 ",
"                                                                          X * * 7 - : : , : 7 r e t q q q 9 7 q q t * 7 7 -                                                                           .                   .                                           q q 7 e * , ; q 9 7 7 : , e e e q q 7 7 & r * * q e * r 7 e i X   O   O       .       O                                                                                                                                                                                                                                                                                                                                                                                                   O   $ 6 G 4.;.;.2.y.B B F B F Z e.<.2.2.z.& X X         O O           O         $ (.<.%.3.S X                       . O   $ $ H.:.&.c.& $     O   O O < O O     . X a.) ] u.$   X   X   + X 5.R U Z $ X   X   . O       .   X & F 3.:.x.$   O O               .     O     & 1.E ] <.v.& X     o                                                                                                                                                                           X q 7 q 7                 X       .     X 3 ; q q 4 ; ; q 7 9 - q y ; q q , : , 4 ; = , 3 X   O   .                                                                                     X e * 7 7 * 7 q t t 4 , : r e r * q q X   X         O O @ = ; q * ; ; q e r q q q 7 q q q * 2                                                                                                                                 ",
"                                                    X                     X * 9 7 9 7 7 q q 9 6 9 0 q 7 9 0 7 7 * q 7 9 9 0 X                                                                                                                                   o X   t * * t e , t * 7 7 7 t , e q q 7 q 6 9 7 7 9 7 7 * q 7 7 : ,       O   O   .                                                                                                                                                                                                                                                                                                                                                                                                             <   X $ & F.u.e.1.r.y.F a.F F F Z a.F b.& X   . X   X                         X X & l.F v.6 X           O     X   . .   X   $ I.G V ~.$ $   #       O O O     .   X H.M M n.$     X     O X F.1.l H.X       .   O O X   .   @ X & b.S G.$   O O X X           X . o       $ m.1.M x.(.$ X   o                                                                                                                                                                               ; 7 0 q X                               q q q 7 t % q 0 7 7 q 7 q q * q 7 q q q y ; t 3 X                                                                                           X   e 7 7 6 9 9 7 7 : e e 7 e 7 e q q u     +               ; q 9 9 0 q 7 & 9 9 0 - 0 9 6 9 7 q                                                                                                                                 ",
"                                  .   .                   O   O X   O       q 7 7 r 7 * e 7 q 0 q q * q 7 7 7 q t , 7 7 6 7 X X                                                                           X         X o                                               i q q * : e i 0 7 7 6 e : e * q q 0 6 9 9 7 7 7 * q q 7 t , ,         O                                                                                                                                                                                                                                                                                                                                                                                                                   X X     X X @ $ $ $ @ $ $ X $ $ $ X X $     .       X   O +         O .         X X $ $ X X X     X       O         O     X X @ $ $ X X   o   o   X     O   .       X $ $ $   . . O   X .   X $ $ X X           . .       @   X X X X X     O O O           O O   O     O   $ $ $ $ X X   @   @                                                                                                                                                                           X 7 0 9 0                             o   q 6 7 7 t y q 0 9 7 q q q * r 7 7 q 7 & 0 0 ; , X                 O O O                                                                         4 q q 6 0 * q q e e e e q 7 e , , 2     .               , * 6 9 - 7 7 7 7 7 q q q q 9 9 0 7                                                                                                                                 ",
"                                  O     .             X   O O   O O O O     t r 9 e % * t ; q q q : t : t q t , , : 7 7 7 q                                                                     .                             o                                       t t t : t , ; 7 7 9 7 * ; , t q q q q 7 6 9 * q ; i t * ; , > X     O                                                                                                                                                                                                                                                                                                                                                                                                                           . . .   X     X         X     o . o .         O O + O           .     X           o     @       O O O             X   X X         .         X                       X   O + +       . . O @     .     @     .           X   + O +   X                 O O O +     . o     .           .                                                                                                                                                                   X         X q q e q       o     O           .       q 7 7 7 * - - * 7 e * ; t : e t : r - - y q t i   X O                                                                                         X 2 4 t q e q ; t i t , e e : , : i = X   O             X y q 7 t - - y : t ; 2 4 q - 7 6 7 q                                                                                                                                 ",
"                                  . .                               . .     , * * e X   X     X   X       X     o   : * q e                                                                           X   X           X X                                             X   X   X   X * 7 7 7 X     X X   X ; ; y ; X X         X   X       O   .                                                                                                                                                                                                                                                                                                                                                                                                                 .   .       @                     X           O       .         O               @   +       O           O           X       X     X   .   .                         o .     X   .       O   +   O +   o       + O O   o   o o       + O   X X     .         O   .           X         X                                                                                                                                                                                     e q e : X O O   O O O . O       .       t q 7 * X X q q q * X             X   X q 0 * t     X             O                                                                             @     X   X           X       X   X   O           o   X , * * t X   X             X * q q t                                                                                                                                 ",
"                                          X   X       X X   X   X         o t * q q X   X   X   X                   : e q :   O                                                                   @ = t t q i i i , t t i 3 X                                     O @     X         q 0 7 t X X           4 ; ; 4 X     O             o                                                                                                                                                                                                                                                                                                                                                                                                                           .         O                         X X     . .           O                 O O       X               O O     X     o O               o X                   X     .     X X                 o O   .           O O O       . .   X O o     X   . . . O   O X   . .           X     O     o                                                                                                                                                                         .       : e e ,       O   O O                 X ; q q 7   X q q e y           X   X   X ; ; ; i           .         O                                                                       O O                                 X   O             X     t * q , X         .   X     , e * :                                                                                                                                 ",
"                                    , ; e q t q u u q q 7 q 7 q ; : t , , e 7 0 0 7 q 4 2 4 t ; t , 5               t 9 7 e   X                                                                     4 q q q ; ; , ; q 7 e i                                     O   O           X   u q 7 t             X , : t ,                                                                                                                                                                                                                                                                                                                                                                                                                                                     O   O O         . o                       .               X             O                         O                   O               O   O   .                     O O           .         X O           O O         . O                       O           o               O   O .                                                                                                                                                                           .       t * q ;         X                     X t * q y     * 7 7 :     @ O           X , t q q X         .       O   O                                                                       .   o                 .                 O   .             * 7 q ;     X       O O     : 7 q q                                                                                                                                 ",
"                                  X q 7 7 6 q - q q q q 7 9 0 7 9 q 7 * ; q 0 9 9 q q - ; ; : 7 q ; i         X   X q 0 9 q                                                                         - 7 7 q q e e q q 0 7 ;                                     . O O   O           4 q q ,             X , : e ,         .   .               O                                                                                                                                                                                                                                                                                                                                                                                                                     O   O   O       . .               O     .     O     X     o O           O O O                     O   O               . O . O           O   O . .     X           O O O                   X     O O   . .       X     . . O       X O   O                           X     O O   O O                                                                                                                                                                         O     o   . t * 7 * X   X X X   X   X X X           7 7 7 q X X q 7 7 e   X O O O . O       , e q ; X           .                                                                                   .               O                 X       .             * 7 q ; X X       .         e 7 7 q                                                                                                                                 ",
"                                  X q 7 6 7 q u q 2 e q 7 7 9 7 7 6 q q q 0 8 6 8 6 7 q e e 7 e q ; ,               e 9 6 7                                                                         q 9 6 7 q q q q 9 6 0 q   X                                   .   O     .       y 7 q e         X X   ; ; e : X X                                                                                                                                                                                                                                                                                                                                                                                                                                                         O       . .       X         O   . . .           X                   O . . . .               O               O O . . . o     O       .         O           O                                                               .   .             . .             X       O   O O                                                                                                                                                                                   y e 9 7 * - q 7 q q q q q q q e t i q q 0 9 6 7 q * 9 6 7 e     O O O         X , e q * X                 O                                                                                                     O               O     X       X q 9 q ;   X         O   X   q 7 7 q                                                                                                                                 ",
"                                X   , 7 7 0 - 0 2 4 : ; : * * - 6 * q q u 0 q 0 0 0 * e , : * r 9 * 4   X           q 0 7 q                                                                       X y q 9 & X X X X & 9 q q                                                 .       , 7 7 :             X q q q ; X                                                                                                                                                                                                                                                                                                                                                                                                                                             X                           O           O   O O     .                     . .   O     . . .         O O                     . O . . O   O   O . .                 X                         X     o                     O O X         X   .                   o                                                                                                                                                                                                 O O       X - 6 7 9 * * 7 9 6 9 7 0 0 7 0 7 q , q q 9 6 6 7 t ; 7 7 9 e     @ O O O         : e e * X                   O                                                                                               O O   O X           .         X     e 7 q ; X           O     X : q 7 q                                                                                                                                 ",
"                                    , e e * X X     X     X   X X         X 7 0 0 7 X X   X   * e q 4         O     e 0 7 q                                                                         * 6 6 9 r t y e 7 6 6 ;   .                                 X         . .       q 7 q e X         X   u q q q     X                                                                                                                                                                                                                                                                                                                                                                                                                                                 .   .                   O   .     . O   O                 O     .   .     X X X                           O         X .         X         .     X             O   . .   O O             .           .                 @         O O O .                     X O O       .       O .                                                                                                                                                                               X ; q q y q u e q 7 7 q q 7 7 q q , e q q 6 9 9 & y ; 7 * t q       O         X X ; e q *                   O                                                                                           O       O   O O             .       O     q 7 e , X         .   O X   4 q q t                                                                                                                                 ",
"                                  . , : e *       O   .             X       q q t q           , q e 4       O       t 7 7 i   .                                                                     ; 0 9 9 % * % * 7 9 9 q                                                         q q 9 e               u q q q X X   O       O                           O                                                                                                                                                                                                                                                                                                                                                                                                                                 O O           O       X         O           . .       X   X   X         O   X     o                         X   .       X X                 . . O O             o                     X           O         . .                       O + O     .         O O                                                                                                                                                                             o O = ; - - 4 4 : : q q t t e q q t 4 , : q 7 6 0 7 : , , : i = X     O         X   ; q q q X         .                                                                                         O   O             O       .                 O   O   * e : ,           X O       : : q q                                                                                                                                 ",
"                                .   : : e 9 X X   O .       O       .   o   , * * ,     X     i q 7 ,               * 9 7 q                                                                     o   ; 7 9 7 e t t e 9 6 7 ;   O                                             .     X q 7 * e     .         4 q e :             .                       O O                                                                                                                                                                                                                                                                                                                                                                                                       O   .                     .     .     X     O           . O .         O . . .   X O O   . .     O . O   X       . O       X     . .                     O   . . .   O     . .             . . .   .     O O + O .       .                       O O                   O       . .   X X O     .                                                                                                                                                                     .         X                     X         X   X q 0 7 q X X     X                     X , , q ; X     O             X                                                                               O               .       .           .         O   X : e : ,                 X   : q 7 ;                                                                                                                                 ",
"                                    e e 7 7             .     O   O .       t q e y       X   4 7 7 i               q 7 7 q                                                                         4 q q q : : , : q q ; ,                                             O           u 7 q e             X t ; e , X     O     . O                       O                                                                                                                                                                                                                                                                                                                                                                                                             .       X O O   . .   . .           X                 O       O   .         O O + + O   O       X             O                                 O   O . . O X                             . o     O O + O     X       . .     .     X X             .                     .     X                                                                                                                                                                             .   O X             o               X           e 7 q t               X .               ; i q q X         .                                                                                                   . .                               O       * 7 q : X                 X q 7 7 q                                                                                                                                 ",
"                                    e 9 * e             .         .         e e 7 :           i e * ,               t 0 7 t   .                                                                 O O             X   X       .                   .                                   t ; q 7 t 7 q e q e q q q e e X   X                                                                                                                                                                                                                                                                                                                                                                                                                                                                                                                                 O .                                                                 .                                                                                                                                                                                                                                                                                                                                       X             X t 9 q e       . .     o     O           i ; q : X     O                                                                                             O                   X                         X     e r q q                 X   * 7 7 q                                                                                                                                 ",
"                                    t 0 q ,                               X q 9 q e           t q * ,               t 7 7 e                                                                                             .   .   O . O                                             X i , q & 7 0 7 7 0 q 7 q ; q ,           .                                                                                                                                                                                                                                                                                                                                                                                                                                                                                                                                                                                                                                                                                                                                                                                                                                                                                                                                   O           O       7 7 0 t   O O               .   O X X   e * e * X         O                                                                                                     O                 .                   X ; 7 9 q   O       X         ; * 9 q                                                                                                                                 ",
"                                    q 0 q t             .                   * 9 e e         X , q q t   X           t 7 7 e                                                                                     X   o   O   O   X           .                                       i , q q t 0 q q q q q q t t , X                                                                                                                                                                                                                                                                                                                                                                                                                                                                                                                                                                                                                                                                                                                                                                                                                                                                                                                                               O         O O     7 7 7 q           X                   X t e q *       O O   .                                                                                 O X   O       .         O X O       .             O       : 7 7 *                     e 7 7 7 X                                                                                                                               ",
"                                    q 7 q t             O       .           * e 7 :           , e q t X             q 7 0 q X                                                                                                     X                                               X , , : : q q ; ; , t : : , 3 , X       . O                                                                                                                                                                                                                                                                                                                                                                                                                                                                                                                                                                                                                                                                                                                                                                                                                                                                                                                                   X           .       * 9 7 y X   O                 O       X : : e ; X       O                                                                                       O     .         O                                 O     * e 9 *                     ; 7 9 q                                                                                                                                 ",
"                                    y 7 q t                                 : 7 q t   O X     t 7 7 ,               q 7 0 q                                                                                       X               X     X                                           X     X X X X         X     o         .   O                                                                                                                                                                                                                                                                                                                                                                                                                                                                                                                                                                                                                                                                                                                                                                                                                                                                                                                                               O   X q 9 7 * X                     O       X : , t ;         O               O                                                                   O   .                   . X   O                       O     : 7 7 *                 .   : 7 q q                                                                                                                                 ",
"                                    q 7 q y             O                 X * 7 7 e           t q 7 ,               , 0 9 0 X                                                                                             X X X               O                                 o                     X               .     O O                                                                                                                                                                                                                                                                                                                                                                                                                                                                                                                                                                                                                                                                                                                                                                                                                                                                                                                                             O     X q 7 * & X               X             X * : e q X       O                                                                                       X     X X       X X   X           .                     : 7 9 *                     ; 7 0 q                                                                                                                                 ",
"                                    q 7 q q             .                 X q 9 7 e     X     t q 7 i           .   i 7 7 7                                                                           O     O         , 4 e ; t , 5 X   X                                 .             X                             O O   O                                                                                                                                                                                                                                                                                                                                                                                                                                                                                                                                                                                                                                                                                                                                                                                                                                                                                                                                                 O   X ; 9 9 t e , ; ; q q q q ; 7 i 4 i ; q & r 0 q , X                                                                                           o   ; , 7 y q t i q y % t ;               X   X       O   X = r 0 *                   X : 7 9 q                                                                                                                                 ",
"                                    q 7 q t                         .       ; 7 e :           t q q t         .     t 7 7 q                                                                       @ O     O           , t e * e , 4     X   @   O   O                             .                                         .                                                                                                                                                                                                                                                                                                                                                                                                                                                                                                                                                                                                                                                                                                                                                                                                                                                                                                                                   .             O     - t & r : : q 7 9 9 6 0 7 7 7 7 q 7 7 * 9 7 q , X                       .                                                                       q y 7 7 - * q 7 7 7 t t X         .                   X ; 7 9 q   .             O   : 7 7 q                                                                                                                                 ",
"                                    t 7 q e             .       .         X 7 e 7 e     X   X 3 q * 4       . O .   i ; 0 q                                                                     O   O O O   .         t t e * e , 4     X   O   O                       .                                                                                                                                                                                                                                                                                                                                                                                                                                                                                                                                                                                                                                                                                                                                                                                                                                                                                                                                                                                         .                 ; t 7 e : : q 7 7 0 9 7 6 7 q q 7 q 7 7 0 7 ; 4 X         .         O     O                                                                   X ; w 6 7 7 q q 7 7 6 t *   X                       O     : 7 7 *                 .   t 7 7 *                                                                                                                                 ",
"                                    q 0 q t                                 * 7 e :           , t e p               t - 7 q                                                                               O         X = , e * i , 4 X   X                                   O   .     O   O         O                                                                                                                                                                                                                                                                                                                                                                                                                                                                                                                                                                                                                                                                                                                                                                                                                                                                                                                                                             .               X = , - i , 4 * q q q * q q q t e : e ; q q q 2 4 X   o                                                                                           7 q 9 7 q q * q 7 7 9 q           o                     : e 9 *   .                 q 7 9 q                                                                                                                                 ",
"                                    q 0 q t             O                   * e 7 e           i * - t               t 7 7 e   .                                                                                           X   X   X     o                                         O       . O     X                                                                                                                                                                                                                                                                                                                                                                                                                                                                                                                                                                                                                                                                                                                                                                                                                                                                                                                                                                                 X X   X   X       X   X         X         X   X           .                                                                                     ; e * % X X   X * * q ; X         .               O     * 7 7 q         X       O   ; 7 0 q                                                                                                                                 ",
"                                    q 7 q t                               X * 9 e :           t t y t   X     X   X q 7 q t                                                                                     o     X           X               O                                                                                                                                                                                                                                                                                                                                                                                                                                                                                                                                                                                                                                                                                                                                                                                                                                                                                                                                                                                                             .             . .   X   X   X                                           .                 O                                                                         , q 7 *       X - * y ,                               X : r 7 *                     , 7 9 *                                                                                                                                 ",
"                                    y 7 q t             .           .     X q 7 q t         X t q 7 *   X   X   X X 7 0 7 *                                                                                                 O   X O                                                                                                                                                                                                                                                                                                                                                                                                                                                                                                                                                                                                                                                                                                                                                                                                                                                                                                                                                                                                                             .                         X               X                     X @                                                                                                 4 q q 4   o o   , q q ,                               X ; 7 0 ;                     ; 7 q -                                                                                                                                 ",
"                                    q 7 q t             O                   q 7 7 t           t q 7 e ; e q t , = % q 6 9 q   .                                                                                     o   X   O                                                                                                                                                                                                                                                                                                                                                                                                                                                                                                                                                                                                                                                                                                                                                                                                                                                                                                                                                                                                                                                   . .             O                 .       X             .           O   X                                                                       X   , q q ;         , 7 ; ,           .   X           O     e 7 7 q   .               X : 7 9 7                                                                                                                                 ",
"                                    q 7 7 t                               X * 7 7 :           t 6 7 7 q q q q q y w 9 6 0 t   O                                                                                               . .         . .                                                                       o     .                                                                                                                                                                                                                                                                                                                                                                                                                                                                                                                                                                                                                                                                                                                                                                                                                                                                                                                                     .     X       .     O         .   .       X               O O   O   O     .                                                                                         q 0 q e     .   t q 9 q           .               O     * e 7 q                     : 7 9 7 X                                                                                                                               ",
"                                    u 7 q t X                               : e e t X       X q q 0 0 q q 7 - 7 ; 9 6 6 7 e                                                                       O     X               .   .   O                                 .                   X                           .                                                                                                                                                                                                                                                                                                                                                                                                                                                                                                                                                                                                                                                                                                                                                                                                                                                                                                                                                             . . O   O O             O                         O                                                                                                 q 7 9 q X X     q 9 0 q X                               : 7 9 q X                   ; q 9 q                                                                                                                                 ",
"                                    t ; t ;   X   X   X     X       X     X * e e : X   X   X q q q 6 7 7 7 q i ; * 9 6 7 e   X                                 X   o     O   .                                               .                                                                                                                                                                                                   O                                                                                                                                                                                                                                 O   O   O   .   O     O                                             O       O       O                                                                                                                                                                                                                                                                                                                                                                                                                                                                                                     O                                                                                                                                                                     q 9 9 * X   X X * 9 7 *                                 q 7 9 q X .   .       X     t q 6 q X           X O O                                                                                                               ",
"                                  X 4 ; t y 7 q q q ; q q q ; y ; 4 i i : * e * t t * * t q * q q 0 7 7 & $ X   X X & 9 7 t   X                     X   X             O O               O                                                                                                             O O                   O       O                 .                                                                                                                                                                                                                                                                               O O                   O         .                                                                                                                                                                                                                                                                                                                                                                                                                                                                                                                                                                                                                                                                                                                                                             : 7 9 7 * , , * 7 9 7 *               X     .         X q 7 7 q     O .           X e q q q                 O O .                                                                                                           ",
"                                    4 : ; : q e q q q e t , e t q q * q q * 7 7 * 7 7 7 q 7 0 q t 7 9 9 7 7 q 4 ; * 7 9 7 :         .       X o   X X       X   X X       O             O                                                                                                       .       X         .       O   O   O                 .                                                                           O   O                                                                                                                                                                                           .       X           .                                                                                                                                                                                                                                                                                                                                                                                                                                                                                                                                                                                                                                                                                                                                                                               e q * 7 ; i 4 ; * 7 q t X           O       .   O     X q 7 7 *     .           X   : : q q   O   X X     O       .                                                                                                         ",
"                                  o , t : : e e * : : ; ; : : : ; q 7 t q q 7 7 7 9 7 7 6 7 0 q q * 7 6 6 q q i , 7 7 7 q *     X           = , , ; t * t t ; , , =     O     .                                             O                                                                         O                         O   O               .                                                                                                                                                                                                                                                                                 O                     O                                                                                                                                                                                                                                                                                                                                                                                                                                                                                                                                                                                                                                                                                                                                                                       , e q q , 4 4 i q q e t                                 * q 7 *         o X   X     * * 7 q   X       X   O   O   .                                                                                                         ",
"                                X   4 4 , : e e t e 4 4 , t t t ; ; * q * 7 t t 7 7 t 7 0 7 q 7 t 7 7 7 7 * , , t : * 7 9 ; X   .           i i t q q q 7 q q q , , X                   O                                   X                                                                                   .               O           X   O   O .                                                                                                                                                                                                                                                                                         .                           X                                                                                                                                                                                                                                                                                                                                                                                                                                                                                                                                                                                                                                                                                                                                                   O   5 , , : i 4 4 i e e t 4 . X       O                 X X * q 9 q X     X = * t i q ; 7 7 6 7 2 2 , , 4 ,   X O O                                                                                                             ",
"                                    X     o   X       X         X X   X   X * q * * t e ; t q ; * e e 9 r * 4 5 i t 9 7 * t         O       t ; q t q q q 7 7 7 , ,       X                         O     O         O   O                                                                                                       O   O             O   O O                                                                                                                                                                                                                                                                                                                                                                           .               .                                                                                                                                                                                                                                                                                                                                                                                                                                                                                                                                                                                                                                                                           X     X                   X             O                   q q 7 q X       e t 0 0 q - 9 7 9 7 q t : e e :                 O                                                                                                   ",
"                                X                 X     X                 X X       X       X X   e * 7 q X       X * 7 e t     X         X t * * e * t q & w 7 : t o     O             O   .             O                                                                                               X         O           X                   O     O                                                                                                                                                                                                                                                                               X         O                             .   . O O .                                 X         O   O   O     O   O O                                                                                                                                                                                                                                                                                                                                                                                                                                                                                                                                                                                                                                                                   O       X X   X   X   X       O       O       .             ; q * : X   X   e * 7 q q 7 q 7 7 0 q e * 7 * e X     O           O                                                                                                 ",
"                                  O O   o           X             o                               y * r * X       X * 7 e e   X             t ; q q X   X X q 7 : t           .                                                                                                                                             X                                                                                               X                                                                                                                                                                                                                               X                         O .     O                                     O               O     O   O                                                                                                                                                                                                                                                                                                                                                                                                                                                                                                                                                                                                                                                                       X               X     O           O               X X ; q e :         e q 7 7 q q * 7 q 7 7 e 7 7 q y                 O                                                                                                   ",
"                                O   O             O   O   O     O   .   O . .           .       X q q q q           y q * t               X ; q q t       X q 0 q : X                 O                                     X                                                                                               X     X     X     X                                                                                                       O                                                                                                                                                                                                     X                             O   .                           X                           X   O O                                                                                                                                                                                                                                                                                                                                                                                                                                                                                                     X                       .                                                                                                                                     O             O                       O               O     i ; : ,         e q q 7   X : : t ; X   7 7 * ;                                                                                                                     ",
"                                  O         X       O             .   O     O   O   O       O     e q q t     X     e q q t               X 7 7 q :         q q q : X         .         O                             o     X                                                                                   . O O         X       X   X                                                                               X   X   X X   X       O                                                                                                                                                                                               . O O         X X   X     X X   X         X                                   X   X X   X   X X X             X                                                                                                                                                                                                                                                                                                                                                                                                                                                                         O   .         X     X                                                                                                                                                                                                 O         O       .     X X   , * e ,       X e q 7 7 X X * * ; ; X X * q e t X           .                                                                                                       ",
"                                                                                .         O X     ; e ; ;     O     , q q 4 X             X q 7 q ,         : q e : X                                                 3 p i 4                                                                                       O   o X , 3 4 , , , t : i 4                                                             .                 = t t , , ,                                                                                                                                                                                                           O   o X , , ; ; q ; y ; ; ; ; , = X       X             .                 = 4 , , t t t : , , = X X   X                                                                                                                                                                                                                                                                                                                                                                                                                                                                                 O           X 4 5 p 5 X                       .                                                                                                                                       O   .               .               O                     i t 7 q ; 4 , = 7 7 9 9 & 7 7 7 q q q - : q ; t X                                                                                                                   ",
"                                                                                                X , q q i           , q q t                 q 7 q t   o .   , q : ,                   O                   .           4 5 , t                                                                                     O         , , , e , e ; ; , 4                                                                 X           X 4 t e t t 3 X         O                                                                                                                                                                                             O         , > q q q 7 - 7 q q q t t X X                       X           X , t ; * : * * : t t : X                                                                                                                                                                                                                                                                                                                                                                                                                                                                                                     5 3 4 5         o                                                                                                                                                             .       O       .     O         O                 X , - 9 0 q i e q 9 6 6 9 0 q 7 0 9 7 y t : : * t   X                                                                                                                 ",
"                                                                                                X = q q e     O     : q q e         .     X * 0 q t   .     q q q ;     O                                     .       4 p 3 i                                                                                       O       ; * q q q r q * i , X                                                             O         X     i q * q e t     X     O                                                                                                                                                                                             O O       ; * 0 9 q q 7 0 q 0 * q ;   X                     O         X     i : 7 r q e e e e : ,   X       .                                                                                                                                                                                                                                                                                                                                                                                                                                                                               O           p 2 4 5         X                                                                                                                                                             .                             O           .         i t 9 6 7 - = 7 9 9 6 9 0 7 7 7 q 0 : , : t e ,     O     .     O                                                                                                   ",
"                                                                                                  q q q e     X     e q e , X       O     X 6 7 7 t   .     q 0 e , X                 O                               > p 4 ,                                                                   .               O O       X i e q t & * q q q 4                                                                         X     , q 7 q q q   X                                                                                                                                                                                   .                     X   X i e q t q r q 7 * q q i i X     X                           X     4 : q e * q * q * t i                                                                                                                                                                                                                                                                                                                                                                                                                                                                                       .               3 4 p 5             .       .     .                                                                                                                                         O   .         O .   O                         O   O X = e 7 * i 4 4 i e 0 0 q i t * q q i , , : , : , X     O O       O                                                                                                   ",
"                                  O             O   O                                           X q q q t           e q q q         O     X 7 9 7 ;         9 0 q ,                                         X             X X                                                                     .               O         e * 7 7 X $ 7 * ; ; X                                                               .             ; 7 7 7 7 i   X                                                                                                                                                                                     O             O O O     X e * t = X X X   X t = ; 4                           .             ; e q ; X X X * t ; i       X O                                                                                                                                                                                                                                                                                                                                                                                                                                                                       O     O         X     X X                                                                                                                                                                         . .           .     X                         O         X   X                                   X   X           .                                                                                                         ",
"                                                O       O             .     O                     q 7 q q         X t q q q         O .     7 0 7 q         q 9 q ; X     O         O         X         .                   X                                                                   O O               O O X X   y * q q X X 7 7 y t                                                                         X   X t q 6 q 7 t X                                                                                                                                                                                     O     .               X     t q t q   X   X   t p 4 5     . O                             X X 4 ; ; i X   X : e q p     O                                                                                                                                                                                                                                                                                                                                                                                                                                                                                   X           X         X                                                                                                                                                                                     .                           O   X         X   O .           X         X     X       X   O                                                                                                               ",
"                                                                                                  ; q q , X         q 7 q u X         O     q 7 0 q         q 0 9 :                                                                   .   O         +   .   X     O   O O                         O               O     X X = q ; t   X e q * 4                                                             .         X       ; 7 9 * 7 t         O O                                                                                                                                                                                                 O   X ; q q e   X       t t q 4       O O                               , q q ;   X   t q e :   X                                                                                                                                                                                                                                                                                                                                                                                                                                                                                                                     X O .       X       .             o   O                                                                                                                                                                                                                                                                                                                                             ",
"                                                                                                  2 q 7 q           q 7 q q         O       * 9 9 q X       q 7 e *     O               .                                               . O O X O   O         O O   O                       . .                   O O     X ; , : , X X 7 t e e                                                                           X   i 7 7 7 * t   X                               X                                                                                                                                                         .                     : 9 0 q           u q q i                                         4 * q , X     r 7 q *                                                                                                                                                                                                                                                                                                                                                                                                                                                                                                                 X       O   O           . O O     X X       . O                                                                                                                                                                                                                                                                                                                                             ",
"                                                                                                X , q 7 q X         q q 0 q           .   X ; 0 7 : X     X q 7 7 q X   O               o                                             .   .           . .           O         X                   .                 O       : : e * X $ 7 7 7 ;                                                               O           X   t 7 6 7 7 t   X       O                                                                                                                                                                                         X       O     : q q q X   X   X q q ; t       X                     O       X   t q q ,       e e 7 *                                                                                                                                                                                                                                                                                                                                                                                                                                                                                                                           .     X X X                 X     O         X                                                                                                                                                                                                                                                                                                                                     ",
"                                                                                                  ; q 7 q           e 0 q q           o     q 7 q q         q 7 e q                                                               X   .                 .                                 .           .     .   O .     X   : : e q - 7 0 9 e e X           O                                                                 t 7 7 7 7 y                                                                                                                                                                                             .                     : 7 q e           t q ; y                               .         , q 7 t       : 7 e :           .                                                                                                                                                                                                                                                                                                                                                                                                                                                                                                                 X   , q q q i 4 5 4 q q q 4   o                                                                                                                                                                                                                                                                                                                                                 ",
"                                                                                                X : q 0 q X         q 9 7 q         X .   X q 7 7 q         t q 9 :                                                                   .     X X X @                       X                     .   .       .     . O       , t q q 7 q 7 7 * ;         .     O                                                               t 7 7 7 q e   X                     .                                                                                                                                                                   .               O   X q q q e           t e q t           .               .   O       X , q 7 ,       e 7 q ,                                                                                                                                                                                                                                                                                                                                                                                                                                                                                                               O                 q q 7 7 q t 4 q 7 7 q q                   O                                                                                                                                                                                                                                                                                                                                 ",
"                                                                                                  e e 7 q         X q 7 7 q         O       q 0 7 q         t q 7 : X   O               .                                       O           2 % - =       .                                     .               O O   O     p p e q q q 7 q e , X             O                                                           X   t * 7 * q t     X                                                                                                                                                                                                             : 9 e t           q q * : X                                       , q q , X X   e 7 7 ; X                                                                                                                                                                                                                                                                                                                                                                                                                                                                                                                             X y 7 0 7 7 q q * 6 9 0 t X X   O                                                                                                                                                                                                                                                                                                                                             ",
"                                                                                                  : q 7 q           q 7 q e           .     q 7 q t         t q 7 *                     .                                               X   i q t i X       O       X                                             O X     X , = t q ; q ; i y ,                                                                               4 : q : , i                                                                                                                                                                                                             O     : 7 * ,           t 7 * :       X                   O             , * 7 :       t 7 7 :                                                                                                                                                                                                                                                                                                                                                                                                                                                                                                             O           O     X q 6 0 w * t t * 7 9 0 q                   O                                                                                                                                                                                                                                                                                                                                 ",
"                                                                                                  : 7 7 2 X         q 7 q y         O       q 7 q e         , q e e     O                                                             .     q * 7 q X     .                             O                                   X     X               X       .   O                                                               4 4 , 4 4 5                           O     O                                                                                                                                                           o                     : 7 q y     o     t e * t                                         , q 7 ,       t 9 7 :         .                                                                                                                                                                                                                                                                                                                                                                                                                                                                                                     O                 ; 7 0 * X X X   7 0 7 q X                 O                                                                                                                                                                                                                                                                                                                                 ",
"                                                                                                X : e 0 ; X   O O   q 7 7 q           O     q q q q       X ; 7 q : X                   .                                       O         X ; 7 7 *       o                       O   O                                       X X                             O                                                                 X                 O O       O         o       O                                                                                                                                                       .       X       O     ; q q :   o     X ; q ; t X                                       4 q q t       e 7 7 :                                                                                                                                                                                                                                                                                                                                                                                                                                                                                                                                 i ; q e       X e q q t                                                                                                                                                                                                                                                                                                                                                     ",
"                                                                                                  : q 0 t     O X   i q 7 i         .       7 9 7 *         ; * 7 ; X   O           X                                               .       q 7 9 q                           O         O     .                                     X .           O                                                                                 X   X   @         O O   O         @                                                                                                                                                                                   X : q q ,           = q ; t       O   .               O         X   , q q ; X     t 7 q :                                                                                                                                                                                                                                                                                                                                                                                                                                                                                                                               X 4 q , i   X X   i q , ,                   X                                                                                                                                                                                                                                                                                                                                 ",
"                                                                                                  , q 7 2 X         - 7 7 ;         X O   X ; q 0 e X       y q 7 :                     .                                                   q 9 9 q               O   . O         . .           .     O   O O   . O . O .           O   O   . .   O                                                                                             O       O                                                                                                                                                                             .               O     * 9 7 t X         i t q 4       O                             X   , q 7 t       e 7 9 :                                                                                                                                                                                                                                                                                                                                                                                                                                                                                                                   X     .       , ; , ,         , ; , ,                                                                                                                                                                                                                                                                                                                                                     ",
"                                                                                                  t q q ; X   X   X e 7 7 2         .       7 0 7 q       X ; 6 9 :     O                                                                   * 7 7 q                         O                         O       O           O X   . O   O . .     O       X     O                                                                   O O   O   o X                   X   X   X   O O                                                                                                                                                         O                 : e 7 q     X   X ; q * y                             O           4 * 7 t X     e e e *         .                                                                                                                                                                                                                                                                                                                                                                                                                                                                                                   O                   , t t t X   X   4 : t t     O     X     O                                                                                                                                                                                                                                                                                                                                   ",
"                                                                                                  : q 7 7         X * 7 q q         O     X q 9 0 q       X e 7 7 :     O                                                               X X ; q e *             O         O         X                 O     X X             O         O O .   o                                                                                                             X                                                                                                                                                                                             X ; 9 r *     X   X q q 7 :                           O             , : 7 :       t 7 7 :                                                                                                                                                                                                                                                                                                                                                                                                                                                                                                                                 t q : ; X     X , * t :                                                                                                                                                                                                                                                                                                                                                     ",
"                                                                                                  : 7 7 - X X X   o & 6 9 q           .     * 7 9 * X       7 9 7 *       O             .                                                   : e 7 :   X                             X X   X X   X               X         X       X   X                     .                                                                     O         X   X X X   X     X X   X       X                                                                                                                                                         o       X     . O     : 7 9 & X       X * q 7 t                                         , q q t       r 7 7 ;   O                                                                                                                                                                                                                                                                                                                                                                                                                                                                                                         O                   e 7 * % X     X & * q , X   .             O                                                                                                                                                                                                                                                                                                                                 ",
"                                                                                                  y 7 9 t * , , , : 9 9 w -         o       7 7 0 7 ; 5 i , 7 6 9 e X                   .                                                   * e e :   O                             , 4 q i t t e e q q q 7 q : e e : : : : q q ; ; X X o       O             .                                                                   .     X , 4 , , e ; e ; t e q 4 4 2 X                                                                                                                                                                             X       : 7 7 9 ; 4 p ; * * 7 q e                             .           , q q q X     e 7 r : X                                                                                                                                                                                                                                                                                                                                                                                                                                                                                                                               q t 0 r : : e : y 0 t *                 X                                                                                                                                                                                                                                                                                                                                   ",
"                                                                                                  t 7 q 7 : , > : : r 7 7 * X               - 0 7 ; , , 4 t 7 7 q q     X                                                                   , e e ,                                 , i ; y : * e 7 q 0 7 7 7 7 7 7 e 7 q q 9 0 ; ; X                       O O                                                                   X       = i ; : q q q q q q q ; i 3 X     @                                                                                                                                                         .                     * q 9 q q 4 4 ; e e q * t X                                   X   : q ; 4       e 7 q ;                                                                                                                                                                                                                                                                                                                                                                                                                                                                                                             O   O           X X ; 7 7 q q * e q e * t q X                 O                                                                                                                                                                                                                                                                                                                                 ",
"                                                                                                  : t : : : : : : * e e t ,       X       X ; ; q q 4 q , q q q ; 4     X           . O                                                                               X             ; q 6 7 t , e q q q q 7 q 7 7 : t : t * 9 7 7 *               .           .               X       O                                               X X ; i q q 7 7 7 7 7 q q 2 4 3 X     @                                                                                                                                                                     o   X     , , t q ; t 4 i ; , t t =                                         t : t 5       q 9 7 :                                                                                                                                                                                                                                                                                                                                                                                                                                                                                   O                                           X , t ; t - q ; 7 e ; 4 ,                 O                                                     O O   .   O       O   O . .                                                                                                                                         O                                                                                                         ",
"                                                                                                X , > , , , ; , i t i : , , X         X   X 4 4 4 ; , , q t ; 4 , 4 X   o                                                                                             .             q w 9 w , , , : ; ; ; q q e t , 4 ; ; - 7 9 7 : X   O         . .         o .                     O       o                                       X   = 4 - q q ; q q 2 q q 2 , = X   X                                                                                                                                                             .     O           X 4 4 2 , ; t ; ; ; , , t 2 X     o                             X   i - e 4 .   X * 7 7 *   . .     X                                                                                                                                                                                                                                                                                                                                                                                                                                                                 O           O               X                       3 4 = i t i i i i ; 4 3 X X                                                                 O     O   .           O   O O                                                                                         O                                         X           O                                                                                                   ",
"                                                                                                    o   X X   X   X   X X         .         X   X X   X X X X X   X   X           O       O                                                                                       X q 7 6 & X   X X X     X X X X       X X % 7 e *     X         . o             .             X .                                               O       X       X   X   X   X   X X       X     O                                                                                                                                                   O                     X X   X X X   X   X X   X       X                             X   t e e ,       0 9 9 ;     O .   X                                                                                                                                                                                                                                                                                                                                                                                                                                                                             X                                       X X   X   X   X X     X X                                                   .           o       O   .     X           O                 .                                                                                                     O                       X                                                                                                     ",
"                                                                                                X         X             X .   X   O   O     X                                                                                                                                       ; 7 9 7 X                     X       X 7 q q :     O       .                           X           O                                       o   .                                                                                                                                                                                                     O               X             X   X                               O                 t 9 & * X X X 7 6 7 q   . O                                                                                                                                                                                                                                                                                                                                                                                                                                                                                           O             O             X     X     X           X           O         O                                                                 X X   X O                                                                                                             . .     .   .                                                                                                                             ",
"                                                                                                  O O           X           O     O           .                 o X     o                                                                                           O               q q 7 q X                     o   O     2 ; q q X           .       X                 X                                                     . O +   . O . .     .       O   X                                                                                                                                                                                           X                         .     O                             X   t 9 9 t ; * * 7 9 9 :     O .                                                                                                                                                                                                                                                                                                                                                                                                                                                                                           O o               O                       X               X   O                                           .                           X               O                 O                                                                                     .     .   . .   O O . O X                                                                                                                   ",
"                                                                                                O                         O   O . O                   .     O                                                                                                                       q 7 6 *       .   O O                 X p ; 7 q               .       X       X   X   X   X               O                                     O o                 O   O                 O                                                                                                                                                                                     .                       .                                 , 7 6 7 e : q 9 6 q ;   . O                                                                                                                                                                                                                                                                                                                                                                                                                                                                                                     O       .     O   .   @   O                   O .     O   o                                                       X X X   X   X X X X                                                                                                                                                                                                                                                             ",
"                                                                                                  .                   .     .       O   . O X O X   O       O                                                                                                                       t 7 0 t   o       O       . .           t * r *                   X X X X       X           X     X       .                                   O     o               .         @   o   @                                                                                                                                                                             o     O                   .   O O .                                   i q 9 ; , , , q q q ,     .                                                                                                                                                                                                                                                                                                                                                                                                                                                                                                                       O               O     X         O                                               .               , t , , , , , ; ; ; 2                                                                                               O     O               O                                                                                                                                     ",
"                                                                                                          .                 .                           O                                                                                                         X                 e q 7 q       .           .       .   X y : q ;               @ = i q ; 4 4 i 4 , 4 i t t i i e , i > o                                                                               X     O                                                                                                                                                                                           .       .                                         4 q ; , 4 , , q q : ,       .                                                                                                                                                                                                                                                                                                                                                                                                                                                                                     X                 X               O   O   O   X   .       . O                                                                   ; q q ; , : ; q q i = X X   o                 X                                                                 O     O                   X     X                                                                                                                               ",
"                                                                                                                                                                                                                                                                  X           X     e q 7 q   . .               .         X ; q q ;                 i t q * , 2 , u t , , , , ; q q ; q 4                                             X   X     X             o                                                                                                                                                                                                 O     O                                                         X X       X X   X                                                                                                                                                                                                                                                                                                                                                                                                                                                                               .           X o X   X   X X X     X     X   X           O                                                                       O               t 7 q 7 e e * q q q e                                                                                             O @                 X     X X X X     X                                                                                                                       ",
"                                                                                                                                                        O         .   O                                                                                                             q q 7 ;               .                 ; 7 9 *       O         : r 7 q 4 p q ; ; ; , 4 , q y q q q ;     X                                                                   .     O                                                                                                                                                                                 O   O                         X                                                               O                                                                                                                                                                                                                                                                                                                                                                                                                                                                       .       X   = = i ; i q t ; i ; i , i , =                       O                                                                 X             * 7 7 q % ; * y q * t   X                   .                                                                   O           X > 4 i : q q q q 7 7 q q q i % X               O                                                                                                   ",
"                                                                                                      O                 O                                                                     .                                                                                     y q q t                         O   X X q 7 7 ;                 : ; 7 q 2 3 2 ; , 4 4 4 t q % 7 7 q ;                                                         @         O X                                                                                                                                                                                               O                                                                                                                                                                                                                                                                                                                                                                                                                                                                                                                                                                     .     X t i q 7 q q q 7 q ; q ; q i i X                                       X                                             O             X q 7 7 7 X X X * q * y                                                                                                   o   X , e , q q 7 7 7 7 7 q q e y 4             O                                                                                                       ",
"                                                                                                      O                     O     X                                 O                                                                                                               t q 0 e         O O   O           X     7 q 0 q X           X   * q * - X X   X X   X     X $ 7 q q q X X                                                         . O                                                                                                                                                                                               .                                                                           O O .                                                                                                                                                                                                                                                                                                                                                                                                                                                                                         .         ; t ; q q t i q u q q 7 * ; , X                                           X                                                   O     q 9 6 7   X   * q ; i X       X   X                                                                                 .   X     , : e e q 7 7 9 0 7 0 * - ; i   X                                                                                                                 ",
"                                                                                                O     O   O   O   O     O     O                                                                                                                                                     e 7 q e           O       . .         X ; q 7 q     o   O       : r 7 *                   X   7 7 e t                                         O O     . .   O .           X                                                                                                                                                                                                               .                                                 O                                                                                                                                                                                                                                                                                                                                                                                                                                                                                                 .         ; t t i * - ; ; , q 7 t q , ,                                                                                       O         O     * 9 6 q X X   y q * t                                                                                                       X p , : : e : * q 7 q q ; 4 4 p                                                                                                                     ",
"                                                                                                                                        O       .               .   O                   O   O                                                                       . O             t q 9 :             O         . O     X ; q 0 q X   .         X : 9 7 q X     X X         X X q q - ;   X                                         X                                   X                                                                                                                                                     . O   O                                                                                           X           .                                                                                                                                                                                                                                                                                                                                                                                                                                                                                         X X , , - ; X     X   X X * ; : ,     X                                             O                                             O O   e 7 7 q       , q q ,         O O                                                                                             , 4 4 4 t : , t : ; , ; 4 4 5                                                                                                                     ",
"                                                                                                                      .             O     O   . .                                         .                                                                     O     O             t q 0 t                       .       X ; q 7 7       .   O   X q 7 7 t           O   O       i ; q i                                                           4 5 i 4 X X                                                                                                                                                                   .                           O             .                                                                                                                                                                                                                                                                                                                                                                                                                                                                                                                                                         X   X ; 4 4 t   X           q e t t                       .                     O O   O                                           .   O   : 7 7 q X     p : ; 4   X       O   O                                                                             O           X     X             X                   .                                                                                                         ",
"                                                                                                            .                               O                                                 O                                                                       .             e q 7 t                                 : e q q                 e 7 6 e   X     O   . O X   X q ; y t                                                           i 4 4 ,                                 .                                                                                                                                     O       O                                     .                                                                                                                                                                                                                                                                                                                                                                                                                                                                                                                                                           ; t ; t X   X       X 7 q t t   X       .               .                   O   O                                         X         q 7 q q       , e q 4 X       O                                                                                 O   O     @                       X         .                                                                                                                   ",
"                                                                                                                                                                                                                                                                                  X ; q q 7 X             .       o       X 4 , ; y X       O       e e q q X                   X , 7 7 : X                                               O         4 , ; 4   X                                                                 O O               X   X                                                                                                                                                                                                         .                       X     .                   O O O             o .     + O . .           .     @   X     .   O O   .         .                   o   .     O . O                         O     . . O O X       X X       .                       o                                                                                                                                                                                                         O       X   i , , 4         X   X 7 7 e = X                                                                                                   X q 0 7 *     X t t ; t       O                                                                                                                                                                                                                                                   ",
"                                                                                                                                                                                                                                                                                  X , t q * X X X                     X   X : q * ,     @     O     e 7 7 q   O O               X : q 7 :                                               O   O     o , , 4 4 X                                                                   O   X   X     .         X X                                                                                                                                                                                                       .       @   . . . X       . .       . .             O             .   X     O             O o   X   O         O   X O   .     . . .                   + .   # O   X @   O o         .             . . O       X         @   . . .     X         o         #                                                                                                                                                                                                             X : * : : X X X       X 7 7 q t X                                                                                       O             q 7 9 *       , q ; t             .                                                                                                                                                                                                                                             ",
"                                                                                                                                                                                                                                                                                    , , q q & 7 q e t e t e t q q q 7 q 7 & y 7 e t   X             e 7 7 e                       , ; * t                                                 O       X , , , 4 X                                                                       , * t 7 , : i , * q ; q : ,                                                                                                                                                                                                 O   o     X   o + O O   X   . .                           o .   X     o   X X   X @   O +     . .     X     . o   X X   + O   o           O                     . X     . O   X     .               o       O .     O   o                         . .   .                                                                                                                                                                                                       O       X   y q 9 t * * e ; e q 7 t ; ; i                                                                                         O   X         q 7 9 * X     i q ; y   X         O                                                                                                                                                                                                                                             ",
"                                                                                                                                                                                                                                                                                .   4 , ; q y e 7 0 q q q 0 7 7 7 0 7 9 6 6 9 7 * , X               : 7 7 q                     X , q 7 q X                                             O   O       > p i 3 X                                                                     X 7 7 9 7 : * : * * 9 7 7 7 :                                                                                                                                                                                                   O O   X   X X X   X X X X X X X X   X X   X X X X X X                 X X X X     + O + O   X O O .     o     X X X X             O             X X X @ X X X X   $     O                   O X     $ @   X X   X X   X X X X X X X X X X X     X   O   X                                                                                                                                                                                                       O X     X q * * 9 * 6 0 7 7 7 q q ; ; i   X X   X                                                                                             ; q 7 :       i t ; t X     X                                                                                                                                                                                                                                                   ",
"                                                                                                                                                                                                                                                                                    i 4 i ; t * 7 q q q q q q q q 7 7 q 7 9 q q : :         O   .   e 7 9 *                       : q * ;                                               O       X     X       X                                                                 X X q 7 9 6 e e t e q 9 9 7 9 :                                                                                                                                                                                                 O     X X & & & & & & & & 6 6 & & & & & & & & & & $ $ $ X X X     @ O   $ $ & & X     < X O X   . .     + O   X $ & & $   O         X O O       X $ $ $ & & & & & & & $   X   .     . O     X     X $ & & & & & $ & $ & & & & & & & & 6 & & & $ $ X     X   . .                                                                                                                                                                                                   O     X X ; q 7 7 0 9 7 7 9 7 7 ; t , 5                                                                                                       ; 9 q ;       i t ; t       O                                                                                                                                                                                                                                                   ",
"                                                                                                                                                                                                                                                                                  X 4 4 4 ; i q , t : y e t t e t y ; ; * q q ; : > o X             e 9 7 q                       : q 7 q                                                 O                                                                                       X q 6 7 9 * * , = ; 6 0 7 * *                                                                                                                                                                                                   o + X $ R.H.D c ^.l.!.!.n.n.H.H.I.P.P.!.P.!.H.!.I.Q. X$     O   @ O   }.F.D H.$ X     .       . . . X O   X X I.x.v.(.X X O     X O           X '.{.).n.m.c.F z.K.A.}.X   O           X X         {.P.^.n.S.H.I.Z./.n.x.v.b.m.B.B.n.n.H.!.R.].oX$ X X     +                                                                                                                                                                                                             X = 4 ; 7 7 q 7 7 q e , : i i i     X     O                                                                                           ; q q : X     , , q t           O                                                                                                                                                                                                                                               ",
"                                                                                                                                                                                                                                                                                    X       X                                 X X       O     X     : 7 7 q                     X : q 7 e X                                             O                   O                                                                     X , e q q X X   X   X ; q q i                                                                                                                                                                                                 X     X $ H.g :.i.c.!.N.P.H.P.P.P.P.T.P.P.P.l.H.H.I.Y..XX X   O     . X G.:.$.C & $ X         O         O @ X & D 1.>.a.$     .         O     X X .XQ.h.Z ;.>.` t.c.H.Y.X         . O     X     O X OXP.B.n.H.~.S.H.z.a.f ;.3.j z.!.B.P.!.P.R.]. X$ X X                                                                                                                                                                                                         .   .       X     X   X     X X   X                                                                                                             : q 7 e       i : ; y       .                                                                                                                                                                                                                                                   ",
"                                                                                                                                                                                                                                                                                                                                                    t 7 9 q X           X         : q q q     X                                                   o   X X                                                                           = , q e             , t ; :                                                                                                                                                                                                       X $ D ,.@.3.8 & & & & $ & $ & $ & & & & & & & $ $ X     O     . X Z ] @.:.H.$   .                     & H.5.@.[ 3.$             .   O   X X $ & 8 ;.{ W { 1.8 & $ $     O                     X & & 6 & $ & & 8 1.>.X.( 1.8 $ & & & & $ $ X X X                                                                                                                                                                                                             .     .                                                                                                                                 .     ; q e * X     4 t - i X                                                                                                                                                                                                                                                         ",
"                                                                                                                                                                                                                                                                                                                                                    t 9 7 q               X     X , q 7 q                                                 O                                                                                         , t e e           X , e e :                                                                                                                                                                                                     O   & c.:.&.A 8 $ X   X   X   X X X   X X X X   X   X       o     $ 1.{ I ,.M 8   .   .           @   X 8 B >.I W e.$         .   .   O       X @ & 4.W E ] F & $                         . O   X X @ $ X X   $ & F ] E W 1.$   X   X X X X   X           O                                                                                                                                                                                                 .   .   .           O     O                                                                                                                     t q 7 :       y t ; t         O                                                                                                                                                                                                                                                 ",
"                                                                                                                                                                                                                                                                                                                                                    t 0 9 q                       ; 7 7 7                                                                                                                                           , ; ; e             , q q :                                                                                                                                                                                                     O X & x.,.$.D & X     .   .           .                           $ i.=.] ] O.F $ + .   o   o o       $ z.>.) =.+.m.X   o X           O   .     X $ Z ] { >.v.& X           .   X     . O + .         X     . X & F ] Q [ Z $ . .                     .   O                                                                                                                                                                                                                 O O   . O   O o                                                                                                           .     , 7 * e   X   4 q ; i   X                                                                                                                                                                                                                                                       ",
"                                                                                                                                                                                                                                                                                                                                    X O             q 0 7 q     X                 : q q q X   o                                                                                                                                     y q 0 7 X           : 0 7 q                                                                                                                                                                                                     O   & v.>.;.v.& X                 . . . . .     O     X           $ 6 f >. .[ y.$   .   X           @ $ <.X.*.:.n.$   +                           $ V @.' <.m.$ X + O       O         . . O             . O O X & c...E ..u.X .                         O O                                                                                                                                                                                                   X                                                                                                                                       .     , q 7 7 X   X , q ; y                                                                                                                                                                                                                                                           ",
"                                                                                                                                                                                                                                                                                                                                                    t q 7 7                     X : q q *                                                                                                                                           u 7 7 q X     X   X ; q 9 7                                                                                                                                                                                                 X   O X & c.2.:.b.$ X   O                   .     O   O O       O O   X $ ^.r.O.( 2.& X     O     .   X X & >.I :.c & X   O @   O O       O           $ F %.O.O.v.$ X O               X   .   X     .       O O +   & c.] E %.G X                 .                                                                                                                                                                                                                   X                                                 O                                                                                       t q 9 q   X   t e - i X       X O                                                                                                                                                                                                                                               ",
"                                                                                                                                                                                                                                                                                                o       O             X   . O         .             i q q q                       : r 7 q                                                                                                                                           u 7 0 q X   O       ; 0 9 7                                                                                                                                                                                                       X & c.>.2.x.&   O O O   X   O                         .   O O   X X $ S ;.] ;.c.& X + O O .     X & v.9.>.n.& X   O O     O                     $ M { [ O.c.& X   X   X   O                         O O O .   & c.>.[ ] S @         X                 X                                                                                                                                                                                                                                                               O                                                                             .     * * * 6 X   X * q q e       O                                                                                                                                                                                                                                                   ",
"                                                                                                                                                                                                                                                                                                O   O                               O               q q q t                       : q 7 q                                                             O                                                                             q 7 0 7 X     O O   ; 7 7 7 X                                                                                                                                                                                                     X & F O.>.G.$ X . O       X   O             X         . . +     X X X 6 F ;.>.:.h.X O @       . X G.4.@.u.& X   O   O   @                   X   & 1.{ { >.F 6 X             O O                             X & c.>.) ] Z $                                                                                                                                                                                                                                                                                                                                                                   O           t 0 9 y ; t 7 t q ; t             .                                                                                                                                                                                                                                             ",
"                                                                                                                                                                                                                                                                                                  .                             O                   q q q q   O                 X : t 7 q                                         O                                                                                                 , q 7 7       .     , q 9 7                                                                                                                                                                                                 o . . X & B >.>.v.& X                     O O                       @   O   X & 1.I *.s.$ X           $ B >.,.v.$   O     X         . . O     .       $ k { ] ;.v.& X       X X   O       O             X         X & c.>.(  .y.$                 + O O X                                                                                                                                                                                                                 . .                 O O   O                   O   O                                                                             .     ; 7 6 7 - i q * q q t                                                                                                                                                                                                                                                           ",
"                                                                                                                                                                                                                                                                                                              X                                     q 0 q q                       ; 7 q q     X                                                                                                                                     : q 9 r     .   .   : 7 9 7                                                                                                                                                                                               . O . . X & F >.O.v.$ X                   O   O X                 . o     O O O X c.%.[ ,.& X X X   X X & r.` Z & X . O X X     .       .   . . X       $ M W { :.n.$     X         . O .         O             .   X & c.>.[  .y.$   X           . O O O                                                                                                                                                                                                               .         .       O   O                                                                                                   O               ; q 7 t = , q * t ; i X         O                                                                                                                                                                                                                                               ",
"                                                                                      .     .   O                     O                                                                                                                                                                                                         O       X   .       w 7 7 e                     X q 7 7 u X                                             O                   X                                                                       t q 9 q         O   e 0 7 e                                                                                                                                                                                                 O . .   & a.>.>.S & X           X       . .   X O     .     X             O . X 6 B %.=.b & $     X & c.O.O.J.$       X     .               .         $ M { { >.v.& X                                             X & x.;.( { e.$                                                                                                                                                                                                                                                                                                                                       X     O       O       O                 5 i 4 i i 4 4 i i 5 = X                     .                                     X       X   O                 O                                                                                                                                                               ",
"                                                                          O O O .         .   .     O   .   .                                                                                                                                                                                                                     O                 7 9 q t   X       O         X q q - ,                                                             X                                                                           X : q 0 t             e 7 7 q                                                                                                                                                                                                       X & c.>.>.c.& X   .     X X   o .   .       X .   .             O O       $ P.;.[ q.a.& $ $ $ z.<.` t.& X               .                 O     $ M { { ;.v.&                   .         O                 X $ c.;.[ { Z $                                                                                                                                                                                                                                                                                                                                   O             .                                                                                                                             .   O             O O     .                                                                                                                                                     ",
"                                                                .         O   O               O O       .                                                                                                                                                                                                                       O O         O     X * 7 7 ;           .   .     X t q * t                                       o   .                   .   O                                                                       e e 0 7             * 7 7 q                                                                                                                                                                                                     o   & c.2.;.S & X O       O O O         @                       O   X         $ :.} ` r.n.8 8 D u.1.e.6 X       X   X   . O                       $ M { { >.v.& X                         O       .           X & b.,.{ { u.$                                                                                                                                                                                                                                                                                                                                                                                     X   X   X   X                     O     O                                 O .   o   O   . O O .         O O         .                                                                                                                                                     ",
"                                                                      O O O @                     X       .                                                                                                                                                                                                                                   O     7 9 9 q X           o         e t ; ,                                                 o         .       .                                                                       , ; 9 q         O   : 9 q q                                                                                                                                                                                                       X & v.<.2.v.& X   .   +     O   O             O O             O O   X   O . X G %.%.;.k l 1.<.#.l ~.& X     O   X   X                           X M { [ >.x.& X         .       .                             & v.;.E { e.X                                                                                                                                                                                                                                                                                                                                                                                       X                                                                         O                             X X                 O                                                                                                                                           ",
"                                                                  O       O O           X         X                                                                                                                                                                                                                                   X   .   O   X q 9 7 * X                 X X ; , , 5                                       O   O X               X O   O                                                                       , e 7 q X           : 7 q *                                                                                                                                                                                                 X     X $ K.3.<.c & X   @ .   o O   .     o       O   X               .       X . X $ v.;.8.) -.I ..3.x.& X     O O .         X                   O   $ M { [ >.x.&                   .                   O       X & b.,.[ { e.$                                                                                                                                                                                                                                                                                                                                                   X                                                                                                           O . O o                           X                                                                                                                                                             ",
"                                                                            X   X   X X     X     X     o   .                                                                                                                                                                                                                               O       7 0 & * X     X     X       X ; , t 3     .                                     @       X             @                                                                         : q 9 q         O   : 9 7 q                                                                                                                                                                                                   X o   $ x.<.;.@X6 $ X X X   X X   X X X X X   O                                 X X & u.^ W J ! ^ 1.8 X     O   O O O       X     O                 $ M { [ &.v.& X                           O         X     . X & x.;.U { e.$                                                                                                                                                                                                                                                                                                                                       X                       O                               o                                                               .       X   X   X X     X X       X         .           O   O                                                                                                                                   ",
"                                                                      .   X 4 q : , , , t e ; : 4 4   X                       . .                                                                                                                                                                                                                 X q q 9 t t : q e q : t : : q % 7 q q t                                       X   = e * t t i i t q * y =   X                                                                     e q 7 q         O   q 7 7 q                                                                                                                                                                                                     .   $ v.>.] k 8 6 & & & & & & & & & $ $ X   O     X       .     . .           .   $ F ) X.| ) ,.N 6 X X O     .                                   $ k { [ ;.x.& X                                             X $ c.;.{ { Z X                                                                                                                                                                                                                                                                                                                                                                       O   X     .                       o                 O                                     .     : q q q q q , t : ; y , 4 3 X   o                   O                                                                                                                                   ",
"                                                                X     o     , q * q e , : e 7 * 2 4         o                       O                                                                                                                                                                                           .             O     * 7 7 r : : 7 0 q 7 q q q q q q 6 q e X X                                       q 7 7 q 7 q 7 7 q 7 t q X                                                                     X t q 7 7             * 7 7 q                                                                                                                                                                                                     . X $ v.>...;.e.n.P.l.H.n.N.!.H.J.C.E.{.X X O           .   o                   @ X F ] ( { ] ,.F 6   O   O .       .                             $ e.{ { >.c.& X                 .             .               & v.>.{ { e.$                                                                                                                                                                                                                                                                                                                                                                 O   .           X                 .                                                                 X q q 6 7 7 7 * q q q q q , 4 X       .                                                                                                                                                   ",
"                                                                          X q q 9 7 * : : e q 9 q 2 X                                                                                                                                                                                                                                               t y 7 q * : q 7 7 q q q q 7 9 7 q t q X                                       X q 0 9 9 * 7 q * 9 6 7 7                                                                         : e 9 q         O   e 9 7 ;                                                                                                                                                                                                     .   & v.>.{ >.u.b.P.l.H.B.N.!.n.H.C.E.{.X X   O         o . .   .       . .   X   $ t.( ..] X.` F & X O X             .   .                       $ M { { >.x.& X                             O               X & v.;.[ { u.$                                                                                                                                                                                                                                                                                                                                           X         O     O                         . O                                                                             X q 7 9 9 7 0 e q q * q 7 q ,                           O                                                                                                                                 ",
"                                                                            : 7 7 7 : , 4 : 7 7 q t         O               . X X                                                                                                                                                                                                 .             O   = u ; y , t * q ; q : q e e t * t t = X X                                     X e 0 7 9 7 q q 7 r 9 7 q X                                                                       , * 0 q             e 7 0 ;                                                                                                                                                                                                     o   $ v.;.] <.8 & 6 & & & & & 6 & & & $ X   O             .             O . X X X & r.{ ] { [ ] a.6 X           X       .                         $ M { [ >.x.& X                 .                           X $ v.>.{ { e.$                                                                                                                                                                                                                                                                                                                             .   O     O         X                                     .     o                                                                 .     X 7 6 7 0 7 ; e ; e - r q q , X       O               .                                                                                                                                   ",
"                                                                    X .     * 9 7 7 X   X X 7 0 t e         O                                                                                                                                                                                                                     .                 X X X   X X       X   X X           o                                           , q 0 & X X   X & 7 q 2                                                                         , q 9 q X           * 7 q q                                                                                                                                                                                                   X   X & v.<.2.@X& $ X X X X X X   X       X     O                   O     . .   X 8 a.,.L =.] X./ %.F $ X               .                           $ 1.) ( >.v.&                               O             .   $ v.;.W { u.$                                                                                                                                                                                                                                                                                                                                                                                 O                                                                               .     ; q q q X X   X X X % * e ;   X     O                                                                                                                                                   ",
"                                                                    O       ; q q q X       q q t ; X                                                                                                                                                                                                                                         . o         X                                 O                                   .   4 q q * X   X X * q q i   .                                                                     : * 9 q         O   : 9 q q                                                                                                                                                                                                     . X $ n.1.,.S & X   .     . O   o     o   @ O   O X               O   O   o   $ c.%./ 9.<.1.<.;.] <.J.$   # X           O         O               @ M { { >.v.& X         .       .                       .   X & c.;.{ { e.$                                                                                                                                                                                                                                                                                                                                                                 X                                                                                             O O     , ; q ,             : t q q X     X                                                                                                                                                     ",
"                                                                  O O .     * q 0 -     X   ; * q :         O O           X       X   X X     X                                                                                                                                                                                 .                         X       .                 .                                               : q 7 9 : : : ; 9 7 * :                                                                         e q 9 q             : 9 7 ;                                                                                                                                                                                                       X & v.<.2.v.& X . .   . O   +   .               O           O   O         X & e.) *.&.x.& & K.>.( u.8 X                 O                       $ M { [ >.v.& X                                             X & x.;.U { e.X                                                                                                                                                                                                                                                                                                                                     X                           X                   X                                                                         . O     , q q ,             , ; q :       O O     .           O                                                                                                                                 ",
"                                                                    O       : 7 q u         t q e , X     O       X                                                                                                                                                                                                                     X       . .   X         o         X       .   . . . . .                                 .   q 9 6 7 e t e : 9 9 7 *   .                                                                   X t e 0 t         O   : 7 7 q                                                                                                                                                                                                     . X & c.;.;.S & X           @           X             O     .               X S.;...q.N & $ $ & k 3.o.S $ X       X               O         O     $ M { ) %.v.& X                 .             .   O           & b.;.{ { l $                                                                                                                                                                                                                                                                                                                               X   X     X X     X   X   X   X   X   X   X   X                                                                                         : q t ,       o   X i e q : X         O                                                                                                                                                 ",
"                                                                      . .   7 9 6 *         e q e ;       O O         X     X     X     X                   O                                                                                                                                                                   .             o   .     O   O                         X                                             q 6 9 9 7 ; : q 9 6 9 q                                                                         : q 0 7         O   * 7 7 q                                                                                                                                                                                                     . X & c.>.O.m.&     .     @     O o .                           X         X 8 G &.,.g.& X     X & n.1.t.j.$ X   O       .                         $ M { { >.v.&                                               X & v.,.[ { u.$                                                                                                                                                                                                                                                                                                                           . o                 X             X         X             X             O     O                                                         X X q 0 q q X           t * e q X     O O                                                                                                                                                   ",
"                                                                X   .       7 9 9 q X     X : e e e X           o X = t i , 4 i 4 i t t t = X                                                                                                                                                                                                                               X         X                                             q q 6 7 * : , ; 0 7 6 ;                                                                         : q 9 q             : 9 q ;                                                                                                                                                                                                 O     X & c.>.>.F & X           O X   .   .   o X O O . .             X       X x.;.] 1.& X   o     X & B 2.Z & X     O                               $ Z { [ >.x.& X                   .     O               .   X $ c.>.[ { e.$                                                                                                                                                                                                                                                                                                                   .     @ = 4 t t 4 i i t i t t t i t t i , i i t t i , i 4 4 5 4 , 5 , X         .                                                                 X 0 0 q q X     X     y 7 q q                                                                                                                                                             ",
"                                                                      .     q 0 9 q         : 7 q :               X : q 0 7 ; ; 7 7 0 9 q q X                                                                     X     O                                             .     .                                                           O       ; 7 q 7 t , : ; y q q q 7 7 q q ; * t q e e ,                                                                                                                                       , e 7 q             e 9 7 q                                                                                                                                                                                                     O X & c.>.O.c.& X       X O O O o             O O             X   X   X $ & t.[  .y.X         X   $ B O.) A X +     O     X   O .   X             $ k { } %.v.&                     .                     O . X & z.>.E [ Z $                                                                                                                                                                                                                                                                                                                           : e 7 7 e ; ; ; , q * q q 7 - ; q q q q q 7 q * : , t q * q *                                                                             X q 7 q * X     X     t * q * X     O   O               .                                                                                                                                 ",
"                                                                            q q 7 q         q 7 q : X           X   q 7 9 0 q q t t 7 9 0 7   X         X   O                                                       O                                                   .             O                                                   O     u 7 6 7 e e q q q 7 7 9 7 9 7 7 7 7 7 7 7 7 q X                                                                                                                                     : q 0 q         O   * 7 q ;                                                                                                                                                                                                 X   . X & c.>.O.c.& X                               O O             . .   X $ m.o...2.K.X . o X   @   $ B.2.{ #.& X   O O       O   .                 $ Z ] { &.D & X   O         . .   .               X     X .   & c.>.[ { 1.$                                                                                                                                                                                                                                                                                                             X       O     * e 7 7 q q u i t e q q 7 7 u q ; q q q q 0 q q ; e t q 7 0 7 X   o                                                                         t q y q     X     X ; q q : X       O                                                                                                                                                   ",
"                                                                      .   X q q 0 e         q 9 0 ;           X   X : 7 7 7 * - = % q 7 7 q     X                                                                                                                 O               O                                                       O O   q 7 7 7 ; : ; ; e ; 7 e q q q q q 7 7 q * q ;                                                                                                                                     X t ; 0 q X           : 7 0 q                                                                                                                                                                                                     .   $ G >.;.F.& X                             .           O     . .   & N ,.` p.c $   O             $ l.7.#.@X& $   . .           .       .   X   @ Z ] { ;.G & X                 . .         O               X & v.>.[ ..Z X                                                                                                                                                                                                                                                                                                     .   O         O       * 7 9 r * q 4 4 ; = , q ; 2 2 , , : * , q q t t 4 , * e q 0 ;                                                                           X X ; 7 * * X X X   X X - * q :           O                                                                                                                                                 ",
"                                                                      o     q 7 7 e     O   q 7 9 q   O             , : - ; X X X X * ; ; ;                                                                                         .   O   O     . O       O O O   O   O   O         X                                                 O       ; 0 9 t ; i i 5 , , ; : : , ; 3 ; = ; i t t t X                                                                                                                                     e e 9 q         O   : 7 7 e                                                                                                                                                                                                   . .   & A >.,.v.&   . .                           o           O   .   & k.t.{ @.l & X   O X   .   X X X & 1.] ;.c.& X o .                   . O     $ Z { { ;.G & X     X                       . O .           X & c.;.) ] Z $                                                                                                                                                                                                                                                                                                                         X : e * % X     X   X   X X X   X   X   X   X   X     X : 7 7 q                                                                             X q q q ; ; = , : ; * t r * : X       O                                                                                                                                                   ",
"                                                                      .     q 0 7 q       X ; 7 7 *                 4 , 2 4         e : t 4       O                                               . .                     .                                       O   O                                                                         q q 7 * X     X       X   X   X   X X : * : ,                                                                                                                                       : q 9 q             * 7 q ;                                                                                                                                                                                                 O   .   & F ;.;.n.&       O         X O O . O O             o         X 6 B ' T *.l $             .       $ ;.[ [ >.F & X     o   X       O           $ l U @.:.v.& X   o .                       .               X & c.2.] ..M $                                                                                                                                                                                                                                                                                                     o                   X ; 9 t : X       X                       X     X       t q q 3 X   .                                                                 O     X ; q q - t i , p e * q 7 : ;       O O                                                                                                                                                   ",
"                                                                  O       X q q 7 q     O   u 7 9 7 X               5 , ; 4     X   i , t i     O                                                           .                                                       O       .                                                                 X * 7 7 7 X   X                 X       , , t t                                                                                                                                       , q 7 q         O   : 7 9 q                                                                                                                                                                                                 .   o X 6 F >.2.v.& X   O   O   X     O O   + O O     X       . o     $ v.;. .X.@.A X . o   O @ O .       $ e.] ..%.;.D $ O .   X   X   O O .         $ 4.@.{ ;.v.& @   . . . . O           O O       .           X & b.2.) { e.X                                                                                                                                                                                                                                                                                                             X       O     : q e t             X   X     X                       , q q ; X                                                                     O       4 q t q : , , > : e 7 q i i X       O                                                                                                                                                   ",
"                                                                    .       q 7 7 q         : 7 7 *                 , : 7 i X       t ; , 2       O                                                 . . .             O O   O                                                             . .                                                   ; 7 7 q X                         X   t : , ;                                                                                                                                       , e 0 q             : 9 0 e                                                                                                                                                                                                 O O X X & c.2.<.v.& X       .     O O     .                         @ X A @.I ] g 6 @     X O O O . .     $ 8 M ;.] @.u.$     . .                     $ 5.{  .O.G &           o O     X   .               .       X & v.<.]  .e.$                                                                                                                                                                                                                                                                                                     .               O     * e * i   X . O             O       o                 i q 7 t   X                                                                       X   2 ; 4 , t t , t : t q t ; = X                       .                                                                                                                                   ",
"                                                                    .       q 7 0 q         q 9 7 *                 , t - i   X X   t ; q , X                 X                                                       O   O   O                                       O O                     .                                                 q 7 7 t         O               X     , , , , X                                                                                                                                     : * 9 q X       O   * 7 q q                                                                                                                                                                                                 O     X & c.2.;.i.8 & $ $ $ $ X @ $ $ $ $ $ $ $ $ $ $ $ X           O $ i.W { <.!.$ X         O X         X $ (.e.@.{ e.$   .     .     O   X X X @ $ & <.{  .O.u.8 $ X           O X                   .   .     X & x.<.' { e.$                                                                                                                                                                                                                                                                                                                           : e : i       X         O   O O   . .   . X           i 7 q y                                                                         O     X   X       o     X X X X X         O                                                                                                                                                   ",
"                                                                      .     q 0 7 q         t 0 q :   O             : 7 q *   X   X q 7 * *                                                               X           X     X                                                             O O .                                 X               : 7 e ,       O O             O       , : * t   X           o                                                                                                                       t e 7 q         X   : 7 7 ;                                                                                                                                                                                                       X & c.;.@.>.;.1.e.1.e.u.l 1.e.F a.e.M e.e.M a.F n.$ X   O     O $ l U *.k $         X   X X       .     & k *.) M $     o     O O O   X X & !.x.e.O.T E { %.<.Z H.$         X O O     X       X O   O O     X & x.3.] *.:.$                                                                                                                                                                                                                                                                                                     .                   X : 7 e ,                 O   O                         , q 7 ;                                                                                         X           X     X                                                                                                                                                           ",
"                                                                      .     q 7 7 e         e 0 9 q               X e 7 7 7 X X X X 7 9 7 7 X               . O                                         O         X X   X   X                                   X                 X       X                                                     : 9 7 :       O O                     , t q 0 X                         .                                                                                                         X : q 7 q         O   q 7 9 *                                                                                                                                                                                                   X   X & A.@XM e.M e.u.1.e.Z Z 5.1.Z S Z 1.e.Z y.u.V ~.$ X O .     O X K.g Z H.X   X         X X           O $ n.k l ~.X @       X O + .     X & A.K.k M t.1.e.e.u.h J.X @     X   O O               O O O O     X $ I.G.A g K.X                                                                                                                                                                                                                                                                                                                     O     : 9 q : X                 O   O                     X q q 7 - X                                                                       .                                                                                                                                                                                             ",
"                                                                          X q q 7 e     O   q 9 q :   X           X e 7 0 0 7 * q * 7 9 0 q                                                           O       X , q q * e : > t , t t q y t 4 u t t e t t t e t r e e , t i : t q ; * t 2 2 X                                                 X * q q 4     O             .     @   X * q q q q 5                                                                                                                                   e e 9 q             : 7 q ;                                                                                                                                                                                                 X     o   X $ $ $ $ $ $ $ @ X X X X X $ $ X $ $ $ $ $ X   X       X     X $ $ X     X     . .     O + +   X     X $ X X   X X   X   . . O   O     X $ $ $ $ X $ $ $ X X   .           X       O             . . o     X X $ & X                                                                                                                                                                                                                                                                                                                       O     q e e q                   O                           ; 0 0 7 X                                                                       .                       O O           .                                                                                                                                                       ",
"                                                                O   .       7 q 0 q         q 7 q :             X   t 7 9 7 t t t q 7 0 - q   X   O                                               O O           e q 9 7 e : : e * 7 q 7 q 7 7 7 q 0 q q q 0 q q 7 7 q q * q q 7 7 9 7 7 q 4 X                                                   * 9 q ,   X   O O                   X , q q 7 q i     o   X                 .                                                                                                       , ; 0 q X       O   * 7 9 q                                                                                                                                                                                                 X     . .   X             X   O . .   .   .         .       .   X     .   X @ O         O . . .   O 1 +           O .   o     X       .   O O O     o     +         o   O O   .             . .                 . . . .       @                                                                                                                                                                                                                                                                                                       o                 O   q 7 7 q   X                 O               X       X q q 7 q X                                                                             .           X       O                                                                                                                                                                   ",
"                                                                          X ; q 7 q         * 9 7 *                 , e q 7 2 = = e q q q 4 X                                                                 X q 7 9 9 r e : e 7 0 7 9 q 0 0 9 q 9 7 7 q 0 7 0 e 7 : e : q q q r 9 7 7 * e X                                                 X ; 7 7 ,                         X     : e q 7 q 4                                                                                                                                   e e q q           X , 7 9 *                                                                                                                                                                                                   X   . . . .   O O         O         X         o     O O + .     X .   o     X   .       O O O O O + O         + O   o   .                     .       . .     .     X   o               .       .         X       X                                                                                                                                                                                                                                                                                                                     X                 : e e e                   O         .                 e q 0 q                                                                                                                           O         .                                                                                                                                 ",
"                                                                    . .     7 q 7 r         q 7 9 *                 : * q ; i 4 4 4 : e 7 ;       O                                                             * * 6 9 * * : : t t t t q t e t q q ; q q q q e e e , : , t , q * 6 7 7 * * X                                                   q 7 7 ;                       O O     : e e y ; , o                                                                                                                                 , 7 9 q X       O   * 7 q ;                                                                                                                                                                                                 .     .       O O O O     X     @ @                           @ < O . .   X                   O     O     X     O       . .   O O O       X         . o .   o   o   X         X X   O O .         .                     @     X                                                                                                                                                                                                                                                                                                       .               O     * 7 q ; X                                             , q 7 q X X                                                                                               .             .                                                                                                                                                     ",
"                                                                          X - q 7 t     O   q 7 9 7   X             X X X X             X X     O                                                     .         t 7 q q X X .                                     X           X X X * : t 4                                             O       q 7 q t X                     O       p e * *   X     X             .     .                                                                                                         t q 7 q         X   : 9 7 q X                                                                                                                                                                                               O O   @   X   X   O   X X     .   O     O X       . O     X     O   .           .     O X             . .     X X     O . . .               X     + .         O . .   X   .     O O .         X         O         o   o   .   o                                                                                                                                                                                                                                                                                                                       O   X : 7 e ;         .         O                           ; t q 2                                                                                                   .   X   O     .                                                                                                                                                     ",
"                                                                    .       7 q 0 q         ; 7 7 q               o             X     X         . O                                                     o       2 - q q                                 .               O X         ; t , 4 X                                   .             X 7 7 7 e X       X           .   .     , : q q X                                                                                                                                 X   t q 7 q             q 7 7 ;                                                                                                                                                                                                   O         X               .                       . .               .     . .     O O                 .           O     .       .   X               . .   O     O   X   . .   O O   .   X       O O O O             . . . .                                                                                                                                                                                                                                                                                                         .   X                 : 7 q : X     X                                     X , q q q                                                                                 O                                           X                                                                                                                                         ",
"                                                                          X q 0 7 q       X q q 9 * X     O                                 X                       O   O         X                             ; q q q                                               O             t q q t                                                     q 9 7 ;                       O       , e e ; X                                                                                                                                   X t q q 7 e q q q q q 7 9 q q                                                                                                                                                                                                                                                                                                                                                                                                                                                                                                                                                                                                                                                                         O                                                             .                   X : 7 7 ;     O                                         , e q , X                                                                                                             o           X                     O O                                                                                                                   ",
"                                                                    .       q 7 7 q X       q 0 7 :                 X   .       .   O                     O     O X .   O                   .                   q 7 7 q                                             .               t 0 q q                                     .               q q 7 q                     .   .     e 7 q :                                                                                                                                   X   i ; - 0 q 0 0 0 q 7 7 0 7 q                                                                                                                                                                                                                                                                                                                                                                                                                                                                                                                                                                                                                                                                     O     O O   O                                                                     O     : 9 e ; X                   .                       X : 7 7 ; X                                                                                                                     O                     .                                                                                                                         ",
"                                                                      O   X ; 0 7 q         q 7 r :                             O                 X     O   O         X     O                                   ; 7 q e                                                             t q q e                                     .             X 0 7 7 t X                             e q e q                                                                                                                                       4 4 t ; q q 7 q q q q q q i                                                                                                                                                                                                                                                                                                                                                                                                                                                                                                                                                                                                                                                                             X   .                                                                     O     q e 7 e   O O                       X                 e 7 7 ;                                                                                                       .     .                                     .                                                                                                                   ",
"                                                                    O       q q 0 q         q 7 7 :     O                                                                                 .                     ; 7 7 :   X                                           O O           e 7 0 y                                                     q 0 7 e                       .     X q 7 q q X                                                                                                                                   X 3 4 i 3 , q ; q ; ; : ; ; i                                                                                                                                                                                                                                                                                                                                                                                                                                                                                                                                                                                                                                                                                                                                       o                 O   q 7 7 : X                   .                       X : t 7 q                                                                                                                 .                     @           X   O                                                                                                               ",
"                                                                    o .   X q 7 7 t         t 7 q :                     o               X                         X     O   O                                   ; 7 q :                                                             t 7 7 q                                                   X ; 9 q ,   X                     O     q 9 q ;                                                                                                                                       X       X X   X X                                                                                                                                                                                                                                                                                                                                                                                                                                                                                                                                                                                                                                                                                                                                                     X                 : 7 9 *                     .                 X       = q q q X                                                                                                     X   X X X = ; q q q q ; - : ; , ,                                                                                                                               ",
"                                                                            q 7 9 t         t q 7 ; X   O                               X     X X X           X   X     X                           X         X q 7 q q                                                             2 7 7 q                                                     q q ; ,     .                         q 7 q ; X                                                                                                                                           X                                                                                                                                                                                                                                                                                                                                                                                                                                                                                                                                                                                                                                                                                           X                               O                               .               O     : e e :     O           X                           X , q 7 q                                                                                                               X q q 7 0 7 7 0 7 7 q : 5                                                                                                                               ",
"                                                                            * 7 q e         t q 9 :   X                                       = , 4 4 , , , t t , , X           . .                             q q q : X                                           O               y 7 q u                                               O     ; q q ,         .             .       q 7 e :                                                                                                                                                                                                                                                                                                                                                                                                                                                                                                                                                                                                                                                                                                                                                                                                                                                         .           O O   O   O                                         O   X * 7 7 q                     o                         : 7 7 q                                                                                                                 i q 7 6 7 9 7 7 7 q : , X X     X                                                                                                                     ",
"                                                                    O .     q 7 7 :         t q 7 :     O               .         @     X   X 5 , , : q q * q q ; 4 X   X   . O                                 ; 0 q :   O                                                         t 7 7 q                                                     q 7 q ,     O       O           O   X : e 7 ,                                                                                                                                   O     o                     . O                                                                                                                                                                                                                                                                                                                                                                                                                                                                                                                                                                                                                                                                                         O                                             .   X                 : e 7 e X   O                                         : e 7 t   X                                                                                                   O .       t * 7 q 7 9 7 9 q q t i     X                                                                                                                         ",
"                                                                    O     X ; 0 7 q       X ; q e *     O               .       .       X     t t q q 0 9 7 9 7 ; t           O .                               q 0 q e   X                                                         u 7 7 t                                                     q q q t           . O O       .       t * t ; X                                                                                                                                                                                                                                                                                                                                                                                                                                                                                                                                                                                                                                                                                                                                                                                                                                       O               . O   O               O                                       X       q 9 e e                 X   .                       X , q 7 q                                                                                                               X i ; q q 9 7 7 7 9 q e 4     X                                                                                                                         ",
"                                                                      .     e 0 7 q         ; 7 7 e                               O       X   , : q 7 7 7 7 6 7 - ; X     X         .                           q q q e   O                                         .   O           q 7 7 y                                               O     - 7 ; :           .           o O X   4 : e 3                                                                                                                                     .                     O   O                                                                                                                                                                                                                                                                                                                                                                                                                                                                                                                                                                                                                                                                   O         O   .             O       o           O                     o               O   X : 7 9 * X   O                       O                 : q 7 7                                                                                                       O         y q 7 7 9 7 7 7 6 q , i   X     X                                                                                                                     ",
"                                                                    .       ; 0 0 e X       q q 7 q X   O               o       O   .       X i t q q q 9 7 7 7 i p   X   X   O             O                   ; 7 7 :                                                             i 7 7 q                                             O       i q r t               X             X : * e 4                                                                                                                                                                                                                                                                                                                                                                                                                                                                                                                                                                                                                                                                                                                                                                                                                                     O                   O                 .     +     X                         X       O     : e e :     O               .                         e q 7 e X                                                                                                               t * 7 7 0 7 0 q 7 q : 4         X                                                                                                                     ",
"                                                                      O   X q q 7 q   X     * 7 9 e                                 X         ; , ; ; ; * * 7 q ; 3                                           X q 7 q :                                               O             2 7 7 q                                             O   O   q & q q     X                   o     t : e t                                                                                                                                                                                                                                                                                                                                                                                                                                                                                                                                                                                                                                                                                                                                                                                                                                   .       O . o X                 X                                     .                     * 7 7 :                                               : 7 7 q                                                                                                       o     X X = ; 7 ; q q q * ; * , 3   X                                                                                                                           ",
"                                                                          X q 7 0 q       X q 9 7 : X                   .       O .           X   X X     X X   X X       O               .                     ; 7 q *                                                             y 7 7 u                                             O     X q 7 7 q X X   X X       X           X q * 7 :                                                                                                                                                                                                                                                                                                                                                                                                                                                                                                                                                                                                                                                                                                                                                                                                                                     O         X       X         X X         o                           .                   X : 7 9 q   O                 o                       X , q 7 , X                                                                                                               o         X           X                 O                                                                                                             ",
"                                                                    O .     * 9 9 * X       7 0 9 :     O         X                                                                         O                   q q q :                                                             4 7 7 q                                                     - 9 7 * X   X       X X X X X     X X * 7 7 ,                                                                                                                                                                                                                                                                                                                                                                                                                                                                                                                                                                                                                                                                                                                                                                                                                                       O X     X   X X     X X   X     X X         O     O                               O     : 9 e q     O                                         : q q ; X                                                                                                     . O                                           .                                                                                                                 ",
"                                                                    . X     - 7 9 q t 4 5 ; 7 6 7 :                     .                 .                 X .               X               .                 q 0 q e                                             O               q 7 7 q                                               O     q 9 0 e , , , 4 , : ; q ; q , , , , * 7 9 * t                                                                                                                                       .             O                                                                                                                                                                                                                                                                                                                                                                                                                                                                                                                                                                                                                                                                                   X   X 4 , t , , , ; t t q 4 , 4 4           O                                     O   q e 7 :     O                                         e r 7 q                                                                                                             .           O               .     O                                                                                                                       ",
"                                                                            - 7 7 q , , , t 7 7 7 :       O                                       X   . O . O   .         O                         O           ; q 7 :   X                                                         u 7 7 y                                                     ; 7 7 * , , , , ; q q 7 7 q q , , e 7 9 7 9 t                                                                                                                                           O                                                                                                                                                                                                                                                                                                                                                                                                                                                                                                                                                                                                                                                                                       O           4 ; q q q q , : q q q ; t 4 X                             o               O     q 7 9 : X                   .                     X   : q 7 q                                                                                                                   X                             .   O                                                                                                                 ",
"                                                                X     .   X ; q q q 2 t t q q q , ,     X   .                                       o                     O                                     q 7 q :   O                                                         t 7 7 q                         O       .       X         X t q q q ; 2 , q q q q q 7 q 7 7 e q 7 7 7 r * X                                                                                                                                                                                                                                                                                                                                                                                                                                                                                                                                                                                                                                                                                                                                                                                                                                     O     X q 7 9 7 q q e t : e 7 7 * ,         O   O                 .   O           O     : e 7 *                     .                         , q q q                                                                                                                                                                                                                                                                       ",
"                                                                      X   X 4 i 4 ; t ; ; t ; 4 4 5 X   O                                                                         O                             ; 7 q e                                             O               t 7 q q             . O       .                             , t ; ; ; t 2 4 : : q e : : : : q ; e * : : q @                                                                                                                                                                                                                                                                                                                                                                                                                                                                                                                                                                                                                                                                                                                                                                                                                                   O   .     ; 7 9 7 * e : , : 7 7 7 q :       .                               X             * 9 e :     O                                 X     X : 7 q q X                                                                                                                                                                                                                                                                     ",
"                                                                O           X   X X   X X X X X   X                                   .     O   .   .   O . O             O O                                 X ; 7 q *   X                                                         u 7 0 e                                                       X   X X   X X     X               X X                                                                                                                                                                                                                                                                                                                                                                                                                                                                                                                                                                                                                                                                                                                                                                                                                                             .     X q q * 7           X 7 9 q ;                               .               O     : 7 7 e X   O               o                         : q 7 ;     .                                                                                                                                                                                                                                                                 ",
"                                                                      O                                 X                       . X           .       . +   .                                                   q 7 q ,                                               . O           q 7 q t                                             O         X   X                   X         O       X                                                                                                                                                                                                                                                                                                                                                                                                                                                                                                                                                                                                                                                                                                                                                                                                                                               ; q q i X   X       q 0 q t X                                                 X : 7 7 q                                               : e 7 q X                                                                                                                                                                                                                                                                     ",
"                                                                              .                 o X             .           .               X     X           O     O     O                                     q 0 q e                                                             t 7 7 q                                           .     .                     O O   O O     O     O O   O                                                                                                                                                                                                                                                                                                                                                                                                                                                                                                                                                                                                                                                                                                                                                                                                                                               ; q - i X   O @ O   0 9 * ,                                                     e e r :                                             X : q 7 q                                                                                                                                                                                                                                                                       ",
"                                                                . O   O               .   X O               O                   X , ; : i 7 q q - = X           O                           .                   2 q 7 : X                                                           t 7 7 q X                                         O O . .           X     . .             O     .         X                                                                                                                                                                                                                                                                                                                                                                                                                                                                                                                                                                                                                                                                                                                                                                                                                                           X ; q q t             q 7 q :           O                   o       X       O     q 9 e * X   O               .                         : e 7 7                                                                                                                                                                                                                                                                       ",
"                                                                    O   . O X O     O       O   X       . O                       t q q t 0 q q q y X X X                                                       ; 9 q :                                                             i 0 7 q       . .   .   O                           O                                                                                                                                                                                                                                                                                                                                                                                                                                                                                                                                                                                                                                                                                                                                                                                                                                                                                                 X : e q * X       X X 7 0 q , X                                             O     : r 7 :                     .               X         ; q 7 e X                                                                                                                                                                                                                                                                     ",
"                                                                                        O       .         O           .         X q e 7 9 6 q 6 q ;     X                                                       ; q 7 :                                             O               q q 7 u     O O   .     .                             . O           O   O                                                                                                                                                                                                                                                                                                                                                                                                                                                                                                                                                                                                                                                                                                                                                                                                                                                                               : q 7 7 : : t t * q 7 q q , X                             .                     * 7 7 e     O                                       X , q 7 q                                                                                                                                                                                                                                                                       ",
"                                                                                        O               O                         , ; : t 7 e q - t     X   O .                             . O                 q 7 q :                                                             q 7 9 q     .   .                                                                                 X                                                                                                                                                                                                                                                                                                                                                                                                                                                                                                                                                                                                                                                                                                                                                                                                                                             O       : q 7 7 e : : : q 7 * q ; 4                               .               O     : 7 7 : X   O               .                         : e * ,   X                                                                                                                                                                                                                                                                   ",
"                                                                                                          O O       o       X   X t i t & $ * 7 e , X                     X   X                                 ; 7 7 ; X                                           O               i 7 q t     O             X   X X   X X   X X X X       . X                                                                                                                                                                                                                                                                                                                                                                                                                                                                                                                                                                                                                                                                                                                                                                                                                                                                                     . O     t t 7 7 e q , e 7 7 q y , 4                                                 X   : 7 7 ; X               X                             : q 7 q X                                                                                                                                                                                                                                                                     ",
"                                                                                                        O           X   X       X t t q q * 7 t * ; X               X           X   X     X     .               q 7 q e   O                                                         t 7 0 q           X   * t ; * q * q q q ; q ; = X X           X                                     O                                                                                                                                                                                                                                                                                                                                                                                                                                                                                                                                                                                                                                                                                                                                                                                                                                         O .   X   ; - ; q , i i t q ; q t > 4 X o                                               X ; 7 e *     O               .                       X : 7 7 ;                                                                                                                                                                                                                                                                       ",
"                                                                  X                                             o   5 4 , , y , * q * * q 9 7 * q y - q , ; , 3 p 4 , t , t t 4 , = X     O   .                 ; 7 q :                                               . O           t 0 q e         X   X q t q q q 7 - 7 q q q t 2 X                                       O   O                                                                                                                                                                                                                                                                                                                                                                                                                                                                                                                                                                                                                                                                                                                                                                                                                                                     O .   X X   X           X     o X                               o             O       : q 7 :     O     X                                   : q q q X                                                                                                                                                                                                                                                                     ",
"                                                                                                          O         t t , ; q q q q 7 0 7 7 9 0 7 7 0 e y t q t q q ; ; i t t , i ,                             ; 7 q :                                                             t 0 q q       X   X X : ; * 7 7 7 0 q q 7 7 ; =           O                   . .     . .     . .     . .                                                                                                                                                                                                                                                                                                                                                                                                                                                                                                                                                                                                                                                                                                                                                                                                                                       . + O       X X       O   X       X   O . O       X       O       .   X           O     : 7 r :                                             X ; q q q                                                                                                                                                                                                                                                                       ",
"                                                                          O       .                   O         X   i ; ; 7 q q 0 7 7 0 7 q q q 7 7 q q q * q q q q q q q ; ; * , , X         O     X         X q 0 q e                                                             t 7 7 q               y t q q * 7 7 w q u q i i X   X                                                                                                                                                                                                                                                                                                                                                                                                                                                                                                                                                                                                                                                                                                                                                                                                                                                                                             O   .             O       X                                                   O       : e 7 :     O               .                         t q 7 q X                                                                                                                                                                                                                                                                     ",
"                                                                  O O     O   . .                               X X e * t y * q t y t t q y ; q i q i q t ; t q q ; q 7 7 q q y ; t o   X o                     ; q q :   X                                                         t q q e       .       > , = e X X   X X = t ; ,   X     O O                                                                                                                                                                                                                                                                                                                                                                                                                                                                                                                                                                                                                                                                                                                                                                                                                                                                                       O O     o     .   . .               O O                         .                     : 9 r *                     .                         : 7 7 q                                                                                                                                                                                                                                                                       ",
"                                                                            O                         X             , * q * X X                     X     X X   X X   X   $ & t q t                             q 7 q ,                                             O               t 7 0 q       .   o   4 t i , X   X X   , t ; i     X         O                                                                                                                                                                                                                                                                                                                                                                                                                                                                                                                                                                                                                                                                                                                                                                                                                                                                                   O   .             .   o             . X                                             X * q q q X                                 X           : e 7 e                                                                                                                                                                                                                                                                       ",
"                                                                                                                  X e q 7 q X                         X             X     X q 7 q q                             ; q q :                                                             t 7 7 e               i ; q t     X     t q q , X                                                                                                                                                                                                                                                                                                                                                                                                                                                                                                                                                                                                                                                                                                                                                                                                                                                                         O                                                                                                       O   X y * ; ,   X     X                                 X   t * e ;                         O           .               O O         X             X             O                                                                                                                                                                         ",
"                                                                                                                    e 0 0 q                                                 q 7 9 ; X                           q 7 7 q                                                             i 7 0 t             X t 7 q t         X q 0 q ;     O               .                                                                                                                                                                                                                                                                                                                                                                                                                                                                                                                                                                                                                                                                                                                                                                                                                                           .               O                                                                           O               O O   X     e ; - ; X   X               X         X       X X   X e * e ,   X                   O                             . X   X   X                 X X X #                                                                                                                                                                               ",
"                                                                                                                    u 0 0 q                                               X * 7 q *           O                 ; 7 q e                                                 O           q 7 7 t               , 7 q t           q q 7 :                                                                                                                                                                                                                                                                                                                                                                                                                                                                                                                                                                                                                                                                                                                                                                                                                                                                                                                                                               .               O O     X i q q w & * 7 7 t r q q q q e q q q t q t i 2 2 t u * q q * y                     .                             O       2 ; t ; i 4 t : e : : * , , >                                                                                                                                                                               ",
"                                                                                                                    q q 9 q                                 O               e q q * X           .               ; 7 7 :   X                                         O .             2 7 0 t     .       X t - q , X         q q e 7 X   O               .                                                                                                                                                                                                                                                                                                                                                                                                                                                                                                                                                                                                                                                                                                                                                                                                                                                                                                                                         .                 O       : * 0 9 6 9 9 7 e 0 0 0 q 0 q q 7 q 7 7 ; q q u q 0 7 q 7 * i   X X                   .                         O       ; 7 q 7 i % e e e 7 e e , , ,       X                                                                                                                                                                       ",
"                                                                                                      .             , 7 q q                   O     O . O   O   X O       X ; 7 q q                             ; 7 q :                                                             t 7 7 q               , q q q           u 7 7 *                     .                                                                                                                                                                                                                                                                                                                                                                                                                                                                                                                                                                                                                                                                                                                                                                                                                                                                                                                                         X               O       X , : 7 q q r e * : * q 7 q q q q q q 7 0 0 0 q q q q 9 0 q q i           O O   O               O                     X X q 0 7 7 y t : e e 9 7 7 * * t     o                                                                                                                                                                         ",
"                                                                                                                    , q q q                     O         . .       .       , q 7 *                 X         X q 7 q q                                                             u 7 7 u             X t q q , X         q 7 r :     O                                                                                                                                                                                                                                                                                                                                                                                                                                                                                                                                                                                                                                                                                                                                                                                                                                                                                         O O                                                                               O     X , t ; ; : e , , , t y q 2 u u q q q 0 0 q q q q q q q q q t 4   X   O   O   O X           O O       O           O       q 7 0 7 ; q t e : 7 * 9 r e t     X     . .                                                                                                                                                                 ",
"                                                                                                                    y q q q         X                                       : r q q X                           q q q : X                                           O               y 7 7 u     X         t 7 q ,           q q 7 :     O           X   o                                                                                                                                                                                                                                                                                                                                                                                                                                                                                                                                                                                                                                                                                                                                                                                                                                                                   O   O                                                                               O   . O     X                       X   X   X     X   X   X       X           O   X O X             X     O   O .                 X q 7 7 & X X o     X X - * * q X   o   .                                                                                                                                                                     ",
"                                                                                                                    , q 0 q       O                                         ; 7 7 q                             ; 0 q :   O                                                         t 7 7 q     .         , 7 q y         X t 7 9 q X                                                                                                                                                                                                                                                                                                                                                                                                                                                                                                                                                                                                                                                                                                                                                                                                                                                                                 O     O       O       .                                                                           .                   .     X   X   X     X   X         X     X       .                         O O                     O     q q 7 q X     X     X 2 q q t           . .                                                                                                                                                                 ",
"                                                                                                                    2 q 0 q       O                       X   X           X : q q q           X                 q q 7 q   X                                                         u 7 7 t               y q q :           q 7 e : X               X   .                                                                                                                                                                                                                                                                                                                                                                                                                                                                                                                                                                                                                                                                                                                                                                                                                                         O X                       .     X                                                                                                               4 ; ; ; t : , , e , : 4 , 4 : y t ; : 4 : 4 , * q t q u q * e : , X                         O     i q : ,     O O     X i 2 2 2 X         .                                                                                                                                                                   ",
"                                                                                                                    ; 7 9 q   o O       o           X X X   X   X         X e q q ;                             q q q :   O                                             O           q 7 7 y               t - q t         X u 0 7 *     O                                                                                                                                                                                                                                                                                                                                                                                                                                                                                                                                                                                                                                                                                                                                                                                                                                                         .                                     X                                                                           .                 X       X X 4 q q * r * : q q q q e : q q q 7 7 7 q q q e 7 7 * * 7 q * r : , X       . .                     , q , ,   X   O O     i 2 2 4                                                                                                                                                                               ",
"                                                                                                                    ; 7 7 * X               X = 2 , ; ; q q q q , 4   X X   y 7 7 q X                           ; 9 7 *                                                             i 7 7 q               y 7 q , X         2 7 e :     O               .                                                                                                                                                                                                                                                                                                                                                                                                                                                                                                                                                                                                                                                                                                                                                                                                                                       .                                                                                                                                     O           - * * q q * y q 7 q q e q 7 9 9 0 6 9 6 9 9 7 7 7 q q q 7 7 * e :                   X       O     4 , , ,               y , , t   X                                                                                                                                                                           ",
"                                                                                                    O   O       o   : q 9 6 X       X X X   X i i u q 7 q q 7 q q ; X X     7 * 7 q                           X ; q q e                                             O .             2 7 7 q               t * q t X         u 7 9 :                                                                                                                                                                                                                                                                                                                                                                                                                                                                                                                                                                                                                                                                                                                                                                                                                                                                       X X     X   X X       X   X       X                                                               X                           O     X X t e r t * ; q ; q q : : * ; ; * * 9 6 7 7 7 7 7 7 q u u 7 9 7 e : X       .                       , t t : X   X     X   * * * t X         O                                                                                                                                                                   ",
"                                                                                                                    q 9 6 7 * > 4 : ; , t t - t * q q 7 7 7 7 7 e * * * q q q w q *                             ; q q :                                                             y 7 7 u               i 7 q ,         X q 7 e * X                   .                                                                                                                                                                                                                                                                                                                                                                                                                                                                                                                                                                                                                                                                                                                                                                                                                                         X 4 4 4 , ; ; - q , : t , , ; t p t , X             O                                             O                       O O   O   O O   X     ; : * = X X         X       X   X   X     X     X       X * e e :     O O                         ; * q * , , , : * : * r r q ;                                                                                                                                                                               ",
"                                                                                                    O               q 6 6 9 e i , q q * y q q * 7 q 7 7 7 7 7 7 q 7 r q t q & 9 9 ;       .                     : 0 q e                                                             4 7 7 q       .       q q q , X         u 7 q ;     O                                                                                                                                                                                                                                                                                                                                                                                                                                                                                                                                                                                                                                                                                                                                                                                                                                                         X 4 4 , - t q q q q q q q q t * : , ,       O                                                 .               .                       O       X t t 4 t                 .         O               X O     e e e :     O O                 X     X * 7 7 7 e t e e q 0 7 7 q ; t X X                                                                                                                                                                           ",
"                                                                                                X                   q 0 9 6 q ; 7 0 7 6 7 6 7 7 7 7 7 7 7 7 7 7 7 6 7 * * q 9 9 9 ;       .                   X q 0 q :                                             O               q 7 7 q             X i - q ; X         y 7 9 :   O                                                                                                                                                                                                                                                                                                                                                                                                                                                                                                                                                                                                                                                                                                                                                                                                                                                           X 4 - q 7 q 0 7 0 0 0 7 7 7 q 7 e e t X       O   O                                                 O                                           ; : t , X   X                 O             .     O   X   , : e : X   O       O O               X q 9 9 6 7 * q 7 7 q 6 7 7 q 4                                                                                                                                                                               ",
"                                                                                                                    : q 0 7 i t q q 7 7 0 7 7 q 7 q 7 q 7 * q 7 7 y * q t - e * q t                             ; q 7 :   X                                                         u 7 7 y               y q q q       X   q 7 q : X                   .                                                                                                                                                                                                                                                                                                                                                                                                                                                                                                                                                                                                                                                                                                                                                                                                                                           i ; 7 q t q q e q q 7 q q q q q ; t X           O                                           O         O         .                           X , q q t                         O O           .     O X   t : e :   X                           X q q q * e * q 7 0 q q - q ; 4                                                                                                                                                                               ",
"                                                                                                                                  X   X X   X i q e q q * q q 7 t ,   X         X                               q 7 q :                                                 O           t 7 0 e               t * q 7 7 7 q q q 0 q * t o                   .     O                                                                                                                                                                                     O   .   .                                                                                                                                                                                                                                                                                                                                                                                                                                               O       O             .           O                                                                                                                                                   X e q q q             X       q 0 * ;   X       O                                                                                               , 7 t ,                                                   ; q 7 :                                             X                     .                           O   .                                                                                                                                         ",
"                                                                                                                                        X     = 4 4 t t : ; : : , 3 X   X               O     .               X ; 7 q e                                             .               i 7 q u       X     X , q q 7 7 7 9 7 9 0 q = ,       o     .                                                                                                                                                                                                   .   .                       .         X                                                                                                                                                                                                                                                                                                                                                                                           o   O O O .                     X     o           O                                                                                                                                                           e 0 q q                   X q 7 q e             O                                                                                 X           : r 7 e X                                                 t 7 7 q                                                     X X         .       O O         .   O       O                                                                                                                                           ",
"                                                                                                                                            . X   X   X X X   X X X               .   O                         ; 0 q * X                                                           q 7 7 q               t ; , q q q q q q q t i i X                                                                                                                                                                                                   X       O   .           O                   .                                                                                                                                                                                                                                                                                                                                                                                                                 X           O                                         O                                                                                                                                       t 9 q t             . O     q 7 7 t             O                                                                                           X : 7 7 q     X                                             t 0 0 q         .                                                             O           O O O   . O   O   . O o                                                                                                                                   ",
"                                                                                                                                                                  X     X   .                                   q q q :   O                                                         2 7 7 t     X .   o   , , t : ; , ; : * , t , = X                                                                                                                                                                                           .                           X     O   O O .       O         .                                                                                                                                                                                                                                                                                                                                                                           O             .     @ X                                         O                                                                                                                                                           q 0 q y                     q 7 q e                                                                                                           , q 7 q                                                   t q 7 q                                                     O                   @ X   .               .         O                                                                                                                                   ",
"                                                                                                                                  .     .                         o                                             ; 7 q q   X                                           O             2 7 7 q   X   .       o         X       X     X   X                                                                                                                                                                                                                                           .     . .                                                                                                                                                                                                                                                                                                                                                                                       .                                                                         O                                                                                                                                       q 0 q t             .     X q 7 q ; X         O                                                                                     X         ; q q ;                                       .           e 7 7 q           O                                                 .     .     X                             X O O                                                                                                                                 ",
"                                                                                                                                                  O     X   O                                                   q q 7 :   O                                                         q 7 7 q     O O                                                                                                                                                                                                                               O           X   .       X X X   X       X X     X                                                                                                                                                                                                                                                                                                                                                                               O   O O                   X           X     X     X           o     o     O                                                                                                                                                       q q 7 t                     q 7 q e             O                                                                                           X : q 7 q X                                                 ; 0 7 q                                                   O                     X   X         X X   X   X                                                                                                                                           ",
"                                                                                                                                            .       O     O O   X   .                                           ; 9 7 :                                               O             y 7 7 u       O   O                         X                                                                                                                                                                                                                       X = : : q q * : t e q q q , X   @                                                                                                                                                                                                                                                                                                                                                                                             o   X 4 4 q e q q ; q ; q ; q e q q q q ; %     X                                                                                                                                                             e 7 q t             O       q 7 q q X           O         O                                                                                   : q 7 ;                                                   ; q q q                                               O                   o     4 ; , q : ; t q q q w 7 q q =                                                                                                                                       ",
"                                                                                                                                    .           O       O   O                                                   ; q q :                                                             i 7 q q           . X                   O             o                                                                                                                                                                                                       o       , t * 7 7 7 7 7 7 q 7 7 q     O   O X                                                                                                                                                                                                                                                                                                                                                                 .                 .       X 4 ; q 0 0 q 7 7 7 7 7 7 7 7 0 0 q 7 4         O O                 O                                                                                                                                     q 0 q t             O     X 7 7 q e                                                                                                           : e 7 , X                                     X           q q 7 q           X                                 .               .         X 4 4 q q q q q q q 7 0 6 w q q X                                                                                                                                     ",
"                                                                                                                                                                                                                ; q q e                                                             ; 7 7 t                                   O O               o   .                                                                                                                                                                                                   X t q 7 9 9 * q * * 7 9 q q     O O                                                                                                                                                                                                                                                                                                                                                                     .                     X X   ; 4 7 q 6 q 7 7 7 * q 7 7 9 7 6 9 7 t   X     O                                                                                                                                                         t 9 q t             O       ; 7 7 2             X                                                                                             e q q q     X                                 O           e q q q                                                             O           , q 7 9 7 q q q q 7 7 9 8 7 q                                                                                                                                       ",
"                                                                                                                                                            .   O     O                                         q 7 q q                                               O             t 0 7 q                           O   . .           O   . . .                                                                                                                                                                               .                         i q 7 7 & * p e * 9 6 7 7 X                                                                                                                                                                                                                                                                                                                                                                                             O       X ; q q w * q * t t t t e e 7 6 q 0 q t                                                                                                                                                                   e 0 q q                     q 7 q q   X         O                                                                                             : q 7 q X                                                 q 0 q q                                             O                         X ; t q q * e ; e q y & 9 0 q ;                                                                                                                                       ",
"                                                                                                                                    X                                 O                         .               ; 7 q e                                                             i 7 7 u X                                 O       O       X                                                                                                                                                                                                 X       X q q 7 * X X       * 0 q ; X   .                                                                                                                                                                                                                                                                                                                                                                       O                           ; t ; % X X             X   X ; , , 4             O                                                                                                                                                     t 0 q t             .       q 7 q ;                                                                                         O               X : 7 q q                                                   e q 0 q           O                                   O                       X q q * % X X     X   $ q q q 4     X                                                                                                                                 ",
"                                                                                                                                  O                                                                             ; 7 7 ;   X                                             .           u 7 7 q                   X                 .         .             .                                                                                                                                                                                                 q q q i         X q q q ;     . o                                                                                                                                                                                                                                                                                                                                                                                       O       X : e i 3 X                     , t , t                           O                                                                                                                                       e 0 q t X           O       q 7 q :               O                                                                                           : q 7 q                                                   t q 7 q                                                           . O       X   ; e e : X             ; q q 4     .                                                                                                                                 ",
"                                                                                                                                  O                                                         .                   ; 7 q e                                               O             y 7 q q                                   .                                                                                                                                                                                                                           e 7 q ;     O     q 7 q , X   .                                                                                                                                                                                                                                                                                                                                                                       O               O         X q q : , X       X             q * * t   X                                                                                                                                                               q 7 q e                   X q 7 q ;                                                                                                           t q 7 q X                                                 q 0 0 *                                                               O       X * q ; ;               , 2 ; 2     .                                                                                                                                 ",
"                                                                                                                                                                O     .                 O   O   X             X q 7 q ;                                                             4 7 7 q                                     X         X X   X     X     X                                                                                                                                                                               O   O       X q * q i     O     y q q ;   .   .                                                                                                                                                                                                                                                                                                                                                                                       O O       q e , t X X         O     X X t t q ,             O                                                                                                                                                     ; 9 q t             O       7 7 q q           O O                                                                                             : 7 q q                                                   : q q q           .                                                   O O       : q e i     .       X 4 q ; 4                                                                                                                                       ",
"                                                                                                                                                        O                                     .                 q 7 q :   X                                                         q 7 7 q                                   X     X             X                                                                                                                                                                                                   X   t 7 q q     . X   7 7 9 *       O                                                                                                                                                                                                                                                                                                                                                                                       O     X X , e * ,         . O   X   X X ; q * t   X                                                                                                                                                           o   q q q 4             .       ; 7 7 ; X                     O                                                                 X               X : 7 q ;                                       X           q q 7 q                                                             O         X ; q 7 q X     .   X   t q - t X                                                                                                                                     ",
"                                                                                                                                            O     O                                       O                     ; q q t                                             O               u q 7 e     .       O               . X > , t i t i t i i 4 , 4 4 i t t t i   X                                                                                                                                                                           O           t 7 q ; X         7 0 0 *     . X                                                                                                                                                                                                                                                                                                                                                                             X           O       ; e : t X       O   O         : q q t X                                                                                                                                                                 e 0 7 :                   X q 7 q 4             O                                                                           O             X   : q q : X                                                 q q q q                                                                 O     X ; 7 7 i X     .       q 7 7 t   X                                                                                                                                   ",
"                                                                                                                                                                                                                ; q q q       X             O O                 + O                 ; q * ,           .                     : e q * 7 7 q 7 q - q - q q 7 7 q q   X   X   X     X X X   X o                                                                                                                                                           X X q q y 4     X   X , , : p     o                                                                                                                                                                                                                                                                                 O       .   . .                         X                                     O                                   e 9 e * X           O         t 0 7 2   X                       X                                                                               O   O         X   O       O   O O                       e e 7 q                     q q ; ,                                                                           X               O         O   X 2 q 7 :     X                                         X   2 q q ,     .     .                                                             q r 7 *             X q q 7 :                                                                                                                                       ",
"                                                                                                                                                                                                        .       , q q ;   X     O             O O       X             X X         X ; y t 4                           O   X : 7 9 * 7 7 7 * 7 7 q q 7 0 7 7 7 6 q ; u q 2 ; q 2 i u , ; e : = X                                                                                                                                           .       @       q 7 * 4 X X     X * : = ,         .                                                                                                                                                                                                                                                                                                   O                                                     O   O O         .               X   X q 7 q ;                 O     t 0 q 2           .                                                                                             O                                                     . . : : 7 q X X     . .     X X 7 q q 4     . . . .       O                                     O                               O     O       X   = e 7 :     O                                           X 2 q q ;       . .                                         .               X   X q 7 e ; X   o   .     q 7 q i                                                                                                                                       ",
"                                                                                                                                                                                                        o     X t q 7 7 X X         X X   X             X   X       X   X X       X * 7 q :                                 q r 7 7 9 7 q 7 q 7 7 7 7 6 0 0 0 7 q e t , e e t t ; : ; * r t i                                                                                                                                                 O       X   t q q q & 7 q y * e q , y X         O                                                                                                                                                                                                                                                                         O   X                 O   O .     X                     O                         O           .               O     : e 7 ;               O       t 7 q t X X         O             O                                                                               O                                                       , : e : X   O O .           7 0 7 q X                 X                                   O   O .     X                                     X ; q 7 e       O                       .                 X - q 7 q                                                   .               O     * e q q               q 7 q q X                                                                                                                                     ",
"                                                                                                                                                                                                                q 0 q w 7 - t 4 y 4 : : e q y 2 i u y t t e i t 4 , e e ; : 4 , ; 7 7 7 q y           .               O O   * 7 0 7 - 7 r 7 7 ; 7 9 7 * 9 7 6 7 ; : : : : ; : ; , t e e 7 e ;                                                                                                                                                     O     X ; ; * * 7 7 9 9 9 7 7 * q   X     O                                                                                                                                                                                                                                                                                       O   O   O     . O                     O .       O                                                       * 7 7 q X               O   X e 7 q ;                                                                                                                         .                                         , : e * X X           X   X 0 0 0 q X   X                     . O     O .   O   .   O     .   . O                     O .                 X X ; e e e     O     O   .   O   O   O   O   O               * 9 0 7 X X                                                                     : 7 7 *     . .       ; r 7 2                                                                                                                                       ",
"                                                                                                                                                                                                      .         - ; 7 7 7 q , i ; q 7 e 7 * ; q ; ; ; q ; - ; ; : * q 7 q q * ; e e 7 6 q , X             X                 : 7 q i = - e , , : e t : * y q q 7 t e t t , y : 4 , : * e r e q X                                                                                                                                                 O         , i e q r 7 * * 9 q y e ; X     X   O                                                                                                                                                                                                                                                                       X           O     O   O O                                                                                       O     : 7 q ;             O         , 0 q ,                                                                                                                     . .   .                             .     X X , 7 7 7 - - 2 4 ; : * * * 7 0 9 q 0 X                                                                                               .         ; e e t     X                                             q 9 9 7                                                                   O     : q q q X             q 7 q i                                                                                                                                       ",
"                                                                                                                                                                                                      O         i y 7 0 7 q ; ; e e e e 7 e q t u q q q e i t 4 : q q 7 q e e t q ; 7 7 q , X         .               O     : q - ; X X       X       X * * 7 q   X   X       X   X   * e : , X                                                                                                                                                         X = , , ; e * e 7 q * = t = X     X O                                                                                                                                                                                                                                                                                                                                                                         .               O     : 7 0 q X                     , 0 q t                           O                                                                                     .       . .                               .       q 7 9 6 7 q u q q q 7 7 0 7 6 0 7 q   X                                                                                           . .         , t ; ,                                           .     X q 7 7 q                                                   .               O     : 7 9 q       . .     q 7 7 q X                                                                                                                                     ",
"                                                                                                                                                                                                              X e ; - 7 ; q 4 i , , : t : t t , , , t , t t 4 4 q q q q ; ; t u i q u t 2 2 X                         O     : q t 4   X               X t : q t X         X X     X   e e e ;                                                                                                                                                 . O   O     X       X X       X X   X           O                                                                                                                                                                                                                                                                   . .                 O o                                                                                 X   X           X = e 7 q X             O     X t 0 q u             .                                                                                             O       O     O O   O O O     O         . . .         X q q q 6 7 0 q q q 7 7 9 0 7 7 : ; 4         O   O     O                                                                                 O   X 4 t t 4                                       O O O       : q q ;                                                       X               X = r q *             X ; q q 2                                                                                                                                       ",
"                                                                                                                                                                                                  O O               X   X     X               X X     X         X   X   X     X     X X   X           .   X               X : r : 4         o   O       , * q *                     X t : : i                                                                                                                                                     O X                 X               o   .   .                                                                                                                                                                                                                                                                     .           .                                                         O                           .               O   X ; 9 7 ;                       t 7 0 t   X         X     X                                                                                     O               O O O O O   O         X                   , * q 7 u 2 u ; e e q q q u , : , 5       O   O O   O   O .                                                                         O         ; 2 ; 2 X X                                   O     O     : e e e       o                                           .       X       O   X ; 7 q *     . .       q q 7 4 X                                                                                                                                     ",
"                                                                                                                                                                                                          O                                   X   X X   X   X   X   X     X                                   X       O X   ; 7 q t   X   X       X   X e 7 7 q     O             X   , ; i u                                                                                                                                                   O               O O   O                   . .                                                                                                                                                                                                                                                                   . O                             X                                     X                                               O     : 7 7 q                     X t 7 q , X           O                                                                                 .         X               X   O   @       X   X                               X X     X   X X           o                                                       X                                         O X     i * q ,   X                                     X         e 7 e t   . .                                                                   : r q q         .     q q 7 q                                                                                                                                       ",
"                                                                                                                                                                                                                                X   O   X   X   X         X   X                                       o                     : 7 9 q X         X       X ; q 7 r X   O     O     X     t e q 2 X                                                                                                                                                     O   O         O O     O         . .       .                                                                                                                                                                                                                                                                     @     X                     X                       X         X         O O                       .                     : e 7 q X             O       e 7 q ,   X                         X                                                                     O         X   X X   X X       .   X   X           O O         .                                         X       X X X                                                                       X X   O O O     X q : 7 q X X                                     X X X   X q 7 * :     .     O                                       .               O     : 7 7 *     .       X ; 7 q 4 X                                                                                                                                     ",
"                                                                                                                                                                                                X                       .   .     O   O @   = , ; ; t 4 , t q e , 2 X . O               .   .             X           O     * 7 7 7 7 q q t ; = : q * * q 0 6 7                       t : e q                                                                                                                                                   O   O             X                                                                                                                                                                                                                                                                                               X 3 2 q * y q q t 4 i y e e e , e , q t q y , i 4 ; e q q * : , ,   X O             .               .               O   X * 7 7 ;               O O     t 0 q ,                                                                                               .   .         = t e * e * e q t e : : e 7 7 * : X           O       . . .                 O               X 3 3 ; * * * q 7 e e t t t ; 4 q y t q t t t t e t t t e t , t ; y t i t e e q q q ; ; =   X   O   X   t 7 7 e 7 e * ; t t q y t t 2 t i 4 q y t t q q 0 ; e * & t 9 q y           O                                       .             O       : 7 7 q X   .         * q 7 u                                                                                                                                       ",
"                                                                                                                                                                                                                      o     O       @     X , t t q q - % q q e i ,       .         .   .             .                     : 7 7 6 0 7 q q e * t q r q 0 7 0 7                       : e e q                                                                                                                                   O                                                                                                                                                                                                                                                                                                                                 X 2 q q * 9 - q q ; : q q 7 7 ; q q q q q q q 7 7 7 7 7 0 q 7 , , X     O O                                               : e 0 q X                     , 0 q i             O               O                                                                 .   O       X , t e 7 e 7 7 7 7 : : : 7 7 9 7 : X       O         .                     O   O   X           4 t q 7 9 9 9 * 7 * q 7 q 7 q 7 q 7 q 7 q q q 0 q q q q q 7 q q q q q 7 7 7 0 7 9 7 e , X           X t 7 7 e e e t q 7 q 7 q 7 7 7 7 7 7 7 q 7 q 0 9 9 7 q * * 9 6 6 7 X       O X                                                         X   : 7 7 q         .     * q 7 t     X                                                                                                                                 ",
"                                                                                                                                                                                                  O               O O .               O   X ; * 7 q y q i q 7 q 7 =       .   X X       .             .                   X : 9 q - 7 q * q q q * * * q 7 7 q q                     X : e e * X                                                                                                                                                                                           X                                                                                                                                                                                                                                                                     X X e * 9 6 9 r q q : : e e e 7 7 q 0 7 7 7 7 7 7 0 9 9 7 6 6 7 : ,       O O                                               q 9 q q X             O O     t 0 q q X       .                                                                                       .         X t : : 7 7 e 7 e e e : e r 9 7 9 q                   X                   X       O   X       X ; ; 0 7 6 7 9 q q q 7 7 7 7 7 7 7 0 9 0 7 0 q 0 7 0 7 7 q 0 7 7 7 7 7 9 0 0 9 6 9 7 7 *             X : : y : e ; % 7 0 7 9 q 0 0 9 7 7 7 0 0 7 7 q 6 7 q e q q y q q ; X O                                                               O     q e e q       o .   X q 7 7 ,                                                                                                                                       ",
"                                                                                                                                                                                                                                      X X   t e * q - q q - q 7 t t X   .             o O                             O O   : 7 7 7 - q q t ; * t t q i ; , - 2                   X   : e e ;                                                                                                                                           X           O   .                                                                                                                                                                                                                                                                                                           : * 7 7 * * q , , t : , e r e t e t : t ; q q q * q * 6 y q : i X                       O         .   X           O   X : 7 q * X                     t 7 0 2                                                                                                       X     , : t t = e : t : > , : * 7 7 * q X                                                       X   i t q y & 7 q ; , i u q q y q q q q t t q e q t e t t t e e e , q q q q q 7 * & w 7 q e X   O       X : 4 i i , i : t t t t q t e t q q u q q t e q q e e t , 4 - = q = X O                                               .   X               X ; 9 q q               q q 7 t                                                                                                                                       ",
"                                                                                                                                                                                                  O                           X   .   O     : * e : X X X X q e - ;   X                 O             o                   X ; q e , X     X   X       X   X   X   O   O         X     t : e ; X                                                                                                                                   O                                   O   O                                                                                                                                                                                                                                                                                       X 4 , e * X X X                                     X   X , : * t   X X O O         .       O                       O     : e 9 ;               O       t 7 q , X                           O                                                                           X   4 : 3 = X X X       X X X * 0 q u       O .           O   O                       O     X     t ; ; q X X X                                                             X   X , ; * t   X O O       X X     X                                                   X   X     .                                                             O     * q q q     .   .     q q q i                                                                                                                                       ",
"                                                                                                                                                                                                                                    .       p : 7 *   X     * 7 7 i X         X       O O X                           O     ; e : i   X     O     X                     O             , q q 2                                                                                                                                                                   O             X                                                                                                                                                                                                                                                                     X               , , t e         X O                     .     o       X , , : y     O         .   .               .                     * 7 7 *                     X t 7 q ;   X               X                                                                                       X 4 2 i 4 X     X     X     u 7 q q       .                 O                 . .   .           i ; q q X         O                                       .   .     o           4 : : t   O O O O           X                                               O     X       O     .                                         .                     : e 7 * X           X q 7 7 ;                                                                                                                                       ",
"                                                                                O                                                                                                                                                     .     q 7 7 e X       q 0 9 *                   X                               O     , e , ,         O             O   O     O     O       X   , t q q X                                                                                                                                                                                                       X                                                                                                                                         .           O                                             O           O     $ X   X X           X     X   X     X   q r * e                                   .           X e e e * X                   .             .                   X : 7 q ;                       4 q q , X                         X                                                                               X ; q * t                   q 7 q q X                                               .           ; q q q           O                                                             e e e * X   O O                                                                                                   O   .   X     X .           .               X t : 7 * $     X X   X 7 r * t X X                                                                                                                                   ",
"                                                                    .     .   O                                                         .   O                                                                                       O     X q 0 0 q       X e 7 7 :     O                               O                   , , e ; X   X O O O X           O         O O   O       X , , q q                                                                                                                                                                                         X         X         X                 O                                                                                                                 . O   O     O                                           .                 .   % * e * i , i 4 4 , , q u q ; ; t 4 p ; r 7 7 q   X                                   .         q q 7 e                 X                                 O     : 9 q ; X                     2 7 q 4           .                                                                                         .       q 7 * ,               X   , q 7 q                                                           X e 0 q q                                                   .               X   X ; 9 7 :                 X   .                                                                           .       O   . .           .                         X   t : e 7 * ; q q q q * t e : 4                                                                                                                                       ",
"                                                                                                              O                         O                       .                                                                     .     q 0 9 e         t 0 9 :                     o                               X   , : q ; X X                                             o , , t : X                                                                                                                                                                             o           X   X     X                                                                                                                                               X                                                                   O     e y 7 7 q * q * e q 7 e q 0 7 q q q = * 7 9 7 t X               .                   .         X ; 9 7 :       O             .                             O     q e 0 ; X   .                 i 0 7 t X           O             O                                                                                 q q 7 y                   ; 7 7 q                                                             t q 0 q         .                                         .               O     : e r :                                                                                             O       X               X     . O             .       X   X 4 : 7 * : t i 4 ; t q 7 * : t                                                                                                                                       ",
"                                                                                    .               X                                                       o                                                                       O       q 7 q q         q q q e X   O                         X     O                 X , e e ;         O                                         , , e ,                                                                                                                                                                       o     X = = 4 i t : , t , i : , i 4 , X   X                                                                                                                                                                                       .     X       X       * 7 7 9 7 7 t q e e * 7 7 7 7 7 * q t e 7 6 9 q                         O O O           O       ; q r :     O                             o                 O   q 7 q q                       q 7 7 ;   X                                                                                           X         X X q q q t     O   X     O   t 7 7 q                                                             ; q 7 q                                                                         * 7 7 :     O                                                                                                     O   .           .                             4 4 : e , , 2 ; , , : : : t t                                                                                                                                       ",
"                                                                            O               O                                                 O                                                                                       O     * 7 0 q         y q e 7                 O   .               O                 X , e q ;   X               X                       . X     t , t : X                                                                                                                                                                           X 4 t ; t q ; : ; : * ; q q i ,                                                                                                                   O                                                                         .               O X   : * 9 q 7 7 : * * q e e y q e q y 4 ; q 7 7 7 * X                           O           O   X   ; q q : X                   o                 X                 : 9 9 *               X       y 7 7 t   X                                                                                                 .   X   u q 7 :                   ; 7 9 ; X                                                           e 7 7 q           O                                                       O     : 7 7 : X                   o                                                                         O     X     X   O 4 p p 2                             X X > = , y , 4 i 4 4 t ; e t t ,     o                                                                                                                                 ",
"                                                                    O     O         O O   O O                                     X                                                                                                 .       q 7 7 t         e q 7 :     O                                         .         ; e e q X       O           X                             t , 4 ;                                                                                                                                                                   . o       X t ; * 7 q q q q q q q q * - i X                                                                                                                                                                                                               X : q * * X       X         X   X     X X & 9 9 q X           O             O                   X q q 7 ; X                                 .               O     : e q * X     O               e 7 7 t                           O                                                                                 q q * ,   O X         O   , q 7 ;                                                 X           , 0 q q                                                   .               O     : 7 7 ; X                                                                                           O       X           2 ; q u                       O O       X X               X     X                                                                                                                                           ",
"                                                                  O   O O             O                                           X                           .                                                                     X O   X q 0 q e         t q q 7 X           X       .             O                   X , e , , X                                               o , 4 , 4                                                                                                                                                                   .       X   t * y q 7 7 7 q q q 7 9 q 7 t           O .                                                                                                 O   X                                                                             O           O     * q t t                 X             X 7 9 * q               O   .     .           .           q q 7 :       O                                           O     * 7 9 q X       O             t 7 7 q   X         .                                                                                               q q 7 t                 X e 7 7 q           O                                                 ; q 7 q                                                       X               X = e e *       O                                                                                               X   X     i q q u X                     O               X               X                                                                                                                                             ",
"                                                                    O         X X X     X X           X           X   X       X X   X         .                                                                                     .       q q q e         4 7 q :     O                                                 X : e 4 ,                                 X                 , , 4 ; X                                                                                                                                                                 .         X u 7 7 & $ X X X X X X 6 q * t X   .                                                                                               O     O             O     .                                                             .               X     : q q i     . X             O   O       q 7 * q             O       .                         X q e 7 :     O               .             .   X             X   : q q q                       : * 7 ,                   X                                                                                       X u q 7 i     O             : 7 q q                                                             q q 7 q                                                   .       X       O   X ; 9 7 :     O               .                                                                               X           t q 0 q                     @   O         X         X             X     . O                                                                                                                                 ",
"                                                                            : : : * e q 2 q q ; : q ; q q q q q q q , : u q t e q 4 4 4                                                                                             . O     q 7 q q       X q q 9 :                     o           O                     X p : t % X                 X         X     X     X   X   X - q ; ; X                                                                                                                                                                 O .     X   y 7 q 7 0 0 7 7 q q 9 6 7 ; t   X       .                                                                                             O   O   o       O   O   O           O     O                                         .               O     , q , ,   X       .     .   .     O     t * q y           X O O   . .             . .           t * 9 :     O               .                                   e r * t X   o O   O   O       4 q q , X           O                                                                                             X q q 7 t     O             : 7 q q         O                                                   ; q q q           O                                                       O     : 7 r :                     .                                                                               , ; q : i i * 7 6 7                       O O                   O                   .                                                                                                                                   ",
"                                                                .   .       : r r * 7 q q 7 7 q 7 7 q 7 7 q 7 7 7 7 7 7 7 7 7 q q q , 4   X                                                                                                 ; 0 7 ; X       * q 7 :     O                                           .       , * y t : q , , t t i t ; , ; 2 i t t , ; t 4 2 i ; t ; ; y q 7 ;                                                                                                                                                                             X t - 7 7 7 q q q q q 7 q ; , ,         .                                                                                                                       X   . O   .                                                     X               X : q e ;           o             .   X   , q q i   X                               .   .         t * e :                                   o               O   X ; 7 * t               X       , 7 * ,   X                         X                                                                               q q q t                   : 7 7 q                                                           X e 0 0 q                                                   .                     : e 7 :     O                                                                                               , q q : , t * 7 9 q X         X               O                         X                                                                                                                                               ",
"                                                                          X : e * * 7 q q q 7 7 q 9 q 7 q 7 e q q q q 9 q 7 7 7 q q ; 4                                                                                             .     X - 7 0 q         e q 7 e                                 .           .           t e * 7 q q q e q e q q q q 7 7 q q e q q t q t e q * e e q 7 q q X                                                                                                                                                                 .   .     X i p q q q q t , t e q ; e , ,           O                                                                                           .     o             O                       . O                                       . O             O     * q q ; X X                             , : ; ;     .             . .   O   O O         O     X i q e *     O               .                             O     : e e e                       i y q ,                                                                                                           X q 7 q t     O           X q 7 q q                                                             t q 7 q                                                   .               O   X * 7 r *     O               o                                                                       o       , q e q 4 t q 9 9 7                       O               X                                                                                                                                                             ",
"                                                                  .   X     : e 7 r * q q q * : : * e ; ; * q : : * ; : ; q q q 7 q , ,           X                                                                                   o     7 7 * 7     X   ; 6 7 q X   O               .             O                   X 4 t 7 9 0 q * * * q - 0 q q 7 7 q q * e * ; e ; ; ; e e * : 7 t q                                                                                                                                                                               = q , : q ; ; , , t ; : , , 3 X   o                                                                                             O         X                           o   O O                                                                   : q q ; X                               , q e t X                                   .     X     ; q q q X                                 .     X               * 7 7 :           X   X       t * * t             O               O                                                                     .       X u q q t     X             : 7 7 q X                                                           , q q q           O                                                             : e 7 q X                                                                                                   : e 7 e ; = 7 7 6 7 X                       O                 .   .                                                                                                                                                     ",
"                                                                    O O   X , e * * X     X   X   X     X   X               X   7 q q ,           O                                                                                 X O   X q 7 7 q X     X q 7 7 *     O               .               O       .           = ; ; q t q ; : e t q q 2 2 q u q t : t t : 4 t 4 4 e : e : , t = X                                                                                                                                                                                     X   X   X   X     X X                                                                                               O       X .         X     X   X                 X                                                             O     q 7 q u X X                       O     t q 7 *     X                           X             X q q 9 : X                   .             .               O   X : 7 q - X         X   X     X ; 7 7 t         .                                                                                           .       q 7 7 4                   , q q q                                                             e 7 7 ;                                                                         q 9 e *                                                                                                     ; q 9 7 X X 7 7 9 e     O                                       . .                                                                                                                                                     ",
"                                                                      O X   = e e e X     X           O               X         q 9 q , X                                                                                             .     * 9 9 * X     X 7 7 9 e       X                           O             O O     X X X   X       X       X X X     X     X         X     X     X X                                                                                                                                                                       X   X                               .                                                                                                     O         X X       X   X X X X     X     X   O                                         . O     X         X   e q q ;                             O   e 7 7 & X X     X X X X   X X   X X X X     X     X   X - * 7 :     O         X                                         : 7 7 * X X   X X   X     X X * 0 0 t   X                                                                                                       X q q 7 y     O         X   e 7 7 q                                                 .           ; 0 7 q                                                   .   X           O   X : 7 9 : X   O         X O   .                                                                               : q 7 : X   * q 7 :                                                         O                                                                                                                                           ",
"                                                                    O       : e * : X O O O                                     7 7 7 :                                                                                             O     X q 0 9 7 , 5 5 : 0 9 9 :                     .           O                 O X                                             X             X                                                                                                                                                                                         X                                                                                                                                         4 , 3 i t , t , , , ; , t 4 X   @                                                             O     : q e , X       .     .               X q 7 9 q q ; t e ; ; 2 ; t t : : ; q q q : : t t i ; q * 9 7 7 :                     .             .               O     q 9 0 q = , ; 5 4 i i ; i ; % q 0 7 y                             O                                                                             X q 7 * :     O             : 7 0 q X         O                                     X           , q 7 q                                                                   O     : e e :                                                                                                 O   , q 7 q X   ; q 7 e                                                       O                                                                                                                                             ",
"                                                                          o : e : t           .                               X * 9 * * X         O                                                                                         * 7 0 * , 3 ; ; 7 7 q q       O                             X           O   O               o       X                         X         X     O   O                                                                                                                                                                               .                   .       .                                                                                           O     O           4 i ; t q q q ; q q q ; q t           X                                                       X     * q t t           .     .       .       * 9 7 7 q ; , t q q q q : q 7 7 q q q q 7 q q * , q e * 7 9 r :       O                                             O   q q 7 9 - t ; e ; * 7 * t q q q 9 0 ;   X               X                                                                           O             q e 7 ,               O   , q q q                                                             q 7 7 q                                                   .                     * 7 7 :     O               .                                                                           X   : * 9 q X   q q 0 e   O O                                       . .         X                                                                                                                                           ",
"                                                                            , q q ;                                             * 9 q ;             O                                                                                     X 4 ; q q t , ; q q ; t 4                 .     .           O                                                                                                                                                                                                                                                                                                                                                                                           .   O     . .   .   X 4 ; : : ; q q e ; y & 9 0 i X           O   X         .   .         .                               , : e ,       O O               O       q 9 6 9 e : 4 4 q q 7 q ; e q 7 q 7 7 7 7 7 q 7 * 7 7 7 q 7 t ,   X       .                                       X     4 e 7 7 q 7 7 7 7 7 q q q q 0 0 9 7 4                                                                                                           X q q q y               X   : 7 7 q                                   O . O   .           o     y 7 7 :         X                                         .                   X : 7 9 q     O               o                                                                               ; 7 9 :     , q q e       O                 O   o                     .                                                                                                                                                 ",
"                                                                            : 7 7 q                                             q q q e X                     O                                                                       X   X 4 ; , 4 ; t i ; t ; , 3 X   X                                                                                                                                                                                                                                                                                                                                                                                                                             X O O . . o       i q t e , i i i = ; 7 0 7 q   X   o     . .             .     O     .           O           O     X ; t , ; X     O   O   O           O   X q t 7 r * : 4 ; 2 ; q q : , : e q e e : : e , : : q : : e e , 4 X   X         O     .       O .               O         5 t : : e q 7 7 7 7 q q q q q q q t =     o                                                                                                       u 7 q ,   O X             q 7 q q                                                             , * q :           O                                                       O     : 9 e q   O                                                                                             X   q 7 7 *   X , q 7 q                       X                                                                                                                                                                             ",
"                                                                            y 0 0 q         .                                   ; 7 q ;             O                                                                                 X     X X   X X X   X   X X X               O O                                 .                                                                                                                                                                                                                                                                                                                                                                                         o     X - - * *     X     X * 7 7 ;       .   O       X X   X       X   X             X O                   t e q q X     O   O       X             q q * & X X   X X   X X X       X   X       X X         X     X                   O           .             .   X .   X X       X     X                 X   @             .                                                                                       o     X q q 7 4                   : 7 q q           O       .             O .   o   o     O         X i 7 q q                                                                   O     q e 7 :                                                                                                   X ; q 7 *     i q 9 q               X                   X                                                                                                                                                                 ",
"                                                                            , q 7 q                                             e 0 q e X         O                                                                               .   O                   X       X     o                             O   O   X                         O                                                                                                                                                                                                                                                                                                                                                       o                     X 7 q t t X X     X   t q t ,         X           X                     o                           X , e 7 q X                         O     , t 7 * X       X                                                   o       O         O                       O                 O                                                                                                                                         q 7 * t     O             : 7 q q X                                               O @ O       2 7 7 ;                                                   .                 O   q 7 9 : X     O             .                                                                               q 7 q 7 X   t q q q                                                       X                                                                                                                                             ",
"                                                                .           : 0 7 q           O                                 q 7 q q                                                                                           O     O   X                 X   o                                                                                 O                                                                                                                                                                                                                                                                                                                                               X X X   X X     X X & 7 6 * X     X   X t 7 7 *       o         X X   X         X     X             O         .         , e e * X                               i t q y X X                             O     O   O O         X                                                         X X       .             .   .   .   .                                                                                                           X q q * :     O             e q q q         O                       .           X       X     X ; q q q                                                       X                 : 7 7 *                     .                                                                               u q q q X   4 q 7 e                       .     O                               O   O                                                                                                                                   ",
"                                                                            ; q 7 q                                           X ; q q e X             O                                                                           O   .                                                                   O                                               . O                                                                                                                                                                                                                                                                                                                                       3 - q q = , 4 , q 7 7 q 9 7 e t , t , = 7 9 7 t , , , t ; = 4 4 , ; q ; t , , ; u q 2 ; X                           X   , e e ; X                             X q - - q       X O       O   . . O     O O       .   .   O X                                 O                 O             O O O   O     .       .   .   .                                                                                                               q 7 7 t               O   : 7 0 q                                         X X     X         X * & q q                                                   .               O     : e e :     O                                                                                             X q 7 q q     , q 7 e     .   .               O   O       O                           O O                                                                                                                                 ",
"                                                                            q q q q                                             * 9 q *           O O                                                                                   O .   . .           O   X   .                                           X             X                                                                                                                                                                                                                                                                                                                                                                     4 q 7 q t t , , * 7 0 9 7 7 7 7 e e e e 7 7 6 7 q , e t q q : : q q q q , , , e q q q ; X         O                   X : , , ,           o                 X   2 7 e i     O O     O O O .                                   o                                               O .     X   X         X         X                                                                                                                           q 9 q t     O             : q 7 q X                                       3 t , t t e e : t * e 9 0 q                                                                   O   X * 7 7 q X   O               o                                                                               q 7 q ;   X , e q q       . .             O                                       O                                                                                                                                     ",
"                                                                          X 2 7 7 q                                             ; q q :                                                                                             O         O O   O     O                                     X                               X     X X   X X                                                                                                                                                                                                                                                                                                                                                   X 2 q * 7 q i , , q q 7 7 9 7 7 7 : e ; e 6 9 9 9 q q q 7 0 q : : 7 7 q q : , e q 7 7 q y   X       O                     , e t ,                   X             q 7 q q X                 O                                                                                                 X   X         X   X X                                                                                                               .     X   ; e q t     X         X   : 9 q q                 O                 X     4 t - 7 e e e : t : q 9 9 q           .                                       .   X                 : e 7 e       X                                                                                           X q 7 q q X   : q q q X             X                 X       X       X     X                                                                                                                                             ",
"                                                                            t 7 q q                                             q q q ;             O                                                                                                               O .                                                     t 4 t , : , ; : t 2 4 , 5                                                                                                                                                                                                                                                                                                                                               t q 7 q - , 3 i t % y 7 * 7 7 ; e t 4 - y 0 0 y - u t ; q q 4 , : e e t , 4 e % y 7 7 *           .                     y : y % X             X     X         X 7 q 0 q                 . O                       X                                                           O         4 4 u * q q e t e : e * q q ;                                                                                                             .       q 7 * :                   , 7 7 q X                                       ; q q 7 e : e e , : 7 6 7 *                                                                 X       q 9 r : X               X   .                                                                       o     X u 7 t ;   X ; q 7 -     X   i q q u * q e : e : q e 7 7 q q e t q q 7 e * q 7 e q q q 2                                                                                                                                 ",
"                                                                            e 7 0 q           O                                 e 0 q e                       O                                                                                           O   .                                   .     X         O         , t e q * q q q q q ; ; 4                                                                                                                                                                                                                                                                                                                                               t q 7 7 X X     X X * * q q X   X     X 0 * - 7   X X     X       X X     . X X q 7 q :                     o       X   t : y q e * t , t , , t ; 2 i ; t t e = y q 7 q X                       X                               O                                                       3 i t 9 q * : : e e q 7 7 q q     X                                                                                                             X q q 7 t               O X t q 7 q                                       X 2 q q 7 e e e q , * 7 0 7 -                                                   o               O   X : 7 7 :     O                                                                                               q 7 q ; X   ; 7 7 ; X     X q 0 0 7 7 0 q q q q 7 7 7 7 0 7 q 0 7 7 7 7 7 q 7 q 7 6 7 7                                                                                                                                 ",
"                                                                            t 0 7 q                                           X q 7 q : X                                                                                         X                             O                                                 O       X , t q * q 7 7 7 7 7 q q 4 X                                                                                                                                                                                                                                                                                                                                             : q 7 7 X         X : q q ;             ; t q u X           X X X X   X     X   7 7 q ;           O                     , : * - q 7 e e q q q q q q 7 q q q t ; 7 7 q t X                 O   O                                                                             O           i t * 7 7 r : e e : 7 7 7 q q X                                                                                                               X   q q 7 t X O O             q 7 7 q           O                             q q q 7   X X   o   - 0 7 ;                                                           X       O     : e 7 :     O               .                                                                             $ * 7 0 -     q 7 9 q X   X X - q q 6 q 7 q q q q e 7 7 7 q q 7 7 * q q q 7 7 7 7 7 7 0 q                                                                                                                                 ",
"                                                                            t q q q                                             ; 7 q q             O O                                                                                                               O                                             O       , e q 7 7 7 6 7 0 7 q q t   X                                                                                                                                                                                                                                                                                                                                           * q 7 q X   X       e q q ; X   o       4 q t q       o   X               X     ; q q ;                         O     o > y 7 7 7 q q q * q q 7 7 - 7 7 q q : : * q q e           X                                           O   .                                                   X ; q 7 r : : : : : * * r q q t X                                                                                                     O           X q q q ,                   : q 7 ;                                       X 7 q q 7       X     q q q q         o                                         .                     * 7 e 7                                                                                             .     = 7 7 q 7 e ; r 7 0 q = t - u q 7 q 0 q 0 ; ; , : : : : ; : ; : e , , : 2 t t q * r 7 7 ;                                                                                                                                 ",
"                                                                .           e 0 7 ;           O                                 q 7 q :             O                                                                                           .                 .                         O O O               O         X : q 7 7 7 7 7 6 7 7 q * e X                                                                                                                                                                                                                                                                                                                                         .   : 7 7 * X   O       q 7 q ;             ; * * :               O       O O     X ; 0 q ,   X                 .     O     = = u q q ; e e t t q q u u u u q t , 4 t q i 4                   O   . .     . .   .   .     . o                           .   O                               ; t * *   X     X X X * ; ; 4     o                                                                                                       .       q q 7 :                   e 7 7 q X                           O         X t q 0 7 X O         2 7 q ;                                                   .                   X : 7 9 q   O                 .                                                                             y q 7 7 7 t e * 7 0 7 t i i t ; ; i ; y X   X       X   X   X X         X       X ; q e t                                                                                                                                 ",
"                                                                            ; q 7 q                                             q 7 q e   X                                                                                                 O                                               .                     O       X : e * 7 6 9 9 7 7 7 q 7 ,         .                                                                                                                                                                                                                                                                                                                                     : 7 9 *   @ O O o X : * 7 q     . .   X e e q e     . .     O             O   X 7 7 q i           O O           O O     X X   X X         X   X   X   X         o     X     .         X                                     .                                                       X X ; q t : X             = u 4 4                                                                                                                   X u q * ,               O X , q q q                                         q q 7 7       @ X   i q q q                                                                   O     : 9 e q     O                                                                                       O     , 7 7 7 7 : q * 7 0 7 t = : * : q q , ;                                   X     X , e : :                                                                                                                                 ",
"                                                                            : q 0 q                                             q 7 q *             O                                                                                   O                                                 O .   O                 O       X : q 7 7 7 7 7 7 6 7 q ; i         O                                                                                                                                                                                                                                                                                                                                   X e 9 9 7     O O     e 7 7 q   .       X * 9 0 7           O             .     X * 9 9 :                                                                       X   X X     O             O                                                       O     O O .                   O       X ; q ; t     X       X 4 q q i                                                                                                                 X   q q 7 4     O             : 7 9 ;           O                             e q 9 *   X         e 7 q q X                                                                   O   q e 7 :     O                                                                                             e 7 6 0 q e e 7 9 q q e , t 7 r q * 7 i           O               X   O           t : q *                                                                                                                                 ",
"                                                                          X q 7 7 q                                             q 7 q y                                                                                         O     X     O   .                                                               O   O       , , : : q * 7 q q q i ; i         .                                                                                                                                                                                                                                                                                                                                     q 7 7 *     O       e q 7 q             * 7 7 7           O     .       O       7 9 7 *           O         o     O O X                 .     X       X           X     O   . .                                             O                               O           .             X ; q ; t   X       X   y q ; ,                                                                                                                   X q q 7 4 X                 e 7 7 ;                                       X , q 7 7             e 7 q ;                                                   o               O     q 7 7 : X                   .                                                                           X e 7 7 q q X X 9 0 0 7 X     X * q 6 q y X             O           O     O       X i ; q q                                                                                                                                 ",
"                                                                    .     X * 9 7 7     O                                       ; q q 2                                                                                                                                                                                                                                                                                                                                                                                                                                                                                                                                                             q 9 q e           X ; 7 7 0       X   X : : ; t X                               y 7 0 e                                                                                                                                                                                     .         X y * : : X   X     X   t ; t 3                                                                                                                   X q q q ,                   t q 7 q         O               O               - 7 9 7     X   X   y 7 e ;                                                   .   O           O     : 7 7 :       O         O .           O       O   O     .   X     O             X               X   O     e e q q q X X 7 0 7 -     X   q 0 7 q ;                               O         X : * 9 q       X                                                                                                                         ",
"                                                                      O     * 7 7 *       O                                   X q 7 q t   X                                                                                                                                                                                                                                                                                                                                                                                                                                                               .                                                                                         ; 7 q t         X   4 * 7 7 X     X   X , * : t     X   O       .               2 7 7 u                                                                                                                                                                     O   O             O   @   X : * ; e X   X       X q * q i                                                                                                                     q q 7 y     O             : 9 q q                                     X X e * 7 q X X         q q q ;                     O         O O                         X             : e r *       .           . .   O                       O           O .     O       O .     O             t t 7 * q X X 6 0 q q X       t q 7 q i                 O             .   .       : * 7 q                             .                                                                                                   ",
"                                                                            ; 9 q q X   O             O                         7 q q ;                                                                                                                                                                                                                                                                                                                                                                                                                                                               .   .     X                                                                                 X q 0 q :           X 4 q 7 7 q t ; t * & y 7 e y   X       O                     t 7 7 q                                                                                                                                                                       .                 O     X i e q y % * i , , e 6 w 7 * t                                                                                                                   X q q 7 :     O             : 7 7 ;                               .       X i 7 7 0 : : t , : * 7 7 7 :                                                   .               O   X * 7 7 7     O           .         O                                                                       t t q : e 7 7 0 7 * t       X u 7 7 7 4           X     .         O   O O   O     4 q 7 * X                                                                                                                               ",
"                                                                    O O   X ; q 9 e     O +                     O               7 7 q ,         X                                                                                                                                                                                                                                                                                                                                                                                                                                                           .                                                                                       q 7 q t     . X     i t 7 q 7 7 9 7 9 7 7 7 * ; X       O         O             u 7 7 t                                                                                                                                                                       .             O   O       ; q 7 7 * ; , , : q q 7 6 - y X X X                                                                                                     .       X u q 7 ,     X         O   , q 0 e X                       O     O o X     4 q * q e e e : : 7 7 7 9 *                                                                         : e 9 q X                   .                                                                             t e * e e t q 7 7 ; i   X     u q 7 7 2                         O       .         , q 9 q                                                                                                                                 ",
"                                                                          X * q e :     X O                                     q 0 q :         O                                                                                                                                                                                                                                                                                                                                                                                                                                                       o         O       O                                                                       X q 0 q t             3 i - q 7 7 9 9 7 7 q q q ; X     X   O                     t 7 7 q X                                                                                                                                                                     X               O       X , e q q 7 t i ; e - 0 0 7 7 t                                                                                                             .       q q 7 t                   e 7 q q                           O             , i ; ; * e e : e e 7 9 9 ;           O                                                             q 9 7 *           X     .                                                                                 e e q e e * : 7 t t ,         y 7 7 q t                                         X , q 9 q         O                                                                                                                       ",
"                                                                            q q q * X                                         X * 9 q : X     X   O                                                                                                                                                                                                                                                                                                                                                                                                                                                 O                       .                                                                       q 9 q ,           X 3 5 , e 7 q 7 7 * 7 7 ; ; ; X                               2 7 7 q                                                                                                                                                                                         O   X   = t * * ; e , t i i q 7 q e , X X                                                                                                               X q q 7 i     O           X : 7 q q                                       X , t , , * : e e : : 7 9 7 q X O X       O                                     o       X       O   X : 7 7 7 X                                                   X                                         X X e 7 q e * : t ; y ; ,   .   X t 7 7 7 t                                           ; q 7 *   O         O                                                                                                                   ",
"                                                                            - q q *                                             q 9 * :           O                                                                                                                                                                                                                                                                                                                                                                                                                                                                                                                                                 q 7 q :               X X     X X     X   X             .       O               y 7 7 q                                                                                                                                                                                     O   . O     X   X X           X   X   X                                                                                                         O           X q q 7 ,     O             : q 0 q X         O                             X     X X X   X   X 7 7 q ;                                                                   O     : e 9 *                                         X                                                       X e * e : X X   X     X         ; 7 7 q ,                                         X q q 7 q       O .   O                                                                                                                   ",
"                                                                          X q 7 9 * X   X   X X X       X     X               X 7 7 7 : X       O                                                                                                                                                                                                                                                                                                                                                                                                                                                               X           O                                                                       * 9 q t   .       X       X                   X   .   . .                       t 7 q q                                                                                                                                                                                             .                                 . O .                                                                                                               q 7 * 4 X                 e 7 q q                         O       .                           y ; q ;   O           . O                                 .                     * 7 7 *     X                                 X                                 X                         q 7 e *         X     .       i 7 0 0 t X                                         2 q 7 q                                                                                                                                 ",
"                                                                            u 7 7 7 q i 2 q q q q q e t q q 2 q q q t q q q q q 0 7 ; t                                                                                                                                                                                                                                                                                                                                                                                                                                                         X           X     X       X   X                                                                     q 7 7 e     O     O           O O   O     O     .     .   .                   X 2 7 7 t                                                                                                                                                                                                               .               O   O                                                                                                             X q q 7 t                   t q 7 q                                                   O     O   ; t ; 4   X   o       .                         O         .                   X : 7 7 q   O .             .                                 O     X       O     O               O       X ; * q t       X       O       i 0 * 7 i                             X             i q q ;                                                                                                                                 ",
"                                                                    O .     ; 0 7 7 q q q q 0 q 0 7 0 q 7 7 0 q 7 7 7 7 7 7 q 7 7 q e t         O                                                                                                                                                                                                                                                                                                                                                                                                                                               i q 4 t i i , y * q e ; , 4   X                                                                     q 7 7 :                         . O   O     O                   .   O           q 7 7 y                                                                                                                                                                                         .                       O               O                                                                                                               X u 7 * t     O             : 9 q q                             O                     O O o     , e q 4     .                             X     .                         O     : 9 r t   O   .       X                 O   O           O             X             X   O   O       O     y e e ,               O   o X ; 7 7 0 t X X     X X                             X ; q q ;                                                                                                                                 ",
"                                                                  O . .     i i q q q , t q 7 q 7 q q 7 q 7 q 9 q q e 7 q q q q 7 * , 4                                                                                                                                                                                                                                                                                                                                                                                                                                                         ; q q - ; ; ; q q 7 e e i 4                                                                         t 9 q t                                                                         t 7 7 ;                                                                                                                                                                                                                                   O                                                                                                       .       q q * :     O             : 7 7 ;                                   .                         , : ; ;                             X             X                       O     q e * :     O O o         . .     O                                                                       q q t ,                       - q 9 & e X         X             X X   X X   X X   ; * q e X     X                                                                                                                         ",
"                                                                            ; q 0 u ; , : ; 7 q e : * : : : : : ; : q ; ; ; : * t t i 5 X                   .                                                                                                                                                                                                                                                                                                                                                                                                                                   q q q q q q q 7 7 7 7 * : 2                                                                         7 9 q t       O     O                               X             O             u 7 7 u                                                                                                                                                                                 X               O                                                                                                                                               X q 7 7 t     X         O   , q 0 e X         O                   .                             : e : :           X X         X   X X         X           o                 O   q 7 7 ;     .                                                                                       O     - 7 q t       O     O         t q 7 6 q ; t i 4 t t t 4 4 i : t t e , , , , : : * y e 9 e X           o                                                                                                                   ",
"                                                                O   O       X   X X   X     X X X                       X     X   X         .                                                                                                                                                                                                                                                                                                                                                                                                                                                   7 7 7 7 q q q 7 9 9 7 7 : t X                                                                       q 7 7 :             O                                                           t q q q                                                                                                                                                                         O                             X                                                                                                                                         X q q q y                   : 7 7 q           O                                               X : 9 t : X   X   , , 4 ; , ; , q : q ; , 3 4 4 3 X             X                 : e 7 :       .                                           X                                             X t 7 q :       O               t 7 7 9 9 t , , , ; : ; : , : : : q : e * : : e t : e * 7 * X             X                                                                                                                 ",
"                                                                      .                                     X       X           X                                                                                                                                                                                                                                                                                                                                                                                                                                                               ; 0 7 7 q q 7 9 6 7 7 7 ; ;   X                                                                     * 9 7 e           O .           X                                               t 0 7 q X                                                                                                                                                                   .               .           O                                                                                                                                                 q q q ,     O           X : 9 q q                 .                                           ; q 7 q X     X 4 5 q e q t q q q 7 q q - i 4 4           .               O     * 7 9 *           X X X         X X   X X X   X   X X   X     X X   X X   X X X   X   X X   X   X         q 7 q ,     O                 t q 6 9 & t t t , e q q , 4 : e e q e e e 7 * ; : : e e r e   X 4 p 5 4                                                                                                                     ",
"                                                                  X     .     X       .                                             X       o                                                                                                                                                                                                                                                                                                                                                                                                                                                   q 7 7 7 ; 7 7 7 7 7 9 q e ,                                                                         q 7 q t                                       .   .             O               t 7 7 q                                                                                                                                                                           O                   O     O                 O O   X                                                                                                                     ; 7 7 t     O             , q q q X                                                   .     X q q 7 7 X   X   2 - 7 7 0 q 7 7 0 0 0 q * ; - 4   X                       O   X * 7 9 6 X             X           X         X                                     X           X     o   X q e q t     .   O           X * t 7 9 0 q q t q q q q q t , , ; q q q q ; i i 4 4 ; ; ; - X   4 4 3 4                                                                                                                     ",
"                                                                    .   .           .   . . O                                                               .                                                                                                                                                                                                                                                                                                                                                                                                                                   ; 7 q q q q * 7 e e 7 e , 4                                                                         q 7 q e X           O       @ O   O       .       .     o                       t 7 7 e                                                                                                                                                                     O         O         .         O   O O       X     O     O                                                                                                           .       X q 7 * i                   e 7 7 q                                                 O O         ; q q -   X     t q 0 0 q q q q q q 7 q q q * y X   X     .                     * 9 7 7 X = i 4 t t , 4 4 i t 4 ; i i t t i t t i t i t 4 i t 4 y i t t i t t , 4 4 t 4 y 4 t , , , 3 X X q 0 q :                         * 0 7 q X     X   X X   X     X X   X     X     X     X   X   p ; y i   X             O                                                                                                   ",
"                                                                                                                                                                                                  O       X         O                           .     O       O                                                                                                                                                 O   O                   O     .   O               .                   @                                                                                                         4 t t 4 4 4 4 y 4 , t t i = X                                                                       e q 7 ,                                                           O             t 0 7 q                                                                                                                                                                                                                                                                                                                                           .       q 7 * ,     X             : 7 q q                                                           X q q q q   X     e q 7 q X           X   q 7 0 q       X     .                 X q 9 9 * X , q * * q , , , t ; q 7 - q q q q q 7 q q 7 ; 7 q 7 - q q q q q 7 q q * q ; ; ; e q * 7 e t   X q q q q                     .   t - e ; X                                                     ; 7 0 q X   .             O                                                                                                 ",
"                                                                                                                                                                                                  O                                                                                                                                                                                                               .     O   O                           X   O                         .                                                                                                                                   X                                                                         q 0 q t             .                                                           t q q q                                                                                                                                                                                                                                                                                                                                                 X q q 7 ,               X   : 7 7 q                                                             e 7 q ,         e 7 6 e     .     X   X i 7 9 7 X                         O     7 0 0 * X = 7 9 9 7 , , : q ; q q - q q 7 q q q q 7 q 7 q q q q q q q q 7 q 7 7 q q : , t t 7 7 9 & t X X t 7 q q X X       O         X   t ; t ;           .                                           q 9 6 7     O                                                                                                               ",
"                                                                                                                                                                                                O     X   X     X         X                                                                                                                                                                                         o   X                   X     X             . .               .   . . . .                                                                                                   X   X     X   X   X           X                                                                     q 0 q ,             O                                                           u 7 7 q                                                                                                                                                                                                                                                                                                                                               X   q q 7 t X   O             q 7 7 q                                                             : 7 q ,   O     t 7 e r       .         t q 7 r             .             O   X 7 0 q *   ; 7 7 e % , 4 t q q , q 2 q t ; , , , , t ; t ; t q t ; : t q , ; * q t t i t t , * q 7 q ,   X t ; e ,         o .             t ; q ; X     o .                                         .   q 9 6 q     O .   X X     O                                                                                                 ",
"                                                                                                                                                                                                . .         X         O O                                                                                                                                                                                                         X                                                   .                                                                                                                             o         .                                                                     : 9 q y             .                                                           i 7 7 q                                                                                                                                                                                                                                                                                                                                                 X q q q ,   O               : 7 q q X                                                           e 7 q t   X   X t 9 7 q   . . . X     X t q 7 t                         O       7 q 7 q X , q 9 7 X X     X   X X X     X   X X   X   X   X X   X     X   X   X   X     X   X * 7 q ,     : , , t                     X   t ; q ; X             X                                       q 0 9 7 X   . O         X                                                                                                   ",
"                                                                                                                                                                                                .   .   o         .                                       X                                                                                                                                                           X     X                                           X               O   O                                                                                                           .   .                                                                                       e 7 q q                                                             .           i 7 7 t                                                                                                                                                                                                                                                                                                                                           .   X   q 7 7 :                   , q q q         O                                                 X q 7 q e         e q 7 : X               ; ; e ,             o             O     ; q 7 t   4 q 7 *                                                     X                   X   e e t i     , i 4 2                   X   X ; ; q t         .                                             q 7 0 q     .                                                                                                               ",
"                                                                                                                                                                                                .                             X       O                     X                                                                                                                                         O   O             X     X                           X         X     X X       X   o                                                                                                               O       .         o                                                                         ; 9 q t             O                                           O               q 7 7 y                                                                                                                                                                                                                                                                                                                                                   2 q * ,     X         X   e 7 7 q                                                     .     X * e q e         e q & *   .     X   X X - * e ;   O       .               O     7 q 7 y   , * 7 e   .                 X                                 .       X             , ; * t     , i ; ; X X           X X X X X % q q t X                                                     4 q 7 q       .         O .                                                                                                 ",
"                                                                                                                                                                                                      X , ; ; i t ; : : : q , ,   O O   X                                                                                                                                                         O       O         X = , t ; i q ; : q t q q q i q ; q 4 - , q q q ; ; : q e , y = , , %     X                                                                                                                   O   O O                                                                           t 9 q t             O                                           O               u 7 7 ;                                                                                                                                                                                                                                                                                                                                                 X q q 7 t   O               : 7 0 q                                                     .       : 9 q e X     X t q 9 e * , , e t 7 7 7 y 0 q *             .           O     X ; 7 7 q   t ; 7 i                                                                             i t t e X X q q 7 q & * : : ; t q ; q : , ; y q q q   X   .                                               i ; q t                     O                                                                                               ",
"                                                                                                                                                                                                    X   q i - q q q e 7 7 7 7 e       O                                                                                                                                                                           X   4 , t * t q 7 7 7 q 0 7 7 7 7 7 7 7 7 q 7 7 0 7 7 q 7 q q 7 * q e q X   X                                                                                                 .     O     O               .                                                                       t 0 q ;             .                                                           q 7 7 u                                                                                                                                                                                                                                                                                                                                                 X q q q t     O         O   , q q q X       O                                                   : e q t         , q 9 9 * : q q 9 6 0 7 7 6 9 7 X         .               O   X q 7 7 q   i q 7 i X   . .     o   .   .     o       o     .       o   .     O     O O o     X i ; q ; X X q 7 7 t t 7 7 q 7 q q 7 7 q i ; q ; ; i                                                       4 , , y     o             O                                                                                                 ",
"                                                                                                                                                                                                X     X 4 - u 7 q q 7 e 7 q 9 :   O       O         O   O   O                                                                                                                                   O                     t t * t q 0 q q 7 7 7 0 q 7 q 0 7 7 7 7 q 7 7 7 7 q * q q 7 r 7 q t   X                                                                                                                                                                                                       q 0 q t                                                                         t 7 7 q                                                                                                                                                                                                                                                                                                                                                 X ; q 7 ,     O         X   q 7 7 q                                                         O   q 9 e e         4 ; 7 9 e t : q 9 9 7 & q 0 q ;               .           O     q 7 6 7 X , 7 7 q X         .                                 .     .         O               t * 7 * X X * e q 7 e q q 7 7 7 7 7 q q q i , q i ;   X                                                     X X                                                                                                                       ",
"                                                                                                                                                                                                        3 ; i t e q e t e e e :       O             o                                                                                                                                                 O               , i q e & q q q q ; q t q q q t q 2 q q , q q ; : t e : q & 7 * q e                                                                                                                                                                                                           q q q y             .                                                           i 7 7 u X                                                                                                                                                                                                                                                                                                                                               X q q q t                   : q 7 q                                                 .   .       q 7 * e   X   X 4 ; * e , t : q * 0 t y y 7 q ;         O .             O       * 0 0 7   , 0 0 e     .             .       .                                   O   X         , 7 q ; X   , ; t = y , q ; 7 q t ; q ; = , , = i 3 @                                                                                                                                                                                 ",
"                                                                                                                                                                                                + .                                         X           .   .                                                                                                                                                   X   X , t ; q X X     X                     X   X X     X     X X q ; t 4                                                                                                                                                                                                           q 7 q q             O                                                           q 7 7 q                                                                                                                                                                                                                                                                                                                                                 X q 9 q t     O             : q q q X                                                       X   * 7 q ,         X X             X       X   X X X O       + .     X           X * 7 9 0 X t q 0 q X                                                               O       X X q 7 q t     X           X   X   X X   X   X X X                                                                                                                                                                                       ",
"                                                                                                                                                                                                . . .     X   X                   X                     O   O                                                                                                                                           O             t t q 7 X                                                   = t , 4     o                                                                                                                                                                                                     q 7 q ,             .                                             O             2 7 7 t                                                                                                                                                                                                                                                                                                                                         .         u q q t                   q 7 q q                                                             ; e 7 e   X                                 O O . O O                         X 7 7 7 9   , 9 q q                                                                             q 7 q 4     o                           X   X     X                                                                                                                                                                                   ",
"                                                                                                                                                                                                    o     X X X X   X   X   X     X   X X   X   X X         .                                                                                                                                                     X   , ; q q                                           .       X t ; ; ,                                                                                                                                                                                                           t 9 q ,               O                                           .             ; 7 7 q X                                                                                                                                                                                                                                                                                                                                         .     X q 7 * t   X O   X         : q 0 q         O                                               O   q 9 7 :   X     X   X   .           .   .         . X               X X X   X X * 7 7 9   t q q t                                                               .           X q q 7 ;       .   . .       X                             X                                                                                                                                                                           ",
"                                                                                                                                                                                                    , ; t q q y q ; ; 2 q 2 4 q , ; q q q q , , ; =                                                                                                                                                                   4 , ; q X                                       . .     X X e q - ,                                                                                                                                                                                                           e 0 q q                                                                         i 7 7 u                                                                                                                                                                                                                                                                                                                                                   q q 7 t                   : 7 7 e X                                                       X   q 7 e e                   .           .         .             X   X             q q 7 7   , q 0 q X                                                                           q q q t X X   .   O                                                                                             .                                                                                                                     ",
"                                                                                                                                                                                                    4 , u 0 * - 7 q q q q q q q 7 q q q q q q q t i X         .                                                                                                                                           .           i , q t X         O       .                               X q q q t                                                                                                                   .                                                                                       t 0 q t             .                                                           y 7 7 q                                                                                                                                                                                                                                                                                                                                                 X q 7 7 :     O         O   : q q q                                                             q 0 e e     O     X       .   O       .                                   X   X 7 6 7 *   , q q t     .                                                         O   . O   X   y * q ;           O       X       X           .   O                                                         o .         X                                                                                                             ",
"                                                                                                                                                                                                X   i % q 7 q q q q t : , , e q q ; 7 7 q q q q q t X                                                                                                                                                                 4 ; q u     O                 X                 X           q 7 q i                                                                                                       .                       .                                                                           e 0 7 t                                                           O O           t q 7 q                                                                                                                                                                                                                                                                                                                                     O             q e * t               X   : 9 q u                                                         O   q 7 * :     .     O                             X           o , 4 i t 3 4 5 t = y 6 7 7 X , q 7 t     O                                                                       e q q i   X                       O     o     O   .                                                                                                                                                                                   ",
"                                                                    .         . .         O O                                       O                     O   O                                     : 7 7 y % 4 4 i , t 4 i y 4 , 4 t t i = y 0 7 q           O                                                               X           X       X                                                             .     q q q ,                                         X           : 7 q , X                                                                                                                                                                                                       X q 0 7 q X                                                     O   O O           4 : q ,   o                                                                 X                                                                                                                                       .   X X X X     X X X     X   X   X     O .                                                                             o             i q t % X X   X   X   X $ * 7 e :         O                                           .       : q q ;   O                                                   4 - q * t 7 * : q 7 q 9 7 X , e q : X                                                                 O         q 0 q t                                                                                                                                 O   O       .         .                                                                       ",
"                                                                        . .                   X                                                                                                     q 9 7 -   o X                     X   X 7 6 7 q                                                             .         X X       X   X                                                                             e 0 q ,                                                     : r 7 ; X                                                                                                                                                                                                         q 9 7 q                                                               X         4 q q e                                                                                                                                                                                                 .   .           * * q 7 i i , q q , 4 t 7 9 7 ;               O                                                                           X X X   , ; q y q * q y e q q * * 7 q : ;                                                 . .   .     ; q q q                                                     X 5 q 7 6 9 e e t q 7 0 7 q X q q e ,                                                                             q q r t X       O                                                                                                                     O                 . .                                                                           ",
"                                                                                                            O                         X                                                             q 7 q ;     X         X   X     X       7 7 0 q                                                               O       X 3 3 , , , * t , 4 4                                                                 .     e q 9 ,                                                   X : t 7 ;                                                                                                                                                                                                           q 7 q 4             O         .         O                                       ; 7 7 q                                                                                                                   O   .     O                 O                 .                                               t q 7 7 4 4 t - : , 4 ; q 7 e ,       .     O                                                                                   X t ; q q q q q t ; , q q q e q t ,   X   O                                                   X - q q q X               O                     O               4 - q q 7 : , , ; q q * 7 X t e , , .   O                           O     O               .     O   O   .   X   y ; q 4         .   O             .                                     .                                                                                           O                                                                 ",
"                                                                                          X         .   O       .   O   O   O   O                       O     O                                     q 0 q t X                 X X   X       7 9 9 q           X                                                             2 i e q q q q q q 4                                                                 X     e 7 q ,                                                     , 7 7 q                                                                                                                                                                                                           q 7 q i           . . .         O       .   O   O   O   .                       q 0 0 7 X                                                                   O                       .           .   O       O       .     O .   O       .   O   O   O                                                   q q 7 q , 4 i t i , i 2 q 7 e y       .                                                                             O             i , 4 t t , ; t t , , , e e : , i                                                           X q 7 7 7 X     X             O   . O .   O       .             4 q q 7 X   X   X - ; 7 q   , , : t               .       .   O   .       .   O   O   .           .   O O       , q q i                                                                                               O   .   O   O   O   .   O   .                                                                                                   ",
"                                                                                                                        .                                                                       O X 7 0 q ;           X X                 X 7 7 0 *         O                                                   .           , ; * 7 7 7 7 q : , X                                                               .     q q q , X                                                   ; q q q X                                                                                                                                                                                                         e 0 q e               .                                                         q 0 0 q                                                                                                   .                                                                                                           . ; 7 7 y , 3 , ; = , 3 : e 7 e 4     .                                                                               .           X = 4 t t i 3 4 4 i 4 4 , , : , , 3                                                           X q 0 0 7                                                       i q q q X       X e t 7 7   q e : ,     O                                         .                           X e * q ,                                                                                                                               X                           X                                                                   ",
"                                                                  X X                                                                                                                               q q q ;             O                 X ; 0 7 q                                                                       X p t 7 9 7 9 7 q e ,         .                                           X     X           t 7 q ;                                           X       X : 7 q q                                                                                                                                                                                                           r 0 7 t                                                           .           X t 0 0 7                                                                                       O   O                                                                                 .           .                   X   ; 7 0 7         X X   X % 7 q t                   .                                                                         X     X         X           X   X   X       O O                                                     ; 7 q q                                                       e * 0 q X   X     : 7 7 7 X t e e , o                                                                           q q q ,   X         O                                                               . .                                                                                                                                               ",
"                                                                              O   O O . O . O X                                                                                                     q q q ,         O           X           * 7 0 q                                                 O             O   X     4 ; q q e 7 q 7 t t X                                                               .     : 7 q 2                                                     : q 7 q                                                                                                                                                                                                           t 7 7 q                                                     O   O O O           e q 7 q                                                                       O                 O                                                                                         O                             ; 7 7 q X     X X     X * r q i       .     O                                                                         .             X         X X     X   X   X   X     O       X                                             X , q e = X     O   O                                           t 7 e q   X   X   , : 7 7   q , e , X   X                                                           X       X X q - q t         .                                                                                                                     .   O   O   .                                                                                   ",
"                                                                .     . .           O     O                                                                                                         7 q q , X             O                 ; 7 q q         .                                   .                           p 2 : : : q q * t t                                                                       * 9 q ,                                                     : e 7 , X                                                                                                                                                                                                         q 0 7 u X                                                       O .             e q q e                                                                                     O O                                                                                                               X         2 7 0 q               X * q * t X           O                                                                         O                 X                                 O                                             o       : e e , X   O   O O                                           , * e y         X , e q q   i e e ,                                                                           X i q e , X                                                                                                                               O   O   O   O   .     .     .                                                                 ",
"                                                                  .     .                                                         X   X                                                             q 9 7 t             O .                 e q 0 q                                               .                           X     X X   X                 X                                                   X     e q q :                                                   X : q q q                                                                                                                                                                                                       .   * q q ;                                                                       X e q 7 :   .                                                                                   O                                                                                           X       O                     t 7 q q     X           q 7 * t             O                                                                                                                           .                                                 .     y : 7 :           X                                 X X       : t : ,     O X   , t e ; X 4 ; t , .   X                                                                     X e t e 4       .                     .                                             O .                                                                       o   .                                                                     ",
"                                                                .   .               X X   X                                                         O                                               e 0 q e                     .           q q 7 q           O                                 O O               O                               O                                                             .   X q 0 7 ,                                                     : q q q X                                                                                                                                                                                                         q q 0 q X                 X                                 X         X   X     ; 7 q t   .                                                                                 O   @         X         X                                                         X           . O                           q 7 0 q               X e 7 q t                                                                                     O                                               O         O                                       . .       : * 7 * X   X X X                                           X * q * , X         = r t t   4 * e * X                                                                   X     X = ; q 4 X   X     O                                                                               X                                     X     X   X     X       . . .                                                                 ",
"                                                                    O   X   ; ; * - * * 7 7 q q q y 4 u y , e t t t q 4 t q y t 4 , 4 , 5 X                                                         q 9 q e X           .       O           * q 0 q                                               .                                                 O                                                                 , 7 q i                                   O                 e e 7 q X                                                                                                                                                                                                         7 6 9 7 * ; q q q q , t t q u t , e y , t ; i q i ; y t e q q 7 q q q e q q , , 7 9 7 q   X                                                                         .         O     X = , : y ; * ; ; t e : t e t ; t : t t 4 q t : y , t 2 t i 4 q y t q t t , 4 , X                       X           e 0 7 q                 e e q :                                                                                                                               X         .                                           O     O X   t 7 9 y % - e * 0 7 q u y 4 i , i u i q y t 2 t t u q i y e * t 0 7 q - 4 4 p ; e 9 7 7 X - 7 9 7 * u u q q y t , : t t q i t t e t t t q , 4 q y t , 4 t , q q e q y i : ; - t 7 7 , X       O   .                                                           O O     o   X , 4 , , t t q i t e t t t q t t t t t q w 7 * 7 q 7 q * ; = X                                                                           ",
"                                                                          X q t q 7 9 9 9 7 9 7 7 7 7 7 q 7 q q q 7 q 7 q 7 q q : , , , i                                                           q 7 q t                                 q q 7 q           O                                                   . O     X     O   O             O   O                                                         .     , 7 q ;                                                     : q 7 *                                                                                                                                                                                                         X q 8 8 6 q q q 9 q q q q 0 q 7 7 q 7 q 7 q 7 q 7 7 7 q 7 q q 9 7 7 7 7 9 0 q ; y & 0 6 q                                                                                   O O         t i t q 7 q 7 q 7 7 7 q 7 q 7 q 9 7 0 7 7 q 7 q 7 q 7 q 0 7 7 q 7 q q q ; t ,           O                         ; q 7 q X               e q q t X                                                                                                                               O             O                                       @         7 7 6 9 * 7 r 7 9 7 7 7 7 7 - 7 7 7 7 7 q 7 7 7 q 7 7 7 q q 7 7 6 8 0 7 ; q e q 7 6 9 7 X 7 7 9 9 7 0 u 7 0 7 q q q 0 q 7 q 7 q q q q 7 q 7 q 7 q q q 7 q 7 9 0 q 0 q q q q 6 9 6 7 t                                                                                       , , ; q q 7 q 7 q q q 0 q 7 q 7 q 0 q 7 7 9 7 9 9 0 7 q i - X                                                                           ",
"                                                                  O     X   q 7 7 7 7 7 q 7 7 7 7 7 7 7 9 0 7 0 q 0 q 0 7 7 7 7 7 q * ; p     X                                                     q 7 q q                               X q 0 7 q                                                               O             O   O               O                                                                 t 0 7 ;                                                   X , q 7 q X                                                                                                                                                                                                         9 6 9 6 7 * 7 7 9 0 q q 0 9 0 9 q 7 q 0 0 9 7 q q 0 q 0 7 0 9 q q q q q q q ; t 6 9 0 q                                                                                               ; * * 7 7 7 0 7 7 9 7 7 7 7 9 q 7 7 7 0 9 q 9 7 9 7 0 7 7 7 0 9 0 7 q 7 * y t     @     .   O                   X e 7 9 *               X e e q , X                 .                                                                                                           O           .                                                     q q q r q q q 7 9 9 7 7 7 7 7 7 7 7 7 7 7 7 7 7 7 7 0 7 q q 7 7 0 9 9 0 q * ; 7 6 9 9 7 @ 7 7 9 & 7 q 0 q 9 9 7 q 9 q 9 7 7 0 9 7 0 q 0 0 9 7 7 7 7 q 0 q 9 7 9 9 0 7 7 7 7 0 9 9 q 3 X   X                                                                           o   X y t * 0 q 0 0 q 7 7 7 7 7 9 q 0 q 0 0 q 7 7 7 0 6 * 9 7 * ; X   X   O O                                                                 ",
"                                                                  X       X y q r t & * q - i i q q q u t t e q q e q t q q u q * t q q i X   X                                                     q 0 7 i               X                 q 7 q q                                             O       X                         X                                                                             .     t 9 t ,                                                     : q q q                                                                                                                                                                                                       o   q 0 9 0 y , q q e w q q q 7 w t q q e q e t q q q q q q q e : e : y e q q : , q 7 0 6 q X                                                                                   O     X X i e q y * q e q q q * q q q t q q q q t t q q q t t t q q t q q t e q q * q t X                       O           e 7 q *                 : 7 q t                                                                                                                     .               .             O                                         O @ = 7 - ; 3 4 : : q q q q q t q u q y q ; q , q u q y q * : , 2 - q 7 7 7 : t t q 7 7 * - X u * 7 q r u u q q * q q t q q q q t t q e q t e t q q u q e q q q 7 7 q t q q q ; q * * * = X     .     O             .                                                           , q 7 7 q t q q q q q q q q q q e q e q e t q e * * t 7 q i X X                                                                         ",
"                                                                O     X X   , * ; q X X X                             X         X 7 * e q                                                           y q ; 2                                 q 7 0 *       X                                                         .                                                                                                 e 7 q ,                                             X       e q 7 ;                                                                                                                                                                                                     . + O   X X                                                                     X X X * 9 9 e                                                                                 .     X       q q * ,           X       X                                           7 0 7 t   X       O                         e 7 9 *               X t 7 ; ,                                                                                                                                         .                                                 . O   X X X                   X                 X                     X X   X           X                                                                       X                       X X                                                                         O   .     X X t q 7 q           X                           X   X : ; * : X   X     O                                                                 ",
"                                                                            4 : e t         X O                                 X q 7 q ; X                                                         q 7 7 u               O               X 7 0 9 *                                                                     .                 X                                                             X             t q 7 ,                                   .                 : 7 q q X                                                                                                                                                                                                     + + .         O                       .             .     .                         * 7 7 e                                                                                         X   X q e e 4 X                                                             q 0 7 t   X                       .         ; 7 7 *                 t q q e                                                                                                                                                 O                                       .   O           O   .                                           o   O             . .         . O .   . X     X                                             .                   O   o                   .                                                                           q q 7 -                                 O X       X , : : i                                                                             ",
"                                                                            t q q 2           O                                 X q q 7 e                                                           q 7 0 q   X O           X             X t 6 9 ; X X   O                                       +           .     .   .                                                                                     .       e q q t                                       O             t q q e                                                                             X     X X   X       X     X         o                                                                                     O             X           . X   O   O . .       O   .   .   .           .   O     X * 7 7 :                                                                                             X t 7 q ,                                                               q 0 q e             O           .     O     : e : y   O   O   o     t * e q X   O O   .                                                                                                                                                                                                                                                                                                                                                                                                                                           . .   O             X , : q , X                                         X ; q 7 t X       O .                                                                 ",
"                                                                            q 7 7 7                                               q q 7 : X     O                                                   7 7 9 q X X O O               X   O     e 7 7 ;     O                                         O       .   .           .                                                                     .               O X   q q q ; X                                             O     , 7 0 q X                                                                               X 3 = , t t t i t t , ; ; t , , 4   X                                                                                   .             O . O O               .   .     O   o . .       O   X   .     O X X * 7 7 : X                                                                                             , 7 q ,           .                                                   q 7 q ,                             O   X   : e : t   X O       X   t * q ;   X O   .                                                                                                                                                                                                                                                                                                                                           .     .                                                                                                   O             , e q ;                                   .         : 7 7 ;         O                                                                   ",
"                                                                O           , q q 7                                               e e 7 : X     o                                               o   : 7 7 7       O o               O O     e e q *       O                                     O     X     O   O O     .     @                                                                                       q 7 e ;                                                   X : q 7 q X                                                                     O         X 4 i ; * * * ; q * * t 7 e t 4 4                                                                                                                       X       X X           .       O                 X 7 * e :                                                                                           X X t q q t   X         O                                                 e 0 q : X             O           .   O   X : 7 : : X     @       X e * 7 q       O .   .     O                                                                                                                                                                                                                                                                                                                                   O                         .                                                                                           : q q q                                 .           * 7 0 q                                                                             ",
"                                                                            e 0 q q           X                                   * e 7 e                                                           : 7 7 q X   O                 O O O     ; 7 e :     O                                                 X O O O X     .                                                                       .   X           O     q * e e X     .     o   .   . .     . .         X           : 0 7 ;                                                                                   , e e 7 7 7 7 7 7 0 7 7 * * , ,                                                                                                     O   .   X     X                       o . .               .   O X   e : * i   @                                                                             .             t q q , X                                                           X q q 7 e             O                 O     : 7 e 7 X               : 7 r q X   O     .                                                                                                                                                                                                                                                                                                                                               O                 O                                                                               O               : q 7 *     o   .     o   .   .   o   .             * 9 7 q                                                                             ",
"                                                                            e q 7 q                                             X ; q 7 , X                   .                                 .   4 u q * X         X             O     X , q e :     O .                                         X     X O     X   X .   O                                                                                 O       q q e ;                                     X             X ; q q q     O                                                                           X ; : q 7 7 7 7 9 7 9 9 9 7 7 ; ; X X           .                                                                       O                             X X   X   X   X X X               X     .     O     , : , ,                                                                                               t q q ,                       X                                       q 7 q ;             O                   X X * e 7 % X X   X   X X $ * * 7 *       O     .                                                                                                                                                                                                                                                                                                                                                                   O       O                                                                               X   : 7 7 7                                             * 0 0 7                                                                             ",
"                                                                            q w 7 7           O                                   , r q ; X     .                                                   4 q & * X         X X   X   X   X     X * * e ;                                                 X X X       X                                                                                       X       O   X q * e ;                                                     : q 0 q X                                                                               X , , e q 9 7 9 6 9 9 9 6 7 7 ; ;                   O                                                                                     o X 4 4 2 i q q , , , , q ; - = X                       O     X , t p > .                                                                                             , 7 q t                             O                                 q 7 q e X                                   : q r 9 * ; u ; q ; , = e 7 7 :   X       .                                                                                                                                                                                                                                                                                                                                           O                                                                                                       O         X   : 9 9 7   X               X                       X 7 9 0 q X     X                                                                     ",
"                                                                X           ; q q q                                             X ; t 7 :                                                           - y 7 7 * ; , : ; q q ; ; u t q 4 ; : % 9 9 0 q       O                                     .   , t * t e e q * ; ,   o   O                                                                 .               O     q q q q X X                                               X ; q 7 q                                                                       .         X , , : q q 7 * 6 q 0 6 7 7 q q ; X             O                                                                     X                       4 , u ; ; q ; ; , ; q q y 4                       .   O         .     X                                                                                         X t - e t             .                                                 q q q ;                                   X * q 7 * q - u i : e i i e e e t           .     O                                                                                                                                                                                                                                                                                                                                                                 .   O   O O   O                                                                           : 7 9 7                                             q 0 7 q                                                                             ",
"                                                                            : 0 q q                                               e 7 7 e       .       X                                           ; q 7 9 7 q : 7 q 7 0 7 q 7 9 7 e * e * 7 7 9 * X X   O                                         , e : e * * 7 7 7 e     X                                                                                       X ; q e ;               X             X                       ; q q q X                                                                     O           3 4 : ; : q q ; q q e ; q q i i                                                                                                             , ; q 7 q q , 4 4 t q 7 q ,     o                     O   X   X                                                                                     .             t 7 q i   X         X             O                                   q 7 q e X           O         O     O       : e q q i ; ; , t t , : : : e t X                                                                                                                                                                                                                                                                                                                                                                             O                                                                         X   O     .     X   * 7 7 7 X                                           q q 7 q X                                                                           ",
"                                                                            t 0 7 q           O                                 X ; e 9 :       .     X                                           X ; q 6 r * : e q 7 7 7 7 q q 7 7 q e e q 7 7 7 q       X   X                                 O   t 7 e * r 7 7 9 q e X     O                                                                                     X i ; q t                                     O         O     , q q t X                                                                             X     X   X   X     X           X                                                                                                               : q q 7 q q , i 3 * y 7 q ;     X                   O                                                                                                             y ; q , X           .                                                 q 7 q *                                   @ = , y t 4 i u t : 4 4 , , t , = X o                                                                                                                                                                                                                                                                                                                                                                                     X       O                                                               O         X 4 e 0 q                                       X     i 7 q *                                                                             ",
"                                                                .           t q 7 q                                               e q 7 : X   O                                                 X   2 4 - t t t e t q 7 - 7 t t 7 7 e , : , q 7 ; , X   O                                       X   : * 7 7 q 7 6 9 7 :                                                                         .               O     q * q t X                                 O     O   O       i 7 * t     .                                                                                                                                                                                                                         , e 0 7 X X     X X * * q :     O   O                                                                                                                             i 7 q 4   X                         X                                 q 7 q : X           O             . O         X         X   X       X X   X       O         O                                                                                                                                                                                                                                                                                                                                                                 o     .           O                                                       . O . . .       : * * ; X                                 .         t * q :         . X                                                                 ",
"                                                                            e 7 0 q         .                                     q e e : X                                                         O X X           X X   X                   X X X     . .                                         e e e * X X 7 0 7 ,                                                                                         O     q * * e     .               O O     O .   O   O     X       , * * e                                                                       O   X                   O   O                                                                                                                         X , q 0 q   X         q e q ;       .                                                                                                                             X t 7 q ,           O                                                   q 7 q q                         .   O O X       X     X   X   X     X   X               O   O                                                                                                                                                                                                                                                                                                                                                                           .     +     X                                             O                     t e q y   O             O     .   O . X             t e q ,                                                                             ",
"                                                                            ; 0 7 q                                               : 7 7 : X     .             o                                 O   O X                               X                 .                                           : 7 q q   X 7 0 q 4   O                                                                     .           .     X   q * 7 ,     X O   O O   O   O                               : e 7 e                                                                                           O       O O X .   O O   O                                                                                                           ; q 0 7 X   X     X * 7 e :     O O                         .                                                                                                     , - q t                           O                                 X q 7 q : X             O                                         X                   X                                                                                                                                                                                                                                                                                                                                                                       X   X                                                               O       O   o     X     , : * ;       O O   O       O     O     o           * q 7 e                                                                             ",
"                                                                            t q 7 q         O                                   X , q 7 e X                                                       .       .   .               .   O O   X O       O . . . . .                                       t 7 ; ; X X q q 7 2 X                                                                       .             X O     q q q :                                         X       X X : e 7 :     .                                                                                         O   O     .     .                                                                                                             X ; q 7 7     X O     q * q :     . O                       .                                                                                           .         X t 7 q t                                                               ; 7 q ;                         .                     X     .                                                                                                                                                                                                                                                                                                                                                                                               X   X         o                                                                   X       X : r q t                                   X       X q 7 q ;                                                                             ",
"                                                                            q 7 q q                                               ; q 9 ;       .                                               .     X         .           .   O O   . .   O     O   . .                                           q 9 q ; X   q 0 q t                                                                                         O     q e q , X X           X X     X     X       X X     X     X q * 9 7                                                                                                     O             O                                                                                                           , q 9 *     O     X q 9 e ; X             .                 O                                                                                           .         t q q t   X                                                           q 7 q ;           O O                         O O                   O   O O .                                                                                                                                                                                                                                                                                                                                                             O O               X X     X X         O     O                                         O o         X   X   X X % 7 7 - X       X         X     X           X X   X * 6 0 q           O                                                                 ",
"                                                                O           e q 7 *                                             X : q 7 e       o               .                                       O     .               .     .           X     .                                           X * 7 7 q e q 7 7 7 :   X                                                                                           ; e * t % e q : e : : , : : e : e e e : : e q q q e t 4 , % 7 7 9 q     X                                                                                                                                                                                                               . o     X , q 7 q       O     : 7 9 : X   X                                                                                                                               X t 7 q t         .                   O                                 q 7 q e X                             X                                   O                                                                                                                                                                                                                                                                                                                                                     O             .       o   X 5 3 4 , 4 4           O                                               O   X X X t , e , ; ; r e 7 7 q e : e e : : e , q : e e e : : t t t ; , = q 9 0 q                                                                             ",
"                                                                            q q q q         X                                     * e q , X                                                               O         X       .                                                                       e 7 e * e * 7 9 7 :                                                                                     .   X     e q * i e q 7 7 7 7 7 7 q 7 7 7 7 7 q 7 7 e e q * q e ; , e t 6 q t X                                                                                                   X                                                                                                                         : q 7 q       O     : 9 e *                                                                                                                                       t 7 q t X                                                             q 7 q ;             O                         O   O     O             . O   .                                                                                                                                                                                                                                                                                                                                                       .           X     X     4 ; , ; t i X                                                       O           t q * ; ; q * 7 7 7 7 7 7 7 q 7 7 e q q 7 7 7 7 7 7 ; ; e ; e * 7 7 9 q X   X                                                                       ",
"                                                                .     O     : e e i   O O               X                   X   X e q t 4                                                                                                                                                           , , * t * * q 7 q ,     O                                                                                       X 4 t , , e q 7 7 7 7 7 q 7 7 7 7 7 q 7 7 7 : q e e e : : : , , t t , X                                                                                                                                                     @     O   X             .   .             O                         X   i q ; q       O O   i 7 e e                                                                                                                                       : 7 q ,   X       . .             .       .   .   .       .   .       q 7 q ,                                                                                                                                                                                                                                                                                                                                                                                                                                         O         X : e 7 7 ; ,   X                                                           X   X q 9 7 7 * e ; q * q q q * q e e e e : * e 9 9 9 & 7 e q ; q t q q ; q 4     X                                                                       ",
"                                                                    O   X   : e * y     O O   o                                 X t : , i   X                                                                                                                                                   X   , 4 = y t t t q , 2 X                                                                                             = 4 , , i q e : e : e e e : e : e , : : * : 4 : , , , , : t : , t = X                                                                                                                                           O               O       X                                                       X i i ; e X     O X   * * e * X                                                                                                             .                   X X e * q ,                             .                                 q 0 q q X                                                                                                                                                                                                                                                                                                                                                                                                                       O                 O O       : 7 9 0 q q         O                                                           q 0 9 q = , ; t t i : : , : : : e t 4 , * 7 7 r q 7 q , , , t t ; , 2 4 X X X                                                                       ",
"                                                                  .   O   X : 7 : e   X   X   X       X .     X X   O     X X   X 7 , ; ,   X                                                                                                                                                       X X   X   X X     X                                                                                               X   X       X           X X       X X         X X   X X X                                                                                                                                                       O             O       X     X           X   X X   X   X   X           X     X X X & e 7 7 X     X     e r e :   X                                                                                                                                   t * q t   X     O O   O                                               q 0 q q                                                                                                                                                                                                                                                                                                                                                                                                                                         O           q q 7 7 q ,                                                                     q 0 6 * X   X X   X   X X X   X X         e 7 7 - X X X X   X     X   X         X                                                                   ",
"                                                                      O     : 7 e 7 X                                             - ; i ,                                                                                                                                                           o       X     X     X O   O                                                                           O     X           X                                                   X       X     O                                                                                                                                                 .     O     = , y q q ; q e e t q q u 2 q u q t t e t t t e t t : * * 7 q 9 7 7 e i t = X X % 7 9 : X     X                                                                                                                               t q q q X                 O           O                           X X q 9 q t   X                                                                                                                                                                                                                                                                                                                                                                                                                                 .       O   X X q q 7 7 * : X X                                                     O           ; q 7 q X     X                         o t e e i X     X     X             O   O                                                                   ",
"                                                                          X * q 7 % X X X X     X X     X       X       X     X X 7 q q t                                                                                                                                                                 X                                                                                               O O   O         X     O   O O   O   O   O     O     O X     O                     O O                                                                                                                                 .                         X 4 t q 0 q q q 7 * q q 7 7 0 0 7 7 7 * q ; : e ; e ; e e e q 7 7 7 9 7 * ; y u u q 9 e 7   X                                                                                                         .                         i 7 q u X X                                 X                   X     7 9 * :   X                                                                                                                                                                                                                                                                                                                                                                                                                                     O   O     X : q q q : 4         O                                                           ; q q *                             X     4 , * 3                   o O       . O                                                                   ",
"                                                                          X : e r 9 * ; 2 t ; * , , : : t e : : : t e : , , , , * q q i ; X                                                                                                                                                       O                     O   O o                                                                         O     O O   @ O                   .         O     . O   O   O   .         .   X O O O                                                                                                                                         O                     , : 7 6 q q q e * q q q q q 7 q q q q q e q q e e q - ; t q 7 6 7 9 7 7 * q q q 7 7 q :       O                                                                                                                               t q q t     X                                                         q 7 q :   X                                                                                                                                                                                                                                                                                                                                                                                                                                                 , e 7 q t ,                                                         .           : q e t               O   O         O X   i t : 4                         O     O                                                                   ",
"                                                                          X * q 7 * ; q u u : e * * q e q 7 e 7 q q 7 e 7 : q q q t ; t :     X                                                                                                                                                                 .   .   .                                                                                   O           X                                                             .                                                                                                                                                         .       X   4 * t 7 : : t t , , , , 2 , 2 , t i q ; t q 2 t 4 ; i q i 7 y - q 7 7 9 7 q - q * e e : X                                                                                                                                     y ; q 4                             .         X       X   .           q 7 q :                   O O                                                                                                                                                                                                                                                                                                                                                                                                                   O           , , q q , 4                     O                                               : q * t     X                       X     : : : , X     O         O           .                                                                     ",
"                                                                    O       : : q q i - ; 4 e e : q 7 7 q 7 * 7 7 7 : 7 7 7 7 7 i ; ; t i     X                                                                                                                                                   O     O   . O O   .       X                                                                                   O       O                                                       .         .   X                                                                                                                                       O                   X i : y % X X           X   X         X     X     X     X     4 = i q 7 7 7 q ; i * e t 3                                                                                                                           X           t * e 4         o   . o         .         .   .   O           .   O   q 7 * , X         X                                                                                                                                                                                                                                                                                                                                                                                                             O                         X 4 , : : , i                                                                     * q 7 t     .     .     .   .             : e e ; X   X   O   O     .   O                                                                           ",
"                                                                          X = 4 , t 4 i u t t , q u q u u u u u , t u q u u q i i ; , 4 = X                                                                                                                                                               O   .                                                                                                           .                           X                                                                                                                                                                             . O                     , e , > X                             X               X     X       * 9 * q X X     X                                                                                                                                       X ; ; - p         O   X             X . X   O     O X     O             * 7 ; :               O                                                                                                                                                                                                                                                                                                                                                                                                                           .       X > i , t 4 > o                                                                   q 9 0 ;           . O                 X   , : : ;           .                                                                                       ",
"                                                                  . O         X   X     X   X   X   X   X               X   X   X X   X                                                                                                                                                                     O   O                                                                                                                                                                                                                                                                                                                                         X : , , ,                                                           X * 7 q ;   X   X         .   .                                                                                                   .                         , i y i   X     .                                             X       e r t ,         O                                                                                                                                                                                                                                                                                                                                                                                                                                             X   X           .                                                           X q 7 7 q X                               X , e e q X                                                                                                 ",
"                                                                .   O O         X     X   X   X X   O   X     X X   @ O X O X                                                                                                                                                                                                                                                                                           .                   X                       O   O                                                                                                                                                                                 X : e e e X         O                                                 q 7 q ;     X         . .   .                                                                                                                     .     X ; ; * - X       X         X   X X     X           X   X     X   X   X * 7 * ,       X                                                                                                                                                                                                                                                                                                                                                                                                                     X   O       .         X       X         O                 .                                     X     X q 0 0 q               O                   , : q ;                             X                                                                     ",
"                                                                        . X                     O       O               O         X       X                                                                                                                                                                                                                                                                                                         .                 O         O                                                                                                                                                     O O       .   X       , e e q X                                                           t q q ; X                                                                                                                                   O   O     X   i t q t * q : , y : * r q e q ; e t t t t t * t q t q i q , q t 4 : q q q q ,                                                                                                                                                                                                                                                                                                                                                                                                                                                                                                                                     7 0 9 7             O   O           O X   4 ; e 2 X X                                                                                               ",
"                                                                .                     X             .   .     . .   .       .                                                                                                                                                                       .                                                                                                                           o     . .   o   .   .   .                   O   O     O   O                                                                                                                                               O               X , e q ; X                                             .             ; q 7 :         .     .                                                                                                                         .         ; t ; 7 * 7 7 q e e q 7 7 7 q * * * : 7 7 * 7 7 * 7 q * 7 * 7 q q * 7 7 q t ,       o   O                                                                                                                                                                                                                                                                                                                                                                                                                     O                     X                                                                             q 7 7 q             O             O O   X , : q u                                                                                                   ",
"                                                                            O                                                     . X       .                                                                                                                                                                               O                                                                                                                                                                                                                                                                                                           O                 X ; t q q X       O   X                                               e 0 q : X           O                                                                                                                                     = t y 7 9 7 * e e e q 7 7 7 q e q e e q q q e * q e q q q : 7 e q 7 q 7 q , 4                                                                                                                                                                                                                                                                                                                                                                                                                                                       O   X                           o                                   O         q 0 7 *         .     O               X   4 : t q X                                                                                                 ",
"                                                                          X     O                                                   O         O                                                                                                                                                 o .               X         O                                                                                                                                 X                                                                                                                                                                                     O       , t e ,   X   O O O             O       O                       O   q 7 7 :             O         X                                                                                                               O       X X ; t q ; y : = , 2 4 t : : q ; t t 4 4 , 4 , , : , t ; 2 , : , t ; ; t q q ; 4                                                                                                                                                                                                                                                                                                                                                                                                                               O         .   .                   O O   .                                                 O           q q 7 q           .                       , e e ,               . O O   O   O                                                                       ",
"                                                                                    O     O                                     O       .     .                                                                                                                                                                       O                                                                         O         O     O     O                                                 .       .                                                                                                                                                                           : e , :       O     O         X   O O       O   O                   q 9 7 : X       . O                                                                                                                                       X   X   X     X       X   X           X     X     X     X     X       X   X X   .                                                                                                                                                                                                                                                                                                                                                                                                                               O                           o .                                                         . X       t 7 7 q                                   , : e ; X                   .           X                                                                 ",
"                                                                                                                                                                                                                                                                                                                                                                                                                                                                                                                                                                                                                                                . O     X   y : , ,         .     .       .                                     * 9 * q         .                                                                                                                                                 X                                                                                                                                                                                                                                                                                                                                                                                                                                                                                                                                                                                             O         X i : : ,         X O             X     X   i ; ; t                 .                                                                                 ",
"                                                                                                                                                                                                                                                                                                                                                                                                                                                                                                                                                                                                                                O                 O O X     e * , t X   X                       X       X                     X 7 7 q q X X         O                                                                                                                                                 .   O   X X   O O     X                                                                                                                                                                                                                                                                                                                                                                                                                                                                                                                                                                               , * ; : X X X                     X X   X e , q y                       .       .                                                                   ",
"                                                                                                                                                                                                                                                                                                                                                                                                                                                                                                                                                                                                                                  .                       X i e q y & 7 w q e q e t q t t t e q 4 q u q ; t q u t q q q q t u 7 7 7 q t             X                                                                                                                                                                                                                                                                                                                                                                                                                                                                                                                                                                                                                                                                                                                                           O       X X i q 9 t * * e ; t e t , , t t t q q ; ; - q q 7 q X     .                                                                                           ",
"                                                                                                                                                                                                                                                                                                                                                                                                                                                                                                                                                                                                                                  .               O O       ; * 6 9 6 6 9 7 7 9 7 7 7 7 7 7 7 7 7 7 7 7 7 7 7 7 7 0 q 0 0 q 7 7 7 - y i   X o     O                                                                                                                                                 X   O   X X X X   O .                                                                                                                                                                                                                                                                                                                                                                                                                                                                                                                                                                         O X   X   7 * * 9 * 6 0 7 7 7 q q q q q 7 q q y t e 7 ; ; t                                                                                                   ",
"                                                                                                                                                                                                                                                                                                                                                                                                                                                                                                                                                                                                                                  X               O       X , : 7 9 q 7 7 0 7 q q q q 7 q q q q 7 7 q 7 q 7 q 7 7 q q 0 7 7 7 q ; ; i , X         O                                                                                                                                                 .       ; , : = X                                                                                                                                                                                                                                                                                                                                                                                                                                                                                                                                                                             O     X X ; q 7 7 9 7 9 6 9 7 9 0 7 0 7 7 q q * ; q q t , t                                                                                                   ",
"                                                                                                                                                                                                                                                                                                                                                                                                                                                                                                                                                                                                                                                    O     X , t ; * q q q t t t u t t , t y q : 2 t i q t y t q t t t e i t i q , ; 4 >     X                                                                                                                                                               4 y t t       X                                                                                                                                                                                                                                                                                                                                                                                                                                                                                                                                                                               X = 4 - q q q q * t 7 e t q q q q q t t t , 4 i i ; X                                                                                                 ",
"                                                                                                                                                                                                                                                                                                                                                                                                                                                                                                                                                                                                                                                O O         X   X                             X                                 X               O     O                                                                                                                                             X       , * * *       .                                                                                                                                                                                                                                                                                                                                                                                                                                                                                                                                                                     .   .       X     X   X   X   X   X X   X X     X           X                                                                                                   ",
"                                                                                                                                                                                                                                                                                                                                                                                                                                                                                                                                                                                                                                                    .   O                                                                         X         .                                                                                                                                                   X           q 7 q t X         O                                                                                                                                                                                                                                                                                                                                                                                                                                                                                                                                                                   .     .                                             X                                                                                                         ",
"                                                                                                                                                                                                                                                                                                                                                                                                                                                                                                                                                                                                                                                .   O       X                                                                                                                                                                                                                                               7 9 7 *                                                                                                                                                                                                                                                                                                                                                                                                                                                                                                                                                                             .   .   .       O   O       O                               X     X     X                                                                                       ",
"                                                                                                                                                                                                                                                                                                                                                                                                                                                                                                                                                                                                                                                                                                                                                                                                                                                                                                  O       X q 9 7 7 X                                                                                                                                                                                                                                                                                                                                                                                                                                                                                                                                                                                             O   . O O   .   . .     . .         X       X     X   X                                                                                       ",
"                                                                                                                                                                                                                                                                                                                                                                                                                                                                                                                                                                                                                                                                                                                                                .                                                                                                                                                         X q 0 0 7 X       X                                                                                                                                                                                                                                                                                                                                                                                                                                                                                                                                                                     X                                                   , , t , e t 4 4 3 4                                                                                       ",
"                                                                                                                                                                                                                                                                                                                                                                                                                                                                                                                                                                                                                                            X                                                                                               .                                                                                                                                                               * q 7 q                                                                                                                                                                                                                                                                                                                                                                                                                                                                                                                                                                                   X                                           X   i i e & 7 q = , i p     X                                                                                 ",
"                                                                                                                                                                                                                                                                                                                                                                                                                                                                                                                                                                                                                                    O               .     O     O   . X                   . O   O   O     . O   .       O   .                                                                                                                                                                               q q r ;                                                                                                                                                                                                                                                                                                                                                                                                                                                                                                                                                                                                   X                         X   X t ; e q t y ; t , 4             .                                                                         ",
"                                                                                                                                                                                                                                                                                                                                                                                                                                                                                                                                                                                                                                .                           O                         O   O   . .                     O                                     .                                                                                                                                             X q q q : X                                                                                                                                                                                                                                                                                                                                                                                                                                                                                                                                                                                                         X                 X     t , ; * q q * ; ; t                                                                                       ",
"                                                                                                                                                                                                                                                                                                                                                                                                                                                                                                                                                                                                                                      O         .                                                                                                                                                                                                                                                           q e q ;                                                                                                                                                                                                                                                                                                                                                                                                                                                                                                                                                                                       . .             O   O                       , 4 t i t q t q t q X                                                                                     ",
"                                                                                                                                                                                                                                                                                                                                                                                                                                                                                                                                                                                                                                O         O                                                                                                                                                                                                                                                                 q q q ,                                                                                                                                                                                                                                                                                                                                                                                                                                                                                                                                                                                   .         .           O   O     O     O   o             X X X X     X                 .                                                                   ",
"                                                                                                                                                                                                                                                                                                                                                                                                                                                                                                                                                                                                                                                                                                                                                                                                                                                                                                            e 0 q q                                                                                                                                                                                                                                                                                                                                                                                                                                                                                                                                                                                                                                                                                                                                             ",
"                                                                                                                                                                                                                                                                                                                                                                                                                                                                                                                                                                                                                                                                                                                                                                                                                                                                                                            , q q q           .                                                                                                                                                                                                                                                                                                                                                                                                                                                                                                                                                                                                                                                                                                                                 ",
"                                                                                                                                                                                                                                                                                                                                                                                                                                                                                                                                                                                                                                                                                                                                                                                                                                                                                                X           ; q q 7                                                                                                                                                                                                                                                                                                                                                                                                                                                                                                                                                                                                                                                                                                                                             ",
"                                                                                                                                                                                                                                                                                                                                                                                                                                                                                                                                                                                                                                                                                                                                                                                                                                                                                                            e 7 q q           O                                                                                                                                                                                                                                                                                                                                                                                                                                                                                                                                                                                                                                                                                                                                 ",
"                                                                                                                                                                                                                                                                                                                                                                                                                                                                                                                                                                                                                                                                                                                                                                                                                                                                                                          X , 0 0 ;                                                                                                                                                                                                                                                                                                                                                                                                                                                                                                                                                                                                                                                                                                                                             ",
"                                                                                                                                                                                                                                                                                                                                                                                                                                                                                                                                                                                                                                                                                                                                                                                                                                                                                                            , q 7 q                                                                                                                                                                                                                                                                                                                                                                                                                                                                                                                                                                                                                                                                                                                                             ",
"                                                                                                                                                                                                                                                                                                                                                                                                                                                                                                                                                                                                                                                                                                                                                                                                                                                                                                            e q 0 q                                                                                                                                                                                                                                                                                                                                                                                                                                                                                                                                                                                                                                                                                                                                             ",
"                                                                                                                                                                                                                                                                                                                                                                                                                                                                                                                                                                                                                                                                                                                                                                                                                                                                                                            ; 7 7 q                                                                                                                                                                                                                                                                                                                                                                                                                                                                                                                                                                                                                                                                                                                                             "
};
