/* XPM */
static const char *two_dots[] = {
/* columns rows colors chars-per-pixel */
"30 80 2 1 ",
"  c #000000",
". c #FFFFFF",
/* pixels */
"..............................",
"..............................",
"..............................",
"..............................",
"..............................",
"..............................",
"..............................",
"..............................",
"..............................",
"..............................",
"..............................",
"..............................",
"..............................",
"..............................",
"..............................",
"..............................",
"..............................",
"..............................",
"..............................",
".........           ..........",
".........           ..........",
".........           ..........",
".........           ..........",
".........           ..........",
".........           ..........",
".........           ..........",
".........           ..........",
".........           ..........",
".........           ..........",
".........           ..........",
"..............................",
"..............................",
"..............................",
"..............................",
"..............................",
"..............................",
"..............................",
"..............................",
"..............................",
"..............................",
"..............................",
"..............................",
"..............................",
"..............................",
"..............................",
"..............................",
"..............................",
"..............................",
"..............................",
".........           ..........",
".........           ..........",
".........           ..........",
".........           ..........",
".........           ..........",
".........           ..........",
".........           ..........",
".........           ..........",
".........           ..........",
".........           ..........",
".........           ..........",
"..............................",
"..............................",
"..............................",
"..............................",
"..............................",
"..............................",
"..............................",
"..............................",
"..............................",
"..............................",
"..............................",
"..............................",
"..............................",
"..............................",
"..............................",
"..............................",
"..............................",
"..............................",
"..............................",
".............................."
};
