/* XPM */
static const char *victory[] = {
/* columns rows colors chars-per-pixel */
"800 600 255 2 ",
"   c #000000",
".  c #090102",
"X  c #000905",
"o  c #080904",
"O  c #00050A",
"+  c #09020A",
"@  c #000A0C",
"#  c #0B0909",
"$  c #00110D",
"%  c #001609",
"&  c #000511",
"*  c #000B12",
"=  c #000D1A",
"-  c #0B0511",
";  c #001314",
":  c #001915",
">  c #00131A",
",  c #021C1C",
"<  c #0B1D1C",
"1  c #091816",
"2  c #121C1C",
"3  c #100009",
"4  c #04231E",
"5  c #0A221E",
"6  c #00291F",
"7  c #15211F",
"8  c #001522",
"9  c #021D22",
"0  c #0B1E22",
"q  c #011E29",
"w  c #0B1F29",
"e  c #111E22",
"r  c #121D29",
"t  c #000F20",
"y  c #042525",
"u  c #0A2324",
"i  c #012925",
"p  c #092826",
"a  c #022629",
"s  c #0A2429",
"d  c #012A2A",
"f  c #0A2A2B",
"g  c #112224",
"h  c #112329",
"j  c #02322E",
"k  c #002631",
"l  c #002C32",
"z  c #0C2A31",
"x  c #003338",
"c  c #212B22",
"v  c #003840",
"b  c #233E49",
"n  c #074A4B",
"m  c #1C4445",
"M  c #1C4649",
"N  c #144D4D",
"B  c #1B4C4D",
"V  c #164A47",
"C  c #0C534E",
"Z  c #08554E",
"A  c #14534E",
"S  c #1C514D",
"D  c #185047",
"F  c #044C54",
"G  c #0C4E54",
"H  c #0C4E59",
"J  c #044F5A",
"K  c #144E53",
"L  c #1C4E54",
"P  c #134E5A",
"I  c #1B4E5A",
"U  c #1E4650",
"Y  c #045455",
"T  c #0D5555",
"R  c #035B56",
"E  c #0B5955",
"W  c #04555C",
"Q  c #0C565B",
"!  c #025B5D",
"~  c #0A595D",
"^  c #145355",
"/  c #1A5255",
"(  c #125955",
")  c #12545B",
"_  c #1A535A",
"`  c #13595B",
"'  c #19595B",
"]  c #1C5956",
"[  c #22454A",
"{  c #234B4C",
"}  c #28484A",
"|  c #224D53",
" . c #264D56",
".. c #225254",
"X. c #21535A",
"o. c #265557",
"O. c #2B5150",
"+. c #01605D",
"@. c #086159",
"#. c #14655E",
"$. c #124F60",
"%. c #035663",
"&. c #0B5662",
"*. c #025B63",
"=. c #0B5B63",
"-. c #035669",
";. c #025B69",
":. c #0A5C6A",
">. c #0C5669",
",. c #135461",
"<. c #1A5561",
"1. c #135A62",
"2. c #1A5962",
"3. c #115B69",
"4. c #045D71",
"5. c #255062",
"6. c #016164",
"7. c #0B6265",
"8. c #03616A",
"9. c #0B616B",
"0. c #09686C",
"q. c #13656C",
"w. c #016271",
"e. c #19777B",
"r. c #237B7A",
"t. c #297979",
"y. c #347674",
"u. c #2E776D",
"i. c #17837D",
"p. c #09857D",
"a. c #177E85",
"s. c #227C80",
"d. c #0E8685",
"f. c #018B8C",
"g. c #088789",
"h. c #198185",
"j. c #168488",
"k. c #008B93",
"l. c #068995",
"z. c #189A9A",
"x. c #0F8D90",
"c. c #288386",
"v. c #2B9D9D",
"b. c #289A97",
"n. c #339D9C",
"m. c #399998",
"M. c #2E8E8E",
"N. c #16A59E",
"B. c #2BA39D",
"V. c #25A59C",
"C. c #32A29E",
"Z. c #3AA19A",
"A. c #2E9EA2",
"S. c #259DA8",
"D. c #339EA2",
"F. c #3B9DA3",
"G. c #3C9EAA",
"H. c #379EAA",
"J. c #0DABA5",
"K. c #02ADAC",
"L. c #0EAEAD",
"P. c #07A9A6",
"I. c #1EA7A5",
"U. c #14ACA4",
"Y. c #1CA9A5",
"T. c #1DA6AA",
"R. c #12ADAD",
"E. c #1CAAAB",
"W. c #14A6A9",
"Q. c #01B3AD",
"!. c #0DB1AD",
"~. c #02B7AB",
"^. c #13B1AD",
"/. c #18B3A9",
"(. c #02AEB3",
"). c #0DAEB2",
"_. c #0CAEBB",
"`. c #06AEBB",
"'. c #13ADB2",
"]. c #1CADB4",
"[. c #13AEB9",
"{. c #1CAEBB",
"}. c #1BA7B5",
"|. c #01B5B5",
" X c #0BB3B3",
".X c #01B9B5",
"XX c #02B5BA",
"oX c #0BB5BD",
"OX c #03B9BB",
"+X c #0AB9BD",
"@X c #0CB9B5",
"#X c #14B2B4",
"$X c #1AB1B5",
"%X c #13B3BC",
"&X c #1AB2BB",
"*X c #13BABD",
"=X c #18B9BA",
"-X c #22A6A5",
";X c #2DA2A2",
":X c #22A9A4",
">X c #2BA9A5",
",X c #22A6AA",
"<X c #2BA5AC",
"1X c #23AAAB",
"2X c #2BAAAC",
"3X c #33A3A4",
"4X c #3AA3A6",
"5X c #33A9A5",
"6X c #34A4AB",
"7X c #3AA3AA",
"8X c #32AAAC",
"9X c #3AAAAC",
"0X c #26B3AD",
"qX c #2BA5B2",
"wX c #24ACB3",
"eX c #2BAAB3",
"rX c #23ADBA",
"tX c #29A8B6",
"yX c #33A6B3",
"uX c #32ABB3",
"iX c #38A7B6",
"pX c #22B2B5",
"aX c #22B3BB",
"sX c #2AB3B5",
"dX c #35B0B5",
"fX c #1F9DA9",
"gX c #439C9D",
"hX c #489799",
"jX c #549899",
"kX c #43A09C",
"lX c #439DA4",
"zX c #4B9DA3",
"xX c #469DA9",
"cX c #529BA1",
"vX c #43A2A3",
"bX c #43A4AA",
"nX c #48A2A6",
"mX c #43A6B2",
"MX c #0AAEC3",
"NX c #14AEC5",
"BX c #05B5C3",
"VX c #0BB5C2",
"CX c #05B9C2",
"ZX c #0BBAC3",
"AX c #0DB5C9",
"SX c #0DBAC9",
"DX c #06BAC9",
"FX c #12B4C3",
"GX c #1BB4C2",
"HX c #12BAC3",
"JX c #13B4CA",
"KX c #12BBCB",
"LX c #18BCC7",
"PX c #22B3C2",
"IX c #0EC0C7",
/* pixels */
"                                                                                                                                                                                                                                                                                                                                                                                                                                                                                                                                                                                                                                                                                                                                                                                                                                                                                                                                                                                                                                                                                                                                                                                                                                                                                                                                                                                                                                                                                                                                                                                                                                                                ",
"                                                                                                                                                                                                                                                                                                                                                                                                                                                                                                                                                                                                                                                                                                                                                                                                                                                                                                                                                                                                                                                                                                                                                                                                                                                                                                                                                                                                                                                                                                                                                                                                                                                                ",
"                                                                                                                                                                                                                                                                                                                                                                                                                                                                                                                                                                                                                                                                                                                                                                                                                                                                                                                                                                                                                                                                                                                                                                                                                                                                                                                                                                                                                                                                                                                                                                                                                                                                ",
"                                                                                                                                                                                                                                                                                                                                                                                                                                                                                                                                                                                                                                                                                                                                                                                                                                                                                                                                                                                                                                                                                                                                                                                                                                                                                                                                                                                                                                                                                                                                                                                                                                                                ",
"                                                                                                                                                                                                                                                                                                                                                                                                                                                                                                                                                                                                                                                                                                                                                                                                                                                                                                                                                                                                                                                                                                                                                                                                                                                                                                                                                                                                                                                                                                                                                                                                                                                                ",
"                                                                                                                                                                                                                                                                                                                                                                                                                                                                                                                                                                                                                                                                                                                                                                                                                                                                                                                                                                                                                                                                                                                                                                                                                                                                                                                                                                                                                                                                                                                                                                                                                                                                ",
"                                                                                                                                                                                                                                                                                                                                                                                                                                                                                                                                                                                                                                                                                                                                                                                                                                                                                                                                                                                                                                                                                                                                                                                                                                                                                                                                                                                                                                                                                                                                                                                                                                                                ",
"                                                                                                                                                                                                                                                                                                                                                                                                                                                                                                                                                                                                                                                                                                                                                                                                                                                                                                                                                                                                                                                                                                                                                                                                                                                                                                                                                                                                                                                                                                                                                                                                                                                                ",
"                                                                                                                                                                                                                                                                                                                                                                                                                                                                                                                                                                                                                                                                                                                                                                                                                                                                                                                                                                                                                                                                                                                                                                                                                                                                                                                                                                                                                                                                                                                                                                                                                                                                ",
"                                                                                                                                                                                                                                                                                                                                                                                                                                                                                                                                                                                                                                                                                                                                                                                                                                                                                                                                                                                                                                                                                                                                                                                                                                                                                                                                                                                                                                                                                                                                                                                                                                                                ",
"                                                                                                                                                                                                                                                                                                                                                                                                                                                                                                                                                                                                                                                                                                                                                                                                                                                                                                                                                                                                                                                                                                                                                                                                                                                                                                                                                                                                                                                                                                                                                                                                                                                                ",
"                                                                                                                                                                                                                                                                                                                                                                                                                                                                                                                                                                                                                                                                                                                                                                                                                                                                                                                                                                                                                                                                                                                                                                                                                                                                                                                                                                                                                                                                                                                                                                                                                                                                ",
"                                                                                                                                                                                                                                                                                                                                                                                                                                                                                                                                                                                                                                                                                                                                                                                                                                                                                                                                                                                                                                                                                                                                                                                                                                                                                                                                                                                                                                                                                                                                                                                                                                                                ",
"                                                                                                                                                                                                                                                                                                                                                                                                                                                                                                                                                                                                                                                                                                                                                                                                                                                                                                                                                                                                                                                                                                                                                                                                                                                                                                                                                                                                                                                                                                                                                                                                                                                                ",
"                                                                                                                                                                                                                                                                                                                                                                                                                                                                                                                                                                                                                                                                                                                                                                                                                                                                                                                                                                                                                                                                                                                                                                                                                                                                                                                                                                                                                                                                                                                                                                                                                                                                ",
"                                                                                                                                                                                                                                                                                                                                                                                                                                                                                                                                                                                                                                                                                                                                                                                                                                                                                                                                                                                          +                                                                                                                                                                                                                                                                                                                                   . .                                                                                                                                                                                                                                                                                                                               ",
"                                                                                                                                                                                                                                                                                                                                                                                                                                                                                                                                                                                                                                                                    .                                                                                                                                                                                                                                                                                                               X   . . & O   +       X   X       +   O           O                                                                                                                                                                                                                                                                           +     .   + . . +   o     O X                                                                             X X           +   +       +     X   .                         +     .                             .                                                                                                                                 ",
"                                                                                                                                                                                                                                                                                                                                                                                                                                                                                                                                                                                                                                                +                                                                                                                                                                                                                                                                                                                                 O X . . . & & O X X X X & O X @ X   O & O X O X X & O O X X X               O                                                                                                                                                                                                                                         .       +     X     . + +           . +       .                                                     O   X     . +   X @ X X O @ O O & O O X O O O X X                       X         . . .             .                                                                                                                                               ",
"                                                                                                                                                                                                                                                                                                                                                                                                                                                                                                                                                                                                                                                                                                                                                                                                                                                                                                                                                                        .                 @ { _ _ ) / ^ ) _ ) ' E E ) _ ,.Q E E E T P _ L { X       . .                                                                                                                                                                                                                                           X             O         X O O O O           O                                                 O             O     .   .   @ [ A ( ( ` ) ) Q E Q E T ,.P | X                                   .                             .                                                                                                                                 ",
"                                                                                                                                                                                                                                                                                                                                                                                                                                                                                                                                                                                                                                                                                                                                                                                                                                                                                                                                                                +     .   . .       X       / Y %.%.%.=.%.*.%.%.! *.%.%.-.*.! ! ! *.*.;.~ _ O X X . . . +                                                                                                                                                                                                                                               .         O   X     @ @ O @     X           . . X                                                       +           O o.Q ! ! *.*.*.;.6.*.;.-.:.>.<.@                                   .       X                                                                                                                                                       ",
"                                                                                                                                                                                                                                                                                                                                                                                                                                                                                                                                                                                                                                                                                                                                                                                                                                                                                                                                                                  .     + .   .   O   X X X ` 6.8.8.*.! &.%.=.%.! ! *.%.%.*.*.! R *.*.;.*.) & O X   . .                                                                                                                                                                                                                                                   .       O       X { / / [ X       X                 O                                                         X O O K &.%.~ *.6.! 6.*.*.;.-.;.%.,.&                   .     .       .                 .                                                                                                                                               ",
"                                                                                                                                                                                                                                                                                                                                                                                                                                                                                                                                                                                                                                            X               .         X                 O                                                                                                                                                                                                                                                                                               X X ( ! ! 8.F ) ' ,.,.P Q E ) ) Q ) T ) _ E ;.;.;.) &         .                                                                                                                                                                                                                                         +         .     O       O X ^ Q Q / X X     O       .       +                                                 X           O @ o.>.=.1.F ` T E ` ,.H :.:.*.Q & O     .     .   .       .   .     .             .                                                                                                                                                 ",
"                                                                                                                                                                                                                                                                                                                                                                                                                                                                                                                                                                                                                                                                              . . .                                                                                                                                                                                                                                                                                               +       X T ! *.Q ; @ O O & & O @ @ O O & O O & > &.*.! T O                                                                                                                                                                                                                                                                   X         @ ( ! *.) @ X             .                                                             .         @ N :.>.G ; @ X X X O = H %.! E X                                                                                                                                                                                                   ",
"                                                                                                                                                                                                                                                                                                                                                                                                                                                                                                                                                                                                                                                            .             +   +                                                                                                                                                                                                                                                                                                   + + +   X Q *.~ _ X O O   O O   O       +   +   & ) *.! ( X                                                                                                                                                                                                                                                       X     .         X     & E *.*.Q &     O                                                                 . +           O @ _ W =.' X           O ' ! +.~ X     .         O                               . .                                                                                                                                                 ",
"                                                                                                                                                                                                                                                                                                                                                                                                                                                                                                                                                                                                                                                X         .             .                 X                                                                                                                                                                                                                                                                                       + .   . O ) ! ! T X                   X   .     O E ! ! T X                                                                                                                                                                                                                                                             .               O ~ ;.6.~ O               .                                                         + X         O & _ >.=./ X X         O ^ ! ! E O .   . .   .                       O O   +                                                                                                                                                         ",
"                                                                                                                                                                                                                                                                                                                                                                                                                                                                                                                                                                                                                                                      X                                                                                                                                                                                                                                                                                                                     X     X + +   O Q *.! ^ X   X                 .       X Q ! +.T O                 O                                                                                                                                                                                                                                                     . . + & ~ 6.6.~ & + .                 X                                                               X @ ^ %.>.L @         O O _ *.! Q   . .         X   X O X O     X X X   X O     . .                                                                                                                                                   ",
"                                                                                                                                                                                                                                                                                                                                                                                                                                                                                                                                                                                                                                                  +               +                   X                                                                                                                                                                                                                                                                           . .       X         . + X Q *.*.) O       +       X             X ~ *.*.Q O                                                                                                                                                                                                                                                         X               . + O &.;.;.&.& + .                                                                   .   .         O & _ =.&.^ @ X     O + & P %.*.T O       X   X , 5 5 u u 4 y y u 5 5 u < X                                                                                                                                                           ",
"                                                                                                                                                                                                                                                                                                                                                                                                                                                                                                                                                                                                                                                  X         X               O   X X                                                                                                                                                                                                                                                                             .   . . .     X       +   X ) *.*._ O   .     O                 O O Q ;.;.Q &     .   + + +   .                                                                                                                                                                                                                                               .       . . O Q ;.;.Q O . . .     .                                               O             .           O @ _ =.=./ @ O     O O & $.%.! Q O     X     X u u p y y i y i a y 4 u 5 O     .                                                                                                                                                     ",
"                                                                                                                                                                                                                                                                                                                                                                                                                                                                                                                                                                                                                                                        O O   O +       O   O       +   . . . .                                                                                                                                                                                                                                                                     .   .           O +   O Q 6.%._ O .     .                 X   O ,.-.;.&.O O       O     .                                                                                                                                                                                                                                         O                 + O Q *.*.Q O .                 O                                                                 X O / ! ~ ^ @     O O O & ~ ! +.T X         X X 5 4 y i i a i a y a y u 4           +                                                                                                                                                 ",
"                                                                                                                                                                                                                                                                                                                                                                                                                                                                                                                                                                                                                                            .   X         O O     X O O O O O X O O O         .                                                                                                                                                                                                                                                                       . . .       O       X Q *.;.,.O .                           O _ -.;.$.O                 .                                                                                                                                                                                                                                                       X   O ) *.*.( O                   O                                       O                         O & / E ~ / @   +       X E ! +.Q O           X u u y a i d i d d a y y u @ O +           X                                                                                                                                           ",
"                                                                                                                                                                                                                                                                                                                                                                                                                                                                                                                                                                                                                                              . +     X O   * X X @ @ X @ @ @ @ X X O @ X X X                                                                                                                                                                                                                                                                         . . .           +   X Q *.;.&.O   X             . .         X ) %.*.) X           X                                                                                                                                                                                                                                       .     O               X   O _ *.%.) O   X X                 +                                     O                       O @ I ~ =.K X   .       O ^ R ~ ) &     .   O   0 y y a d d a a a a a y 4 X   +                                                                                                                                                       ",
"                                                                                                                                                                                                                                                                                                                            O                                                                                                                                                                                                                                                                                                               .             O } | B A / A / ^ / / / / S { @ X                                                                                                                                                                                                                                                                       X     .                 O ) *.;.) X         O           .       X ) *.*._ X                                                                                                                                                                   X O O O O X O X O X O X O X O X O X O X O X O O X O O X O O X O X O X O O X               O               O / ) ) / O                 O                                                       +           O O / ~ =.( * O X X X O @ ^ ! ! ^ & O   +       e u u y y y a s u u u p u     X                                                                                                                                                       ",
"                                X   . .         .         .         X                                                                                                                                                                                                                                       X     .                                                                                                                                                                                                                                                                                                                   .     .         X   O _ &.~ E W ~ ! ! &.,.~ Q Q / O                                                                                                                                                               .                                                                                                             . .             X   O Q ;.*.Q &   . . .   +                 O Q -.%._ X     +           .                                                                                                                                               X | ) $.,.) ( ,.Q &.) ) T ) ) ) Q ) T ) ) ) T ) Q ) &._ ,.) ) ~ Q E T &.) ) ..                              O } } } } O X     X                                                                     .   O   O @ ..=.! ! ~ Q ( Q Q _ 3.! ! +.^ X +         X   O   O   X       X   X                                         X X     . +   X           O           O   O                                                                           ",
"                                    .                     .                   X                                                                                                                                                                                                                         X                     X                                                                                                                                                                                                                                                                                                     .   .       O   X     O ,.*.;.%.! ! *.*.W Q %.*.! ` &     X                                                                                                                                     .             .   X   .                                                                                                           .   +         X     O ,.*.;.Q &       .   +         . .     @ ) ;.%.' @       +                                                                                                                                                         X ) :.;.;.*.! %.;.*.*.*.*.*.*.*.*.*.*.*.*.*.*.*.*.*.*.*.%.*.;.;.! ! :.-.;.%.T X .               . .     X O   * X O *   O X         .                                               +               .       @ X B ~ ;.*.! *.*.*.*.%.-.;.6.R Z O             +                                                     .               + +   X       .           O               O                                                                     ",
"                                  + . .         .         X         . o   .                 +                                                                                                                                                                                                   .       O     . X                                                                                                                                                                                                                                                                                                                                         O ) ;.W =.) L ' ^ _ ' ! ! ! _ O O                                                                                                                                     + + +       X   .       .                                                                                                                     O           O ,.*.! Q X O                 X   .     X ) %.! ( X     +     X                                                                                                                                       .         .   O T *.*.! @.+.*.;.*.*.*.*.*.%.*.*.%.*.*.%.*.*.*.;.*.! *.*.*.! *.! ~ %.-.w.;.,.X               .   +       O X O   X   O         . .                                                                 . +   @ X O | &.*.*.*.*.*.*.*.:.-.;.6.R ~ O O                           . +                                       .           .                                                                                                               ",
"                                  +           X                 . . . + .   .               .                                                                                                                                                                                                       +   + O                                                                                                                                                                                                                                                                                                                     X             O O       . O _ *.7.W * @ @ @ @ * R ! ! ) & +   .                                                                                                                                           O   O   +         .                                                                                                     X             O       . O ,.%.! ) @           +   X     .     X X ) ! R ( X                 O                                                                                                                                     +   .     X ) ;.;.6.Z C ^ T ) ) ,.) ) Q ) ) ) ) ,.Q ,.Q ) ) Q T T ^ ) ) E ) ) T :.;.*.) O                         X   O   O O   O                                                           +               .         O X } _ ) ) ) ) ) Q ) ,.$.&.Q E / &   .   .       X         .   .                                           .         .                                                                                                               ",
"                                      O   O                       O O + +                                                                                                                                                                                                                         . . .     O +                                                                                                                                                                                                                                                                                                                                 X         O ) *.! T @ O O O O $ E +.! ( O                                                                                                                                                   O   O + + .     X .                                                                                                   O           O           O _ %.Y / O   X           O     +     X @ _ &.! A X X             X                                                                                                                                     . .       X O T ! *.T $ X @ @ O X @ X O X @ @ O X X O X X X O X O X X O O X X @ > Q *.*.Q X                                 X O           X                                                   .     X           . . X   O   X O O X X   X X X O @ @ X X X   .                       O                                               .                                                                                                                         ",
"                                O   ; O & O O X X X O   O X X O & & & O     .                                                                                                                                                                                                                         @ X O O O O X O X X O X X                                                                                                                                                                                                                                                                                                               X + .       O ) *.6.Y ; & O & & & E +.! ) O                                                                                                                                       X X X X O O O X O &   + +                                                                                                                 X     +         @ ) *.=.P = O @ X @ @ O O O O O O O X X ; F %.*.( X                 +                                                                                                                                     O         X ) *.*.` X   O                                     . .       X     O ,.W *.E X                   . X               +         +                                                                   .           X       .   .         O     X   . .   X                       O                                         .   .                                                                                                                       ",
"                                  O M ^ 2.` Q E Q Q ) ' ) ` Q ) _ I [ @ O     .                                                                                                                                                                                                                   X $ { / ( Q ~ ~ ) ) _ _ ) Q / X                                                                                                                                                                                                                                                                                                                         @ ) *.;.;.T ) P ) ,.&.*.6.;.Q @                                                                                                                                     X / T ) ) _ Q Q E ( S & O                                                                                                                                   X Q *.*.*.J P ' ` ( T ) ' ) Q ) ) Q Q ` ! 0.8.! E O O           .                                                                                                                                         X   X     X ` ! ! ` X   +         +               .     O . .               O O ) *.6.Q @                         X                 X                                                                   X         o       X . .             +           . .     X             X + +                                           X     .                     O                                                                                                 ",
"                                  O ' ! *.;.! +.*.*.=.%.%.*.;.*.W ` / @ X                                                                                                                                                                                                                       O O @ _ Y ! +.+.*.;.*.%.*.%.;.) O                                                                                                                                                                                                                                                                                               + . .           O         X ^ *.;.%.9.%.-.:.-.;.;.;.*.Q &                                                                                                                                     O ` 6.%.%.%.*.! +.R E @ O                                                                                                         . .   +           +       O ( ~ ;.;.:.&.~ ! ! *.! %.*.*.*.! 6.! ! ;.;.;.;.E &     . .                                                                                                                                                         O T *.;.T X                           O                             & ) 6.;.Q &                   X         +     +             X             +                                                                         .   . .         +   X                             O                                             .   .                 +     O         O                                                                                   ",
"                                O O ) ;.;.*.! ! ! *.7.%.*.%.:.*.;.~ ( * X                                                                                                                                                                                                                       O O @ _ E ! ! 6.6.*.*.%.*.;.*.Q O                                                                                                                                                                                                                                                                                                 . +             +     X X ^ ! *.! ! *.;.;.-.*.;.=.*.` X X                                                                                                                                   X Q *.*.%.%.*.*.! R ( &   X                                                                                                         . +           O +       X / ! ;.*.=.&.%.*.! ! ! %.*.*.*.*.*.*.*.%.:.*.&.) O   + .                                                                                                                                                 .         O ) *.;.E O                                                     . + O ) *.*.Q O                             . .                                                                     +                       .                                               o       +         X                                           . +   .         .   .   +     .       .   .       .                                                                     ",
"                                  X T %.;.:.Q ` T T T ) ,.) %.%.*.*.^ $ X X   X       + .                                                                                                                                                                                                           @ { / ` Q ~ E ) ) ) _ P Q L X                                                                                                                                                                                                                                                                                               .                 +       @ | / ( E T ) &.Q ) _ ^ ^ ^ V X     +                                                                                                                               X / Q ) ( ) ) Q E ( / & O       .                                                                                                 .     O                   $ B ' T ) _ _ ) ) ) ( ) ^ ) ) ) Q Q ) ) _ <.,.^ B O +                                                                                                                                                       .     . O ) ;.;.&.O                                                   . . . O T ! ! Q O               X                     . .               X                                           O                                     X                   O   X               +     +   X     X                                           X         X     . . +   .   .   . .     + .   .   +                                                                   ",
"                                  X ` *.*.F ; @ X @ @ @ X @ , E ! =./ & X                 .                                                                                                                                                                                                           @   O O O O O X X X X O X                                                                                                                                                                                                                                                                                                       O       X     + .     $ @ X X   X X & O X X     X   X X                                                                                                                                   X X X O X O O O X O   + O                                                                                                                         + . X   X * @ @ X O O O O X X O O X O O O X O O O O & @ *   X       X                                                                                                                                             .       . O ,.;.-.$.O . .           X       X             O   X   X         .   E +.! ^ X                               .     .                                                                                                                     + O   O         X   O +   + X . .                                       . .                         X                                                                                                   ",
"                                .   ( *.~ ) @ X           X X ^ ~ Q I O X           X   .   .                                                                                                                                                                                                     . . . O   O + .                                                                                                                                                                                                                                                                                                                     X           +         @ X     .       .         . .     O                                                                                                                                               + + + . +   .                                                                                                           X     X     .         X X       O O             O +       +   + O   X                 O                                                                                                                                               . O ) ;.;.,.O . .                                                 +   O T ! ! ^ O                                                                                                                                     X               .             X   O X O O & O O O       .                                     .   X X X X O O X X X   X   O O X   O O O O   X   X O X X   O X                                                                 ",
"                                  X _ %.>._ @   X       . X X / ~ =.I O O             O                                                                                                                                                                                                           . +   +                                                                                                                                                                                                                                                                                                                         X           X   .   . .     X     + . .       X X         X O                                                                                                                                         O     X   +         .                                                                                                                     .   . .         X   X                 O                   . .             X                                                                                                                                                 O ) ;.;.H O                                             O O       + & ~ *.%._ O                                                                                                                                                   .         .         $ B / ( T / { @ X       X                                   .   X X * ; & * @ @ @ % X @ & @ @ @ @ @ @ @ @ @ @ @ @ @ @ @ @ X                                                                 ",
"                                . O ,.-.%.,.O   .           @ X.~ =.I @   .         O     .                                                                                                                                                                                                                   X     X                                                                                                                                                                                                                                                                                                                   .                 .         . .           X       .                                                                                                                                     . + +       X       O     .                                                                                                         O   +   X               .           O + .       X   O   .                 .           X                                                                                                                                           X X     X Q ;.;.,.O   X                                     O   +   + O   O & ~ *.%._ &                                                                                                                                         .                           X @ / Y ! ! @./ X X X     X                                     $ m / ' ) I I _ / ] ^ ( / _ L / _ / _ _ / _ / _ ^ / _ / / _ | X                                                               ",
"                                  X =.;.;.Q @     .       O & P ! ~ / X     .         O                                                                                                                                                                                                                 O                   O                                                                                                                                                                                                                                                                                                       O   .                   .   O O   . .   X       O   .                                                                                                                                             .                 .                                                                                                             + . .               .           X     .         X                   +   +             + .                                                                                                                               .   .           X Q *.*.,.X                                     X     .             & E ;.%.P O               .                                                                                               .                       .     O   X     X         . .   @ ^ ! ;.;.Y / @ X       O                                   X X / E *.&.&.,.) Q ~ ! ~ ~ ~ &.&.~ &.W &.~ ~ &.&.~ ~ =.&.~ &._ X                                                               ",
"                                  X ,.;.*.E X     .   . . O * ) 6.*.^ &   .   .   O O                                                                                                                                                                                                                 X     X     X     X   O O O                                                                                                                                                                                                                                                                                                     + . .     X           +     O   .             O   .                                                                                                                                                         .       .                                                                                                         X     .     X           . . .       + + .                     X       +   X     .       .                                                                                                                                   + . .         X ~ ;.*._ O .       O           O                             X     O ~ 6.%._ X                                                                                                           .           O       O       +     O     .               +   @ _ *.! ;.~ / @     . . +                                   O O ^ ! ;.;.&.>.Q Q ! ! ~ ! ~ &.~ &.~ ~ ~ =.W ~ &.Q Q W *.;.*.&.O                                                               ",
"                                  O P >.*.E X             X * _ ~ ~ / & O + .       X                                                                                                           X                             X                                       .     .                                 O O @ & & & & @ @ & &       X   .                                                                                                                                                                                                                                                                                                                                                                                                                                                                                                                                                                                                                                                                                                                                                                                                                                                     .         X Q 6.*.) O   .                 O         O                         X ~ ;.*.) X                                                                                                           .   O       X .   O         O O O   + . .                   & _ ~ ;.*.~ L O         . .                                   O ) *.*.6.^ / / A ^ A ^ A / S L ^ L / A / / A / ..B ^ ;.6.*.E O                                                               ",
"                                  X P &.! E X               & _ ~ =._ & O   . .                                                                                                                                                                                           .         X             .           O  .U X._ _ ' ) K  .b @     X   +             O                                                                                                                                                                                                                                                                                                                                                                                                                                                                                                                                                                                                                                                                                                                                                                                                                                         .       X ( *.*.Q @           X                                         X   O Q ;.*.) X                                                                                                               O   O O         O     X O O O O     .           X     O & / ~ *.*.~ / X X       .                                   O O ) *.;.W > X @ @ @ @ @ @ @ @ @ X X @ @ @ * X X @ X ; W ;.6.` X                                                               ",
"                                  O _ ~ ! T X     . .   .   * _ ~ ~ ^ @ O     .       X O                                                                                                               +                                                                                     . . . .     X O O _ T ~ ~ W ! ~ ! 1._ X       +                                                                                                                                                                                                                                                                                                                                                                                                                                                                                                                                                                                                                                                                                                                                                                                                                                                   O X           O ^ ! ! ) X                                                       .   ) *.*.)                                                                                                     .         X < u u u 5 5 u i a y 5 u s y u g X           O           @ _ *.6.*.Y X.O X         +                                   O ) %.*.) & O X O X O O   X O O O O   X O O O O O   @ ,.%.%._ O                                                               ",
"                                  X ) *.! ^ O O . . . .   X & <.~ ! / @ X                   X                                                                                                         O     O     X                             X                                                 .           @ ^ *.*.*.! ! *.7.! ` X         +       .                                                                                                                                                                                                                                                                                                                                                                                                                                                                                                                                                                                                                                                                                                                                                                                                                                                     . O ( ! ! E X                                           O + + . .   . O P *.%.) X .                                                                                                           X u y a a p 4 i 6 i y 4 4 a a p u                       O * ^ *.*.*.~ I @                             O   O     O       X ' =.*._ & +     +   O O O   +   O     O O   O     O ,.&.~ _ O                                                               ",
"                                  @ ~ *.! Y @   O +   .   O & ^ ! @.^ @           X                                                                                                                 +                                                         O                                           O   O E ! ! :.~ Q ~ W 6.#.X     O           .                                                                                                                                                                                                                                                                                                                                                                                                                                                                                                                                                                                                                                                                                                                                                                                                                                           X     . .   O E *.*.) &                                           X . . +     . O Q *.;.Q O                                                                                                   X +       O u a y d y 4 p y i i p p i i a u X             +       O & ` ! 6.;.W I O O         O + .       .         .             @ ^ ! W ' O     .   . .           .     O     O     @ ) ;.! ^ X                                                               ",
"                                  @ Y 6.+.E O O   X       X @ / ~ ~ / @ X                 + X                                                                                                                                           O                                                                 O   O T ! *.W ; ; W 9.! W @     +                 O                                                                                                                                                                                                                                                                                                                                                                                                                                                                                                                                                                                                                                                                                                                                                                                                                                               + O Q ! ;.Q @                                           . . .       O O Q ;.;.Q O                                                                                                             O s a a f < 5 u u u s 4 4 d d i y X         O O         O * ^ ! 6.! ~ X.O O O               .   .   . +   .       +     $ T ! W ' O + .   . . . .   .       .         +     X T ;.*.T X                                                               ",
"                                O O Q *.*.T O O             % / ~ Q I @ X X               . . .                                                                                                   .                     .   .                         .           .   +   . .                     X   X O     X ( ! %.2.@ @ Q ~ *.&.O     O   X .             +                                                                                                                                                                                                                                                                                                                                                                                                                                                                                                                                                                                                                                                                                                                                                                                                                                               O ~ 6.*.) O   . .     .               .   .                         & ~ *.6.E & +                                                                                                       X O   0 a a 9 X O O   O O X @ a a a u                         X / ~ ! %.Q I @ O       +                                     X ` *.%.( O                     .     .             X Q *.! E O                                                               ",
"                                + O T ! ~ ) O             X X A Q 1.I O X                 .   .                                                                                                 .               . .           .                                   . .           .   .                     X   X C ! &.,.O O ^ *.%._ O + O         . .                                                                                                                                                                                                                                                                                                                                                                                                                                                                                                                                                                                                                                                                                                                                                                                                                                                     O   O ~ *.*.) O O   + .         .                       X   .           O E ;.*.E O                                                                                                   O O         y a s u O       O O   O 0 a s w O                   .   O ..^ Q Q ^ | X                                       X     X X ) ! ! ` O X                         .       .     X ) ;.*.T X                                                               ",
"                                  O ( ! ! / @ O +       X   X L ) ,.I & O                 X                                                                                                     .                                                       X           O O             .                 .   +     ^ ! %.P & @ ' %.=.P O   +       .                                                                                                                                                                                                                                                                                                                                                                                                                                                                                                                                                                                                                                                                                                                                                                                                                                               .         O   O E +.! ^ X             O   O   O   O         O       . . +     O   O ) ! ! Q X                                                                                                             X y i i y     X   O   O   u u y s O   .         O       X X }  ...I o.} @                           .                   O ) *.*._ O O                         .   .   .     X ) %.%.( X                                                               ",
"                                  O E ! ~ G > O O O @ O O & > ^ &.3.<.& & O .                                                                                                                   .   X   X X   X O   O   X X     X   X   X   X     O       X   O X     O X O X           . .           . +     X T :.:.J > * J 8.*.) O .     O       .         .                                                                                                                                                                                                                                                                                                                                                                                                                                                                                                                                                                                                                                                                                                                                                                                                                                             O O Z ! ;.E ; X X @ O @ O O @ X O O O O O & O O O O X X O O O O O O O = T 6.! T O                                                                                                               y a y p         O     O y a a s     .                 X   * @ O & O @ X X X     X   X   X     O         O     O     X @ T ;.*.) O                                     +   O ) ;.*.) O                                                               ",
"                                O O ( ! *.=.Q ) ^ ) ) ) <.1.W :.;.*.P & @     .   . .                                                                                                             O e 0 u u s s u u y y a y y y u u 0 u s u u u s u u u u u s u u u u 4 u 5 , X       .         .     .   +   @ E *.*.:.) T 9.%.*.Q X   +           .       X                                                                                                                                                                                                                                                                                                                                                                                                                                                                                                                                                                                                                                                                                                                                                                                                                                   .         O   @ Q ! ;.6.T ( ) T Q T T Q Q T Q Q Q T Q Q Q T T Q E Q ) ) Q Q Q T ) T *.*.*.) &                                                                                                               p i i y X             O y a y s                       X X   O O & O X X       X 5 4 u y y y y u s y 0 y y u y y y y 0 a ~ *.%.) &     .         X   X         X           X ) ;.;.E O                                                               ",
"                                O O ^ ! *.! *.! ! ! ! %.;.;.;.*.! ~ ' * X X         .                                                                                                           O O s u d a y q u a a y y i a y a a a a a a a a a a a a a a a a y 4 y 6 p 6 4     X       .       .       O   O E 6.;.*.! W ;.8.6.` X       O X                                                                                                                                                                                                                                                                                                                                                                                                                                                                                                                                                                                                                                                                                                                                                                                                                                                         O   O @ ) %.;.*.*.! ;.%.! *.! *.! ! ! ! ! *.! ! *.! *.*.*.*.%.*.;.6.*.6.! +.! *.*._ O O                                                                                                       +     y 6 i y           X   O y a a a X                         X O   +     X       X 5 y d d a i i a a a y a a a a i a y u d W ;.*.) &   .   .                                 X ) ;.;.) X                                                               ",
"                                  O ' ~ =.%.;.! ! +.6.*.%.%.:.9.~ ~ / @ X     . .     .                                                                                                         O O s y a i d d a a a a i i y a a y y a a a y y y a a a a y y y d f a y y 4 u X X       .       .         O   O ( ! *.*.+.+.! W R C X       .       O                                                                                                                                                                                                                                                                                                                                                                                                                                                                                                                                                                                                                                                                                                                                                                                                                                                         O ^ &.:.:.%.%.;.:.*.*.! *.*.! *.! *.*.*.*.! *.*.*.;.%.*.*.*.;.;.*.! +.*.%.,._ @                                                                                                               u i a y       . .     O a i i y       +                 X       . X           O 4 a y d y a a a y y a a u a a y a a a d W 6.*.) @ O   .   .     X   O               + .   O ) *.*.) O                                                               ",
"                                  & S ^ I Q E ~ E E Q ) ,.) ) K ^ / m @             +   .                                                                                                         O y y i d a u u w u a i y 4 u u u y u u u y u y u y s u u u y 9 u y a a 6 u O   O                           O S T ) ` E T ( ( / M %                                                                                                                                                                                                                                                                                                                                                                                                                                                                                                                                                                                                                                                                                                                                                                                                                                                                         X  ._ P $.) ,.Q Q Q ) ) ) ) Q ) ) T ( ) ) ^ Q T ) Q ) ) _ T ~ Q Q ) T T _ I | X                                                                                                         .   X u i i u   . . .         y i i y X           X               + . . . .   .     O a f i f , a s y u u u s u u 0 u u u 5 a ~ *.! Q @                                         X ) *.%.) X                                                               ",
"                                X   @ @ & & & X X X X X O X X @ X O @     .                                                                                                                       O 5 6 y 4 O O O O   O   X     O         O X O           O     O & @ w u u h   O                             O O O O O O O X O O O     X                                                                                                                                                                                                                                                                                                                                                                                                                                                                                                                                                                                                                                                                                                                                                                                                                                                       X O         .   . @ @ O X X @ $ O O O O X O O O O O O O O O O X O X   X O O O O X @ & & O X   X                                                                                                   X       X y d a y             .   u i a y     .                                         & w y u , X O X O X X       X       X   @ E ;.;.) X             .           .               X ) *.*.) O                                                               ",
"                                .       O   O   .   .           X     + . .           X                                                                                                             5 6 y u X       O       . .                     O             O O u u y 0 O   O             O           .     O   +   .     O O         O   +     X       .                                                                                                                                                                                                                                                                                                                                                                                                                                                                                                                                                                                                                                                                                                                                                                                                                                                     X                                                     .   O         +                                                                                                             +     y a a u X               5 i d y       .             . .   X         X     X   O u s u 5 X   O       O           O     @ ) *.*.) @               .     .                   X Q *.*.Q O                                                               ",
"                                                                        X           X       +     X X   . . .                                                                                       5 y a u X                                                       O 0 u y u O                             . .   O + +         X O             + + +         .                                                                                                                                                                                                                                                                                                                                                                                                                                                                                                                                                                                                                                                                                                                                                                                                                                                                                                                                                                                                                                           O u a a u                 y y a y       .     +   .                           X O u i a 5   X                         . X ) *.*.) O           +                             O ` *.*.) O                                                               ",
"                                                                + +           X O O     X   O O O   X     .                                                                                       X y a a 4           O                                             O u y y u O           .                           +       X         X   X     .                                                                                                                                                                                                                                                                                                                                                                                                                                                                                                                                                                                                                                                                                                                                                                                                                                                                                                                                                                                                                                                       X y a a y X             O u a y u     .   X . . X                       .         4 i y y             .                 O ` ;.;.,.@         +   +         .               X O E ! *.,.O                                                               ",
"                                                                          X 1 u u u 5 4 y y a u 0 0 5 5   . .                                                                                       u a a u X                                                         0 s y u                 O O                     .                           +                                                                                                                                                                                                                                                                                                                                                                                                                                                                                                                                                                                                                                                                                                                                                                                                                                                                                                                                                                                                                                                         s a a u     +         X u a d y                                               O u y i y O   +                 +       X T ;.*.) @ X                     .               + & C +.*.H O                                                               ",
"                                                                  .       X u s a d 6 6 i i i y s u p u         X           .                                                                     O u a a s                                                         X u a a u X O       .         + .                           . .             .                                                                                                                                                                                                                                                                                                                                                                                                                                                                                                                                                                                                                                                                                                                                                                                                                                                                                                                                                                                                                                               X         O s a a u X               u a a y X       @ O O X   X     .                   O   y a i u                               X Q *.%.,.@           X                     . .     O ^ ! *._ O                                                               ",
"                                                                . .         u a a d y 4 i a a a a y i 4 X   X                                                                                       y a a u                                                         O 0 y y u O           .       . .       X                   . . .           +                                                                                                                                                                                                                                                                                                                                                                                                                                                                                                                                                                                                                                                                                                                                                                                                                                                                                                                                                                                                                                                           u a a u X       O       u a a y       O @ * * X               O     .         X y i i u O           +                 X ` *.%.2.@ X   .   +       X X   +   O   +         O ^ R %._ O                                                               ",
"                                                                          O s d d d 0 0 s u u f a a i p O                                                                                           u y a u X         O                                             O u y y u O                       . .       +                                       X                                                                                                                                                                                                                                                                                                                                                                                                                                                                                                                                                                                                                                                                                                                                                                                                                                                                                                                                                                                                                                                 X u a a u                 y a a y         } L / | O                               5 i i y                             X X ( ! *.1.&     X O     X         O X O     X O X O O ( ! ! ^ X                                                               ",
"                                                                          O y a a q O O     O O a i i 6     X                                                                                     X u y a y                                                         O u y y u   O       . .             .             O X   +       O     .               O O                                                                                                                                                                                                                                                                                                                                                                                                                                                                                                                                                                                                                                                                                                                                                                                                                                                                                                                                                                                                                                   O         X y a a u               X u a d y X     X ..) ` / O   .           .           O   5 i y u                               X ) ;.*.W , @ @ X @ & & X X X * * & * @ @ & * @ X @ > Y ! ;.` O                                                               ",
"                                                                      .   O s a a w O   + +     y d i 6 O             O       X                                                                     u a a s                                                           0 y a u O                 O           +   O O & & O & O O @ @ O   .                                                                                                                                                                                                                                                                                                                                                                                                                                                                                                                                                                                                                                                                                                                                                                                                                                                                                                                                                                                                                                                                   u a a u X               u a a p       O ^ Y ! / O                             O y i i y X   O       .                 X ) %.*.=.^ / I / _ ^ / / / / / ^ L / ^ / / ^ / ^ L ( ! 6.*.Q X                                                               ",
"                                                                  X   .   O s a d s     .     X u a y y                                                                                             s a y u                                                       X O 0 s a u X           .                 O O L ^ T ) ) ) ) ^ ^ L O O . .                                                                                                                                                                                                                                                                                                                                                                                                                                                                                                                                                                                                                                                                                                                                                                                                                                                                                                                                                                                                                                                               O u a a u O       X     X u a a a       O ) ! ! T O O                   +       O u y y y O   X                       O O ,.%.;.;.=.Q Q ~ =.%.~ ~ ~ ~ ~ Q ~ ~ ~ ~ ~ ! E ~ ~ &.*.6.;.1.O                                                               ",
"                                                                            s a a u   + . .   X u d a u     .                                                                                     O u a a u                                                           u y a u O             O             O O & / R ! ! ! *.*.! Y ^ & O   .   X       .                                                                                                                                                                                                                                                                                                                                                                                                                                                                                                                                                                                                                                                                                                                                                                                                                                                                                                                                                                                                                                                   X y a a s             X   u a a s     X O Q *.;.E O                             X y a y u O       .   .                 @ _ >.;.*.~ Q Q ~ ! *.! W ~ Q Q Q &.~ ~ ~ ! ~ ~ W Q %.%.*.%.) O                                                               ",
"                                                                      .   X a i i y X           a a a y       .                                                                                     y a a u O                                                         0 a y u O         .                   O & ( ! ! *.*.%.*.6.! ( & O + +   X                                                                                                                                                                                                                                                                                                                                                                                                                                                                                                                                                                                                                                                                                                                                                                                                                                                                                                                                                                                                                                                             s a a y                 s a a u       @ Q *.*.E O                             O y i i y                           +   @ U Q ~ =.^ / ' _ ) ) ) _ ' _ / _ / _ ' ^ ^ ^ ( _ / ' ' _ _  .X                                                               ",
"                                                                X   .       s i y a           X u a a u O .     .                                                                                   u y a u X         O X                                             u y y u   O       .                   O O A ! W E ~ &.=.~ E ^ O O +       X   .                                                                                                                                                                                                                                                                                                                                                                                                                                                                                                                                                                                                                                                                                                                                                                                                                                                                                                                                                                                                                                                 X   O s a a u X               w a d p       X Q *.;.Q @     .                         5 i i u O                               f d d d @ @ @ & $ * & O & & @ O @ @ @ @ @ @ @ @ @ @ @ & O @                                                                 ",
"                                                                O           s a i y X         X y a i y                                                                                           X u y a u           O                                             O u s y u O           .                   O | A ^ _ _ / ) ^ ] B @ O +     X     .                                                                                                                                                                                                                                                                                                                                                                                                                                                                                                                                                                                                                                                                                                                                                                                                                                                                                                                                                                                                                                                     X u a a u               X s a a w       @ Q *.*.T O                 +           X 5 i i y             +               .   y i i d X   X   O X X X       O X X   X   X   O O   O                                                                       ",
"                                                                      .   O y i a 4 X O X O   O u a y u                                                                                             y a y y X                                                       X 0 a y u             .             X     X X @ @ @ & @ @ @ @ $   + X                                                                                                                                                                                                                                                                                                                                                                                                                                                                                                                                                                                                                                                                                                                                                                                                                                                                                                                                                                                                                                                                   u a y y X       +       s k a u       O ) *.*.) X                     .     O   y i 6 u X                               5 a y p     .         . . .     .     . .             .   .                                                                 ",
"                                                                  .         y i i d 9 0 < u u s a a i 4 X               O                                                                           s a a y                                                           u a a u O                 .     X     .     X X       X               .       .                                                                                                                                                                                                                                                                                                                                                                                                                                                                                                                                                                                                                                                                                                                                                                                                                                                                                                                                                                                                                                                 X   O y a a u         O       p a a u       @ ) ;.-.) X     .                         s a a y                               O s a y u   X .                           . .     O X                                                                         ",
"                                                                          X u i a i a s u y a a a y i y               +                                                                         O   u a y u                                                           0 y y u O O       +                             . .       +   X       X                                                                                                                                                                                                                                                                                                                                                                                                                                                                                                                                                                                                                                                                                                                                                                                                                                                                                                                                                                                                                                                               u a a u X             X u a a q   .   X ) %.%._ O                             O u i i u O           .         .       X a a a p     . .       X   X           .                                                                                     ",
"                                                . .                   X   O u a a a d a a y a a a y u p                                                                                             u a a u                                                           u y y u O           .                                                                                                                                                                                                                                                                                                                                                                                                                                                                                                                                                                                                                                                                                                                                                                                                                                                                                                                                                                                                                                                                                                               O u a a y                 u a a y       O ' %.%.,.O   +                         X y i y u             .                   s a a u X                                                                                                                   ",
"                                .             . .                     + O X < u u u s y s w s s u 0 < < X X       + .                                                                               y y a u O         O                                             O u s y u O           .                                                                                                                                                                                                                                                                                                                                                                                                                                                                                                                                                                                                                                                                                                                                                                                                                                                                                                                                                                                                                                                                                                               X y a a u X               4 a a s       @ T *.8.~ & .                             5 i i 4 X                             X u a a u O                                                                                                                   ",
"                                .       X     . .                           X X     X X         X X X O                                                                                           X y y a u X                                                         0 a a u X               O                                                                                                                                                                                                                                                                                                                                                                                                                                                                                                                                                                                                                                                                                                                                                                                                                                                                                                                                                                                                                                                                                                             s a a u     .         X u a a y   +   X E 6.;.~ X               +     .     O   5 i y y X           .                   u a a u                                                                                                                     ",
"                                            .                           .                   .     O     O   O +                                                                                     u y a u                                                         X u a y u           .                                                                                                                                                                                                                                                                                                                                                                                                                                                                                                                                                                                                                                                                                                                                                                                                                                                                                                                                                                                                                                                                                                             X   O s a a u X       O       u a a s O     @ R +.! E X                             O y y i u O   .                           y y a 4                                                                                                                     ",
"                                              +             . .     X   .   .       X               O   +       .                                                                                   y s a u                                                         O 0 y y u O O         .                                                                                                                                                                                                                                                                                                                                                                                                                                                                                                                                                                                                                                                                                                                                                                                                                                                                                                                                                                                                                                                                                                               X u a a u         O       u a a u       X ( @.! ^ X                             O u i y y O           +           .     O u a a u O                                                                                                                   ",
"                                                              . .                                   +   + . X                                                                                     O u a a u X                                                       O u y y u O                                                                                                                                                                                                                                                                                                                                                                                                                                                                                                                                                                                                                                                                                                                                                                                                                                                                                                                                                                                                                                                                                                                             u a a u X             X u i a u       X S ^ / | X                             O y a i u                               X u a a u X                                                                                                                   ",
"                                            O         X     . .         .     X   X         X +   .   .                                                                                             a a a u           O                                             O u y y u           . .                                                                                                                                                                                                                                                                                                                                                                                                                                                                                                                                                                                                                                                                                                                                                                                                                                                                                                                                                                                                                                                                                                           X   O u a a u                 u a i u         X @ O O                       .         4 i i y                                 y y a u           O O                                                                                                       ",
"                                      . O                       +         .         O       O   .   .   .   .                                                                                       u y a u O           X                                             0 y a u O O                                                                                                                                                                                                                                                                                                                                                                                                                                                                                                                                                                                                                                                                                                                                                                                                                                                                                                                                                                                                                                                                                                                           u a a u         O       y i d u         O O O X       .                     X   u y 6 u X   O       .                   u y a 0 X                                                                                                                   ",
"                                          O   O             O     .     . .     +   .       X +                                                                                                   X u y a u                                                       X O 0 s a u X           .   O                                                                                                                                                                                                                                                                                                                                                                                                                                                                                                                                                                                                                                                                                                                                                                                                                                                                                                                                                                                                                                                                                                           O s a a u X       O       y a a y     . .     + .         .                     X u i i y                                 s a a y                                                                                                                     ",
"                                            O         X O X O O O O   X   X O O O     . X                 X                                                                                         y a a 4 X         O                                               u y a u O                                                                                                                                                                                                                                                                                                                                                                                                                                                                                                                                                                                                                                                                                                                                                                                                                                                                                                                                                                                                                                                                                                                           X u a a s               O a a y y       .   + . . .   .               .       O   y i a u O       .                       u a a u X       O                                                                                                           ",
"                                        O       X     X X * X * = & @ @ X @ @ * & $     X                     X         .   .                                                                       s a a u                                                           0 a y u O         .                                                                                                                                                                                                                                                                                                                                                                                                                                                                                                                                                                                                                                                                                                                                                                                                                                                                                                                                                                                                                                                                                                                   s a a y               X y d i y   .             . .                             u a i y O           .                 X y y y u                                                                                                                     ",
"                                          O       .     @ } K _ ,._ ^ ^ ] / ^ ) ' { X       . X                                                                                                 O   u a a u X                                                         u y y u   O       .                                                                                                                                                                                                                                                                                                                                                                                                                                                                                                                                                                                                                                                                                                                                                                                                                                                                                                                                                                                                                                                                                                       X         X y a a u O               s a i p     .             .             .             O y i i 5 O                               u a a u             X                                                                                                       ",
"                                                  .     O o._ &.:.! ! ! Y Y *.~ =.^ O     X .                     X                                                                                 u a a u                                                         O u s y u O           .                                                                                                                                                                                                                                                                                                                                                                                                                                                                                                                                                                                                                                                                                                                                                                                                                                                                                                                                                                                                                                                                                                                 y y a y                 a a i 4   .       X     +   .         O       .       X 4 i i u         X   +         .         s a a u X                                                                                                                   ",
"                                        O       .     X @ X.Y *.W ;.! ! ! 7.*.;.*.' O O       .             O                                                                                       y y a u           O                                             X 0 a y u             .                                                                                                                                                                                                                                                                                                                                                                                                                                                                                                                                                                                                                                                                                                                                                                                                                                                                                                                                                                                                                                                                                                               X u a a u X       +       u a a y     .     X X                                   u i i 4   X                           O y a a u                                                                                                                     ",
"                                    O           . . . O * ^ %.*.1.) A A / T %.*.%.^ O     X               O O                                                                                     X y y a u X                                                         u a a u O                                                                                                                                                                                                                                                                                                                                                                                                                                                                                                                                                                                                                                                                                                                                                                                                                                                                                                                                                                                                                                                                                                                   X       O u a s y                 u a y i X   .             +     .                   O   u i i u                                 u a a u O                                                                                                                   ",
"                                                  .   O & P 7.%.,.* $ @ @ ; ` %.! ) X               +                                                                                               u a a s                                                           0 y y u O O       +                                                                                                                                                                                                                                                                                                                                                                                                                                                                                                                                                                                                                                                                                                                                                                                                                                                                                                                                                                                                                                                                                                                   y a a u O   O         X u a a p       . .   X     X                           O y y y s   O                             y y a u       +                                                                                                             ",
"                                                  .   O & I >.&._ X X O O @ P %.*.E O       .                                                                                                     O u y a y             O                                             u y y u O           .                     .   . .                                                                                                                                                                                                                                                                                                                                                                                                                                                                                                                                                                                                                                                                                                                                                                                                                                                                                                                                                                                                                                                                               X   O u a p u O O +   O O O O w y u u O   .                                     X   X u p u < X   O           O           O O w y y u     . .                                                                                                             ",
"                                      . .             O * I &.&.^ > @ @ O > T =.6.E O       . .                                                                                                     u a y u X                                                       O u s y u O           .                       X   @ O O X O                                                                                                                                                                                                                                                                                                                                                                                                                                                                                                                                                                                                                                                                                                                                                                                                                                                                                                                                                                                                                                                                     . .   X y 4 y 4 O   O O   O & & q a y u   X . .     X                                 O u y 4 5 X X @     X O   O       X O O & q a y 4 X     .                                                                                                             ",
"                                                    X X @ ^ ! ;.*.W ) ' _ =.:.;.*.=.& + X   O                                                                                                       y a a y                                                           0 a a u X               O         +   X X @  ./ T ) ,.Q _ X                                                                                                                                                                                                                                                                                                                                                                                                                                                                                                                                                                                                                                                                                                                                                                                                                                                                                                                                                                                                                                                                     .   O p i i j y y u y s f u 9 d i y p                           .         X   . +   X y p a p y y s u y u u u u u u u u u 0 a d d i p X                                                                                                                   ",
"                                      + +             X @ ( ! ! ;.:.%.Y %.*.;.;.;.1.&                                                                                                             O s a a s           O                                             X u a y u           .           + . .     O & ^ Q %.*.*.*.,.O                                                                                                                                                                                                                                                                                                                                                                                                                                                                                                                                                                                                                                                                                                                                                                                                                                                                                                                                                                                                                                                                         X 6 y y i y y y y i i f i i 6 6 y X     .                                         , 6 4 i y y d a a y a u a a y a y a a s i i y y X X   .                                                                                                             ",
"                                  X     +               @ A ` +.*.;.%.! ! ! 6.;.W K O +     X                                                                                                       y y y u                                                         O 0 y y u O O         .           . .     @ * ^ ~ ! ! *.%._ O                                                                                                                                                                                                                                                                                                                                                                                                                                                                                                                                                                                                                                                                                                                                                                                                                                                                                                                                                                                                                                                                       O O u d i i y s u u y 6 a y 6 i 6 p X     .         .                             X u u f d i a i a a a a y a a a a a a y y 6 i 6 u X           X   .                                                                                                   ",
"                                      .     O         X $ m A ( ,.Q ) ] ^ T ` Q ` B @                                                                                                               u a y u O                                                       O u y y u O                     . . .     O X L ] C T ` T X.X                                                                                                                                                                                                                                                                                                                                                                                                                                                                                                                                                                                                                                                                                                                                                                                                                                                                                                                                                                                                                                                               O   + O   O 1 u u u 0 0 u u y u u u y p 6 5 X                   O                   +   O O < 5 y y a u y y u s y u y u y u y s 5 u y y 4 5 X     .                                                                                                             ",
"                                        O O         .     @ @ @ & O O X   X & * X O   . X X                                                                                                       X u a a u X           X                                           O u y y u           . .             .       X   O @ X X X X                                                                                                                                                                                                                                                                                                                                                                                                                                                                                                                                                                                                                                                                                                                                                                                                                                                                                                                                                                                                                                                                             O O O X O   O O   X O   X     X     .                                 . .       X X O   X O               O     X     O X X X X     .                                                                                                               ",
"                                    .                 . + O   X O     .   +     O X   .       .                                                                                                     u a y y                                                           0 y a u O O                 O         .     .                                                                                                                                                                                                                                                                                                                                                                                                                                                                                                                                                                                                                                                                                                                                                                                                                                                                                                                                                                                                                                                                                     +     O       +             O X       . . .                                   . O                                           O         . . .                                                                                                             ",
"                                                    . . .         X     . . .         .     + .                                                                                                     s a a u                                                       X O 0 s a u X           .   O                 . . . . .                                                                                                                                                                                                                                                                                                                                                                                                                                                                                                                                                                                                                                                                                                                                                                                                                                                                                                                                                                                                                                                                             . .                   O     .       .   . . .                             .                                               .         . .   .                                                                                                               ",
"                                            X     . . . . . .             . . .               + .                                                                                               O   u a a u                                                           u y a u O                         X       . . . + + + .                                                                                                                                                                                                                                                                                                                                                                                                                                                                                                                                                                                                                                                                                                                                                                                                                                                                                                                                                                                                                                                                                                   . . .       . .   .                             .                                               . . . .       .   .         X                                                                                                   ",
"                                                  .                       . .                 X                                                                                                   X y a a u X       O                                                 0 a y u O         .                               X                                                                                                                                                                                                                                                                                                                                                                                                                                                                                                                                                                                                                                                                                                                                                                                                                                                                                                                                                                                                                                                                                                                   .                                 .               +   .   . . .       . .       O                 .                                                                                                                 ",
"                                            .                                                                                                                                                       u y s y                   X                                       u y y u   O       .                           O       X                                                                                                                                                                                                                                                                                                                                                                                                                                                                                                                                                                                                                                                                                                                                                                                                                                                                                                                                                                                                                                                                         .                                                         .                           .     +           .       +                                                                                                                                         ",
"                                  X         .       X       X         X       X                                                                                                                     u a y u                                                         O u s y u O           .                                                                                                                                                                                                                                                                                                                                                                                                                                                                                                                                                                                                                                                                                                                                                                                                                                                                                                                                                                                                                                                                                                                   .   . .             X                                       X                 .   .                 O         O     X                                                                                                                             ",
"                                                                                X                                                                                                                 X u a a y X       O                                               X 0 a y u             .                                                                                                                                                                                                                                                                                                                                                                                                                                                                                                                                                                                                                                                                                                                                                                                                                                                                                                                                                                                                                                                                                                                               . .                               .                 .             . .                     O                                       .                                                                                                   ",
"                                                      X     . .     .                                                                                                                               y a y u                                                           u a a u O                                 O       X .                                                                                                                                                                                                                                                                                                                                                                                                                                                                                                                                                                                                                                                                                                                                                                                                                                                                                                                                                                                                                                                                         X                                                   .         .           .               .                                                                                                                                                                 ",
"                                                              .   .       X   O O O     +                                                                                                         O u a a u                                                           0 y y u O O       .           O     .       O O + .     .                                                                                                                                                                                                                                                                                                                                                                                                                                                                                                                                                                                                                                                                                                                                                                                                                                                                                                                                                                                                                                                                 O           O       O                     .     X             .                             .                                           .                   .                                                                                                   ",
"                                  O           .           X         .     X @ & * *       +                                                                                                         u a a u                                                           u y y u O           .           + . .     X           .             + .           O                                                                                                                                                                                                                                                                                                                                                                                                                                                                                                                                                                                                                                                                                                                                                                                                                                                                                                                                                                                                                                                                                                                                                                                                                 . . .                     +                     .                                     ",
"                                            .       .                     X V ' _ V @                                                                                                               y y a u O         O                                             O u s y u O           .           O   .                 . .       O       .       X                                                                                                                                                                                                                                                                                                                                                                                                                                                                                                                                                                                                                                                                                                                                                                                                                                                                                                                                                                                                                                                                                                                                                                                                             X     X .       .               .           + +                                             ",
"                                              +     . .   X   .   . .     X _ =.1.) X   .   X                                                                                                     X y y a u X                                                         0 a a u X                           . X           .       X     X     .           O                                                                                                                                                                                                                                                                                                                                                                                                                                                                                                                                                                                                                                                                                                                                                                                                                                                                                                                                                                                                                                                                                                                                                                                                                       X     + X O       + . .     X     +           .                                 ",
"                                .     X     .       .           .     + X O _ %.! 2.X         X                                                                                                     u y a u                                                         X u a y u           .             X           + .   .     X           .       X                                                                                                                                                                                                                                                                                                                                                                                                                                                                                                                                                                                                                                                                                                                                                                                                                                                                                                                                                                                                                                                                                                                                                                                                                       +       O         O             X             X   X .                                 ",
"                                  .             X         X               & <.=.:.,.&                                                                                                               y s a u                                                         O 0 y y u O O         .     X     X     X         . .   @ X   .   O +   .       .                                                                                                                                                                                                                                                                                                                                                                                                                                                                                                                                                                                                                                                                                                                                                                                                                                                                                                                                                                                                                                                                                                                                                                                                                   + . X O                                 +   O X X     .                                 ",
"                                              O                 .   +   O O ) *.&.) O     .                                                                                                       O u a a u X                                                       O u y y u O                                   + +       $ @ O O O @ & & O X           X                                                                                                                                                                                                                                                                                                                                                                                                                                                                                                                                                                                                                                                                                                                                                                                                                                                                                                                                                                                                                                                                                                                                                                                                       +   + . + @ O X O O O X X X X X X X X O @ O O O O O O X $   .                                 ",
"                                  .   .           X             X   .     & ` ! *.` X         X                                                                                                     a a a u           O                                             O u y y u           . .           O                   @ B ) ) ) T ^ P ) Q A X     .                                                                                                                                                                                                                                                                                                                                                                                                                                                                                                                                                                                                                                                                                                                                                                                                                                                                                                                                                                                                                                                                                                                                                                                                         . .   O   @ L ( Q ) _ ^ _ ) ) Q ) ) Q Q Q ) Q ) ) _ <._ P M X +                                 ",
"                                                            .         +   O / T T A X   X .                                                                                                         u y a u O           X                                             0 y a u O O               . .   +           +     X X / E ;.*.! ! *.*.! E O O + X                                                                                                                                                                                                                                                                                                                                                                                                                                                                                                                                                                                                                                                                                                                                                                                                                                                                                                                                                                                                                                                                                                                                                                                                           .     O O ^ ! *.*.! ! &.*.*.*.%.*.*.;.*.*.;.*.%.~ %.=.Q / O                                   ",
"                                O                       X .         .     X O X @ X                                                                                                               X u y a u                                                       X O 0 s a u X           .   O   . +             +       @ ( %.;.*.*.W ;.*.6.~ @     + .                                                                                                                                                                                                                                                                                                                                                                                                                                                                                                                                                                                                                                                                                                                                                                                                                                                                                                                                                                                                                                                                                                                                                                                                             X   & Q 6.;.*.! ~ *.*.;.*.*.%.*.*.*.;.;.*.~ ! *.*.*.) @                                   ",
"                                                +             . +             X O         +                                                                                                         y a a 4 X         O                                               u y a u O                                 O         X ) *.W :.~ T 9.*.! Q &     .                                                                                                                                                                                                                                                                                                                                                                                                                                                                                                                                                                                                                                                                                                                                                                                                                                                                                                                                                                                                                                                                                                                                                                                                               X   X ) ;.! 6.F T 1.2.~ Q ) ,.) ) Q ) Q Q ` Q 6.;.! E @                                   ",
"                                    X     . . . . .   O   + X +   O +     X   .       X +                                                                                                           s a a u                                                           0 a y u O         .                       X .       @ ) *.6.Y $ ; J :.! T O   .                                                                                                                                                                                                                                                                                                                                                                                                                                                                                                                                                                                                                                                                                                                                                                                                                                                                                                                                                                                                                                                                                                                                                                                                                 O   O ^ *.*.Z ; X X O X X X X X X O O X O X ; n ! ! E X                                   ",
"                                O           . . .   X X O O O O @ & O O X     . . .                                                                                                             O   u a a u X                                                         u y y u   O       .                     O   .       X ,.%.W ) @ @ ,.*.~ / X             +                                                                                                                                                                                                                                                                                                                                                                                                                                                                                                                                                                                                                                                                                                                                                                                                                                                                                                                                                                                                                                                                                                                                                                                                 . +     . X ^ ~ Y ^ X   O                   O   X @ ^ ! ! E X X                                 ",
"                                                  X D C ( T T ( T C ( ^ D %   . . .         .                                                                                                       u a a u                                                         O u s y u O           .                     O         O ,.*.! ( X X ) W &.K X                                                                                                                                                                                                                                                                                                                                                                                                                                                                                                                                                                                                                                                                                                                                                                                                                                                                                                                                                                                                                                                                                                                                                                                                                     O   X P %.*.2.X     O         .             X ' *.;.) X                                   ",
"                                                X X ( R +.! *.6.6.! ! R A X X O .             .                                                                                                     y y a u           O                                             X 0 a y u             .     X                       . O ,.*.! ^ X O T *.=.^ X       X                                                                                                                                                                                                                                                                                                                                                                                                                                                                                                                                                                                                                                                                                                                                                                                                                                                                                                                                                                                                                                                                                                                                                                                                           O     X ) *.*.Q O   O O         . .   X +     X Q *.*.,.O                                   ",
"                                .     X     .     @ ( ! *.;.;.;.W *.;.Y ^ @ O O   .       X                                                                                                       X y y a u X                                                         u a a u O                       .     O       X     O ) ;.;.) O O ~ ;.;.) X             O                                                                                                                                                                                                                                                                                                                                                                                                                                                                                                                                                                                                                                                                                                                                                                                                                                                                                                                                                                                                                                                                                                                                                                                                       O   X ) *.6.~ X     O + .     .     O   +   X Q *.:.,.O                                   ",
"                                              +   & Q ! *.J 3.>.&.>.%.1.' * O O   .                                                                                                                 u a a s                                                           0 y y u O O       +       O     . . +               O Q ;.;.,.O O =.;.;.) O           O                                                                                                                                                                                                                                                                                                                                         X X   X     X   O   X   O   X   O X   X   X                                                                                                                                                                                                                                                                                                                                                                                                                                                                                                                                                                                                                                                             X   X   O X     X X   O                                                                                                                                     X ) *.;.E X       .   O     .           X T *.*.,.O .                                 ",
"                                      O         + & Q ! ;.T = & = ,.T ( N @ O       X                                                                           X           O           O           y s a u           O                                             X 0 y y u O                   X   . .                 X ) ;.;.) X   Q ;.*.,.@     +     +                                                                                                                                                                                                                                                                                                                                   .   X @ * @ * @ @ @ @ X @ O & & * * & @ @ X @ @ @ X   . . X                                                                                                                                                                                                                                                                                                                                                                                                                                                                                                                                     .                           .                                                                       O   .   @ * & X @ @ @ @ @ X * * * &   . .                                                                                                                             O ) ! ;.Q @                             O T *.*.Q O                                   ",
"                                    O     .       X Q 6.! ^ O O = _ Y ( ..X O             .                                                         X                                       O   O   u a a u                                                           u a y u           .               . .         . X   O Q *.;.Q   X ( 6.;.,.@   +         X                                                                                                                                                                                                                                                                                                                                   X | _ ) ^ K / _ ' ^ / / / _ _ I _ _ _ / ] ^ ) / m O .                                                                                                                                                                                                                                                                                                                                                                                                                                                                                                                                                       .               .                                                                         . X m X./ P _ K ^ ^ L L ' ' ,.B X   . .             .                                                                                                             X Q *.*.) O                       .     @ Q *.! ) O                                   ",
"                                    O   + +     O O T ! ! ` O O * <.~ T L @ O   X                   X   +                                                                     +                   X a a a u                                                           u a a s             +           . . .               X Q 6.;.) X X E *.*.&.@                                                                                                                                                                                                                                                                                                                                               X O _ W =.=.1.) T W ! ! ~ Y W &.Q Q &.Q T Q W ~ 7./ O O O   O                                                                                                                                                                                                                                                                                                                                                                                                                                                                                                                                   .                           . .                                                                   O O       _ 1.~ ~ ~ =.! ! ~ ~ T T &._ X . +                                                                                                                         + O O ) ! ! Q O   +                         O Q ! *.( O                                   ",
"                                    O O O         X ` +.*.T ; @ = H ~ Q _ * O O           . .     . O     O   X             X         O                           .   .   .     .                   u y s y O                                                       O u a u u O O                   .   .             +   X Q *.;.Q X   ` *.;.Q X                                                                                                                                                                                                                                                                                                                                               O O _ *.*.%.&.T ) &.~ ! ! ~ =.W ~ =.~ Q ` ~ *.;.W <.& O O O   O                                                                                                                                                                                                                                                                                                                                                                                                                                                                                                                                               .               . .                 O   O   O       X           O X             O O   O     X ) W *.*.*.*.! *.%.*.=.&.W _ X                                                                                                                                 O Q *.*.) O                       .   O O ) ! *.) O                                   ",
"                                      X   .       & ) W *.%.^ ) Q :.W Y K @ O +                                                                           O                                         y y a u                                                           u a u u X         . .     . .   . .     X   O   +   O ) *.;.) O O ) *.;.) O     X     .                                                                                                                                                                                                                                                                                                                                     & ) %.;.=.K 5.I _ / / ^ / ) ' ^ / _ _ _ ^ *.*.=.2.O O   O +                                                                                                                                                                                                                                                                                                                                                                                                                                                                                                                                   .                             .       +   .         .         +                                 + . +     X <.*.*.;.:.%.;.6.;.*.! ! ! T X     O             .                                                                                                             & ) *.! ) X   +       O           .     O Q ! ! ) O                                   ",
"                                  X     . . .     O _ &.:.! ! ~ ~ W ! #./ * &     .                                                                                                 .             X u a y y X       O                                               + u y a u O                   . .                 .   O Q *.*.) X   ^ %.*.) O                                                                                                                                                                                                                                                                                                                                               O O _ ! ! ~ * * & & & @ @ @ @ @ @ ; * & & > Y *.*.P O + + X                                                                                                                                                                                                                                                                                                                                                                                                                                                                                                                                                   .                   .       .   . +   .                                           .   +     X ^ *.*.*.%.*.*.;.*.;.! *.;.T $                                                                                                                                 @ ) *.*.Q O                           O X Q ! *.T O                                   ",
"                                          .     O @ _ W ;.! 6.+.! ! +.R A & O O X                                 .     .   +                                                           .         X u a a y                                                         O u a y u O           +                   X   + + . + O ) *.*.Q X X ^ %.=._ @   X       X +                                                                                                                                                                                                                                                                                                                                   X ^ ! ! Q & O   O O X           X X X   @ E ! ! ^ O         X                                                                                                                                                                                                                                                                                                                                                                                                                                                                                                                                                   .                                                                             o         % ^ ! *.*.%.=.;.;.*.;.*.! %.T X           X                                                                                                                 .   & ) *.;.Q @                             O ) ! *.T O                                   ",
"                                        .         X .._ Q Q Y ~ Q E T A ..@ O                   .                           .                                     X                   .             u a y u             X                                             u y y u   O                       X         O   +   O ) *.! E O X ^ ~ W _ X       X     .                                                                                                                                                                                                                                                                                                                                   X T +.+.T * O             +           X X ` ! ! T X . .   X                                                                                                                                                                                                                                                                                                                                                                                                                                                                                                                                                     .         X                             X                                           X X X A ! ~ &.E ~ ! 6.*.*.6.*.;.&.O   O O                                                                                                                           X ) ! *.) O             O         .     O Q ! *.) O                                   ",
"                                      O             O O & & O O O & O O O   O .                 .         X   +                                                   O     +           O +             u a a s X           O                                             0 a s u O                                   + +   + X Q ! ! ` X @ ^ ! Y ^ X                                                                                                                                                                                                                                                                                                                                               . X T ! +.E O                             X Q 6.*.Q O   .                                                                                                                                                                                                                                                                                                                                                                                                                                                                                                                                                           .   O .                 .                                                     .       X { I I _ ^ T ~ +.*.~ *.*.*.) X                                                                                                                                 O ) ;.! Q X                           O O T ! *.T O                                   ",
"                                + O O                 O     O O +     O   X .             + .   . . X     X       O X   X   X   X     X   X     O   X   O   X   X     O O   O O O O     O     X     y y a y                                                         X u a y u O         .               X         +       X E +.6.Y * > Y 6.7.^ O                                                                                                                                                                                                                                                                                                                                                 O Q ;.*.~ O       O       X             O Q ;.*.) O                                                                                                                                                                                                                                                                                                                                                                                                                                                                                                                                                           .           X O O   X     O         O   O       X O     O X   X     X X   X       X   X X O > & = = & , Y 6.=.%.*.;.;.) O     +                                                                                                                           @ ) *.*.) O   O                   .     O Q *.*.( O                                   ",
"                                  O   X                         +                             +   O g u u y s w s w y a y y u u u u u u s u w u u u u u s u y u u y u e u < u 6 u < O O       X   X y y u u                                                         X 0 y a u   O         .                           X X X ~ ! ! 9.Q Q 6.! ;.( O + . .                                                                                                                                                                                                                                                                                                                                         + O ) *.*.) O +     O   O       .       . O Q ;.;.,.O + .                                                                                                                                                                                                                                                                                                                                                                                                                                                                                                                                                         . .     O < 5 y y y y y u s y u y u u y y y y u u 0 u 0 u s u u u u u s u w 5 h < u y u y a 9 k k d j ! ! ! *.*.*.;.) O   .                 X                                                                                                   X   .   X T *.*.Q &   +                   .   O O Q ! *.) O                                   ",
"                                            X                 X                           .   O O O s y d a a y s y a a i i a a y a a y a a a a a a y a a a y a 6 y y s u y a i i u O     +         u y a a X                                                         5 y y u O             O     .     . . .   + O   X   X ` ;.8.;.%.*.*.;.6.! &     . . +                                                                                                                                                                                                                                                                                                                                       O P *.*.T O                     .   . . X ) ;.*.) O     . .                                                                                                                                                                                                                                                                                                                                                                                                                                                                                                                                                             X 5 u i d i d i a a a y a a y a i a y a a a a a a a a a y a a a a a a a a i a 4 s a z q a i i ! +.*.6.*.%.*.) X   .                                                                                                                           O X ) *.*.) O                             O ) *.*.) O                                   ",
"                                                .     .                                         O O s a i i d a u a y a i i i y a a a a a y a a a a y y a a a y i i y a y 4 i y y 4 X     +         y s a u                                                         O u y y u O         . .     +       . . .       X     X B T W *.*.*.*.*.*.Q & O +                                                                                                                                                                                                                                                                                                                                             O Q *.*.T           O         .       .   ) *.*.) X     X                                                                                                                                                                                                                                                                                                                                                                                                                                                                                                                                       O   .                   O 4 4 y d y a a a y y a y y a y a a a a y a a y a y y a a a y a y a a i d i d y a 4 y k a a i ! 6.*.! *.;.;.) X           X                                                                                                                     O ) *.*.Q O           O                 O Q ! *.) X                                   ",
"                                              +   .                                           X O O u y i i a 9 u u a a y i y 5 u s y 4 u u u u u u y u u y u y p y u s 9 y j i i i O O .         O u a a u                                                           u a a u                                             X { _ ' ) ) G _ <.T / O         O X                                                                                                                                                                                                                                                                                                                                     O T *.*.^   + X   X     .   .           X Q ;.;.) X                                                                                                                                                                                                                                                                                                                                                                                                                                                                                                                                                                 .   X p u y f , a s y u u w u u u u u u s u u u u u y y u u s y u y u u y y f 4 y y 5 u u 0 u 4 i E *.;.;.*.! *.) O                                                                                                                             + O O ) *.! ) X                       .   O X Q ! ! Q O                                   ",
"                                  .   +     O                       .                           O   4 6 y 6 @ O O   O O X             X       O   X     O     X X O O O O O y y y 4 X               a a a 0 O                                                       O 0 u a s             +                         X . . . & & X X X X O O @ @     . .                                                                                                                                                                                                                                                                                                                                           X Q %.*._ O   X     O +       X     X . X ) ;.%.) X       O                                                                                                                                                                                                                                                                                                                                                                                                                                                                                                                                                       . X   O y 6 4 < X O X O X X   O   X     X         O   X     O     X       O O O O X X       O O   X G ~ *.%.! *.*.Q X                                                                                                                                 O Q ! *.Q O   +                   .     O ) ! *.) O                                   ",
"                                    .                       . .       .                             5 4 y u O   O           . . +           O                     O   +   O u y a u     +           u y a u X         X                                               u a y u O O                               X       . . & O         +           .                                                                                                                                                                                                                                                                                                                                             X Q *.*.^ X         O O   O             O Q *.;.) X   X                                                                                                                                                                                                                                                                                                                                                                                                                                                                                                                                                             O O   p y u 5 X   O       O                   O                           O               O     X ^ *.*.;.*.6.*.` X                                                                                                                                 O ) *.*.) @                           O O Q ! ! T O                                   ",
"                                                                                                  O u y y u         O         . . .           X                             u y y u X             X u a a u                                                           u s a u X O         .                               .                                                                                                                                                                                                                                             .   .                                                                                                                     O ` *.! T X           .             O   X Q ;.*.) X                                                                                                                                                                                                   .     +                                                                                                                                                                                                                                                                                                                                                           X y i y u   X                                                                   X           X ^ ! ;.*.*.6.*.Q X             .     . +                                                                                                   O     + O P *.! ( O       X   X               O O ,.*.! ( X                                   ",
"                                                                                                    u a a u                     . .     X           O                       u a a u X             X w a a 4 X                                                         u a y u                                                                                                                                                                                                                                                                                                       .                                                                                                             O 1.;.! ^ @     .       .       O O   X X ` ;.;.Q X   .                                                                                                                                                                                               .   . O .                                                                                                                                                                                                                                                                                                                                                           5 i i 5             .                                                                   . O T ! 6.*.*.6.*.Q X           .     X                                                                                                       X       O _ *.;.! > X X X X X X X O O O @ X O & = T ;.! T X                                   ",
"                                                                                                    u a a u O                         X                     .             O u a a u                 s a y y       O                                                 O 0 s y s O         . .                                                                                                                                                                                                                                                                                             .                                                                                                         @ &.*.! ^ X     +   X   X         .     X ` %.*.T O     O                                                                                                                                                                                                                                                                                                                                                                                                                                                                                                                                     .             +         O   5 i i y O   +                 +                                         +               . O ^ ! *.*.*.*.*.) O                                                                                                                               + & <.*.;.8.F _ ' Q ,.Q ( ) _ $.~ ~ Q ) ) ~ ;.;.*.) O O                                 ",
"                                                                                                    y y a u X                                 . . .               .       X u a a u X         . .   s a a p X       O         O                                     O u a y s                                                                                                                                                                                                                                                                                     X                                         O                 O                                                                   @ ) ;.*.) X               X       .     X ` *.&.) X   O                                                                                                                                                                                   X   O                                     .   .   .                                                                                                                                                                                                                                                                                                                   .       O y y i u                                                             . . +                 X ) *.*.%.*.*.*.) O                 X                                                                                                               & <.:.w.w.%.~ W *.;.:.*.%.-.;.;.6.! ! ! ;.;.8.%._ &                                   ",
"                                                                                                  X u y a u                         X         .       X       .   +   .   O s a s s       . X       u u y 5       .                                                   0 a y u   O         .   O                                                                                                                                                                                                                                                                       O           . .       .                   O       O                                                                         X ) *.! ^ @ X                   . +   X X ^ W &.) X   +                                                                                                                                                                                             O                                 O     X                                                                                                                                                                                                                                                                                                                           O u i i u O           +                                                 . +                 O ` ! %.;.*.! *.) X         O                                                                                                                     O X K %.*.! ! ~ R ! %.%.%.*.:.;.;.*.! ! ! %.*.*.Q _ X                                   ",
"                                                                                                    y a y y X       O                       .   .       X       .         X s a a u O     . +       y a y 5 X   +                                                   X u y a u X                                                                                                                                                                                                                                                                                             +                     . .     .               O O                                                                     O ) =.~ F * O @ & X O X X O X X O O O X ; Q *.*._ @     O                                                                                                                                                                           .   + +               X       X                                                                                                                                                                                                                                                                                                                                                     O y a i y                                                                 O                 O ( *.;.*.*.*.*.) @       O   .                                                                                                           +         * K ' &.E E A A ( ) 2.) P Q &.Q Q T T ^ T T ) / { X                                   ",
"                                                                                                    s a a y                               . .             X                 y i a i O           X   a a i 5 X                                                       X 0 a a u O         .                                                                                                                                                                                                                                                                       .                                   .                   O                                                                       O & P %.;.9.T <._ Q &.Q ) ) Q Q ~ T ' ` ( F *.*.*.^ O       +                                                                                                                                                                     O             .                             .     .   .                                                                                                                                                                                                                                                                                                                       .           4 y y u                           .                                       O     .         @ Q ! 6.*.*.+.*.) X           .   X   . .                                                                                                   + X .     O O O & X X X X @ X O X O & O O X X X @ & & @ X   X                                 ",
"                                                                                                O   u a y u             X               .   .                             X 4 i i p               O a d i 4 X               +                                         0 y u u O         .                                                                                                                                                                                                                                                                           .                                                                                                                             O I =.%.~ ~ E &.&.*.*.%.~ =.%.! ! ~ ~ T E *.*.~ ^ X   + .                                                                                                                                                                                                               .     .                                                                                                                                                                                                                                                                                                                 .                     X   u i i y X   O       .                                                             .   X X X ( ! +.+.*.+.*.) X         + .                                                                                                             . .   . . +   O     X               O           X   O     X                                   ",
"                                                                                                    u a a u X           O         .     .       X           +               p i a u     X         O q a a 4           O .   +                                       O u a a u O           .                                                                                                                                                                                                                                                                                   X                   X     X                                                                                         X S ^ ^ ( / / ^ ( ^ ^ / I I I _ _ I I | I P _ I { X       .                                                                                                                                                                       X       X                                                                                                                                                                                                                                                                                                                                                                             X u i y y O   X                                                             + . . .       O X ^ Y 6.! ! ~ ~ / X           .       .                                                                                                               .   X                                   X                                           ",
"                                                                                                    y y a s                           .                 .   .   X .       X u a a u           + + O w a a y X     +   + . .                                           u a s u             .                                                                                                                                                                                                                                                                         X                                                       .                                                                   .   % X $ $ * X @ @ @ @ X @ X @ & * & & @ @ & & & *   .       X                                                                                                                                                                                                             +               X                                                                                                                                                                                                                                                                                                                     .     O   y i y u O       .                                                               . . +     @ B ' ^ T Q ` W P @         +   + X                                                                                                               X       .           +                         . .                                       ",
"                                                                                                  X y y a u                                           . .   +               u y a u                 s a i y       . .     X X                                         u y y s               O                                                                                                                                                                                                                                                                     .     o             . .   .   .     . .                                                                                       . . X O X   O     O X         X X   X     O O O O   +     X X X                                                                                                                                                                                     .                                     X                                                                                                                                                                                                                                                                                                       .                         u a i y             .             +                                   X   X       .   +     & & O & a l l k X       O                                                                                                               .         X   . .           o +         .           . . . . .                                   ",
"                                                                                                    u y a u X                               X         + +     O O .         5 a u u X       . X +   s a a p X     . . .     X X                                     O u y y u X O       .                                                                                                                                                                                                                                                                                             . X   . +   . .   .     .     .                                                                         . . +   O   O + +   + X   .     X         .   X   X   +                                                                                                                                                                             .   .     +     X   . +   . +   + X         O X X                                                                                                                                                                                                                                                                                                                         .             O y i i u O                                                                             + .   O O O O k l k a           O                                                                                                                                                     O           .   . .                                     ",
"                                                                                                    y s a u                             X           . + +   @ @             u y u < X               y a a s X     +                                                   u y a u O           .                                                                                                                                                                                                                                                                     .           + O X +   O   O +   X + + . + +   O                                                                                 + +       O   .                             X           .   X                                                                                                                                                                   . .   .                   O             O           O . +   . .                                                                                                                                                                                                                                                                                                           O     .         X y i i y             +                                               . . .           O       + O     u a a y   .   .                                                                                                                     X   X                 X     O       +     O       .                                         ",
"                                                                                                  O u a a u                                       . . +   X * X @ O X X @ $ a d d y @ X X X X X X $ d l l a @ X @ O O X X   . .                                     . u y y u O                                                                                                                                                                                                                                                                                   + +     O     X O   O O X O O O O O   O       O   O                                                                           + X       +   .                 X                   . .     X                                                                                                                                                                       .     O   X   O X X   O O   O O O   O O   X   O     +   +                                                                                                                                                                                                                                                                                                                               5 i 6 u X                                                             . . .   .         X           u a k q           O                                                                                                                             .                 X     +                                                       ",
"                                                                                                    a a a u O                       .             .     O $ S ( ) ) ) ^ P T =.*.;.=.H ) ) ) ) ) ^ A Q %.%.=.Q ) T Q ` N & O + .                                     O u a y u O O       . .                                                                                                                                                                                                                                                                         O     O X * X X @ @ @ @ @ $ @ @ @ @ X @ X O O       O                                                                           X         o                 O     X       X         + . .                                                                                                                                                                     O   O X < u 5 u u y u s u u y u u y y u y p y s 4 g u < O X X                                                                                                                                                                                                                                                                                                 .                       O   5 i a y                           .                                                 X               4 u a s       X         +                                                                                                       .                       O           . .                                                         ",
"                                                                                                    y y a s             X                 .         + O X X A E %.*.*.! =.*.;.;.;.;.*.=.W *.*.! ~ ! 6.;.;.*.&.*.*.6.! T @ O + + .                                   X 0 y y u                                                                                                                                                                                                                                                                                       +   O O @ } { B L L A / ^ ^ ^ A A / / S S { O O O         .                                                                           X               +   +           X                   +                                                                                                                                                                   X   X O < y y i a i y a y y y a a a i a y i y d a y u < X                                                       X X O     X   X   O     X X   O     X O   O   X   O O   X                                                                                                                                                                                                 .             O y y i u O           .                                                           O   O     X   .   X u y a p X         O         .                                                                                                   . +     O           +         .         .               X     O                                 ",
"                                                                                                  O y y y u                           .   .       .     X X ) *.;.;.6.! ! ! 8.;.*.;.%.=.*.! ! ~ ! ~ *.*.*.! ~ =.*.;.*.E @     .                                   O X 5 u 4 u X           +                                                                                                                                                                                                                                                                             O O @ / ^ Q =.E &.&.&.%.R Y ` T Q Q E / O O         .                                                                                                                                                                                                           .           .   .           .   .         X   .                                                 X u y i y 4 y y i y 6 i i i i a 6 i a a i i a s 0 O X       O   .                                   X X X & * @ @ @ @ & @ @ @ @ @ @ & @ @ @ @ @ @ @ & @ * * & * & & O X                                                                                                                                                                                                           O u i y 4             .                                                                             X u a a y                                                                                                                                                                                                                         ",
"                                                                                                O   6 i y 4 O O           .             .                 X Q %.;.%.Q T ~ ` T W Q ) ^ ) Q E ) ^ / ( ! ! ! =.^ ) ! ;.*.E X     +                                 O     5 u 5 u         . .                                                                                                                                                                                                                                                                       .     +   O & ..^ ` Q ) ,.Q ,.` ( T ^ ^ Q Q E / O       X     .                                                                                                                                                                                                     +               . .       X       .                 .                                             O   y a i d u y 4 y 4 4 u y y y y 4 4 u s 9 a a a u X O     O                             .     X     $ [ _ ) ) K L L _ ) _ _ _ ^ / _ ^ _ _ / ^ _ ^ I / ^ / _ <.I _ X.O.X                                                                                                                                                                                             +             O y a i u O   O                     .                                                                 u a i y                                                                                                                                                                                                                         ",
"                                                                                                  X 6 i y 4 O   O                                         X ) *.%.C ; X X @ a d d y & @ O @ O X @ O l d d d & * Q *.! E X       X                                 O   h h 5 u X     .                                                                                                                                                                                                                                                                                 O O O $ } o.m @ O & & & @ O > * & = | X. .O       X                                                                                                                                                                                                                             . .           .   .                                                               X u a y , X   O X   X   O     X   X O   * u a y < X                                   . +         X X X.` ~ *.~ ` ) ~ =.~ Y ~ Y W E W Y ~ Y E W Y ~ ! ~ ~ R E E ~ C ..X                                                                                                                                                                                                   .         4 y i 5             .                                                                               u a a 4 X             O                                                                                                                                                                                                         ",
"                                                                                                    4 6 y u O       X   . .       X     +                 X ) ! ! ]         y a i 4 X         .   O s a a a O = ) *.*.E X   X   O       X X       X O   X   X   O O O , u u s X   X                                                                                                                                                                                                                                                                               X   .       @ X @ X X X       O   O & O * O O O .                                                                                                                                                                                                                                   . . .             .             . O   X                                     X     X u y y 0 X O     X O     + +         X O u u u u     .                             X         X X X @ L %.*.*.=.` Q Y %.&.W ~ ~ ~ ~ &.~ ~ ~ &.~ ~ ~ E ~ Z E ~ ~ ! ~ A $ X         .                                                                                                                                                                     .                       X   u i i y X               O                                                                         O 0 a a 6                                                                                                                                                                                                                         ",
"                                                                                                +   5 6 p u O O           .                       X X .   X _ *.! ) O + X O 0 d y 6   O O   + . +   s a i d y a &.*.;.=.y 4 u p s y u y y y u y u y u y y y u y u y u s i a u   X             O                                                                                                                                                                                                                                                                         .     X X X X       .       X   O & O O   . .         +                                                                                                                                                                                                     + .   +           . . . .     X                   .   O                                           X   u u u h O   +     o . + . .   . .       u u y p X     .     .             O O O   X             @ @ _ ~ ;.=.G / I / _ _ ^ _ _ P / _ ' _ ^ ' ^ _ / _ ^ / ( G =.W =.^ @         .                                                                                                                                                                                               X   u i i y O       +                                                                                   u a i y                                                                                                                                                                                                                         ",
"                                                                                                    5 4 y 4   O X X X     X O       X   O   X             X ) *.*.) & + + O a a y u O   O     .     u a i i i d &.:.;.%.a a a a a a y a a a a y a a a i a a y y y y y a y y y X   O     X                                                                                                                                                                                                                                                                       X   . . . X       X           X     .         O   .           +                                                                                                                                                                                                       . . O                 .                                                                           X u y u u     +   . + . . . .         X O u y y 5 X         .   .   .                   O     . + O O I W &.T , @ @ * & @ & @ @ @ @ @ & @ & @ & & @ @ & @ * ; <.%.E ' @ O   +                                                                                                                                                                                                   O   y i a u             .                                                                               u a i 4 O                                                                                                                                                                                                                       ",
"                                                                                                    u y u p X @   O X         O   X X   O O X X X X X   X X Q *.*.) & O O X s a a u O       X       4 y 6 y d d >.-.;.=.d s y a a a a i a a a a a a a a a a a a i i i a a a u X O O                                                                                                                                                                                                                                                                                     .               .       X X                         X                                                                                                                                                                                                       .               X                 . . .                   X                                           u y y 0 O                             X < y 6 y X                   + . . +               . + . O @ / =.~ ( @ X   X X X   O     O O     O X     X   O X & = <.Q T X.& O     .                                                                                                                                                                                                     u a i y X                         .                                                               X u a i y                                                                                                                                                                                                                         ",
"                                                                                                O O u 4 y p , u u u u u h e u u g u u g w u 5 5 5 5 0 g e 9 3.*.*.Q k 0 u y a a y u   O O           g 4 y y u a ~ *.;.~ a 0 0 w u a u u u a u u y u u y u a u u u 4 y y y 0 0 O                                                                                                                                                                                                                                                                                     o     . .   . X   X     .             +                                                                                                                                                                                                                             .       X     X     X   . X +                                                             X     X u 4 y u X         X             X     X y u y u X                 .     .   .           X       O @ ^ ~ W ' @ X                                         @ & U 3.` P * O . .   .     X                                                                                                                                                                 +                     .   O y i i 5 O           .                                                                               u a a y O                                                                                                                                                                                                                       ",
"                                                                                                X   u 4 i a y y i y y 6 y y y y y 4 u y u y y 6 6 4 u 5 u a ! 6.;.Y d i 6 6 i i 4 5 X                 X       @ ) ;.6.E O     X       O   X   O O     O   X   X     O O     O       . .     X                                                                                                                                                                                                                                                                                 .   + +     + +       . .   .                                                                                                                                                                                                                         X X                                                     .                                           O u y y u X         X                 X   s u y 0         X                         X         + + O & / ~ =.^ @ X             .                           O & _ ~ ~ P & O   .                                                                                                                                                                                                     X y i i 5             .                                                                               u a a 6 O                                                                                                                                                                                                                       ",
"                                                                                                    u u p y y a y 6 6 y y 4 u y y y 4 y u y y y p u y u u d ! ;.6.! d i i i i y 5 5 X X .         .     . . . X T *.+.E X                                                 O       .                                                                                                                                                                                                                                                                               X         + X       X O   +   +         . . +                                                                                                                                                                                                                         O   +   +   O           . o       X                 .                                           X u u y u X                           X O h y s u O O                     X                       O @ P %.=.) @   .   +                   +               X @ / E ! ^ @ X .                                                                                                                                                                                         +               5 i i y X                     .                                                                   O u a a 4                                                                                                                                                                                                                         ",
"                                                                                                O O e 0 u 0 0 0 u u y u y u y u u u u u u 0 u u 4 < u < 5 a =.8.8.=.a u 0 < 0 0 , <   . +               . .   X ^ *.;.E X                                             X       + .                                                                                                                                                                                                                                                                                                         X                 +           .   .                                                                                                                                                                                                             O + + +   +   O   +           X                     +                                           u y 4 u           .                   O 0 y u u   O     + .           X             .           X & ' ~ =._ *   +                                       X @ _ ! ! ( *                                                                                                                                                                                                   .     O   5 i i y     +       .                                                                               u y a 4 X                                                                                                                                                                                                                       ",
"                                                                                                    O   O X O O X   X   X   X X O O   X O O X   O X O   X @ J %.%.J = O O O O O X @     . . .                 O ( ;.*.Q X                                                           . .                                                                                                                                                                                                                                                                                                             O             X       . .                                                                                                                                                                                                     o             . + +   +     . .                       O O                                           X X u y u u O     .   . . X   +         O O s y y u X         .               X   . +   . o X     X X @ K Q =.^ &       O                                     @ / ~ ~ ^ @ X .                                                                                                                                                                             .                         O y y a u O               O                                                                           u a i y               O                                                                                                                                                                                                         ",
"                                                                                                + . +     O O O   X       O   O X     O O   X     O     O O ) :.*.) &       O     X   X . .           X       @ ) -.-.) O                         O               X                                                                                                                                                                                                                                                                                                                       X                       X                                                                                                                                                                                                             . . .   X X         +             X O     + . . . .           O                                       O   u u y u     +     .   +               X u y y 4 X X                     X   O   O O O         X O & / ) Q _ @ O             X                             & X.E &./ @                                                                                                                                                                                                           O u i i y     O                                                                                     X u a i 4               O                                                                                                                                                                                                         ",
"                                                                                                        +                                 +         O     X ) *.*.^ O +               X         X             @ _ =.>.,.O       O             O         O                 O                                                                                                                                                                                                                                                                                     .             . . .         .       O                                                                                                                                                                                                                         . + . X X X X X X O O O X X X O @ & & & O O *   +   .                                                     X u u y u X         . +                 O u u a 5 X                         X @ O & & & O O ; @ X * , K &.,./ @                                         . X O I ~ ~ / @   .                                                                                                                                                                                                       O y a i u X           .                                                                               u a a y X                                                                                                                                                                                                                       ",
"                                                                                                X                     .   .     X       +                 X Q ! ! ( O     O   + .                             X ) *.%.) O           +                                                                                                                                                                                                                                                                                                                             .           . .   O               .     X         + .                                                                                                                                                                                                         O & M / ` ` E Q ) ) ) Q E Q Q Q E ~ 1.` L M &   X                                                         u y a u O O                         X   u 4 p 5 X               .       O ; { L ^ ` E _ P T T ' Q W =.:.%._ @ X   .                                       & ' Q W _ & O .         O +                                                                                                                                                                                   .         4 i y u                                                                                           O u a a 4   O                                                                                                                                                                                                                     ",
"                                                                                                        X                                         .       X ` ! ! Q O O     O                 +               X ` *.;.) O                         .               . +                                                                                                                                                                                                                                                                                             .             .         O                           .                                                                                                                                                                                                         & & _ ~ ! *.! *.*.*.*.*.*.*.*.*.*.! +.! E _ @ O     X                                                   X u 6 y u   X   O   O                   X g 5 5 5             + .       O X X _ E ! ! ! %.%.:.*.! ~ *.*.;.>.) *                             X             X & _ &.&.I O           X   O                         .                                                                                                                                       +                       X   u y i 4 X                         +                                                                 u a a 6                                                                                                                                                                                                                         ",
"                                                  +       X                                                                                     + .       O Q ! *.Q O                                         X ) *.*.) O                                                                                                                                                                                                                                                                                                                                                                                                                                                                                                                                                                                                       O & _ ;.;.;.*.~ ! ! *.%.*.%.*.*.Y ! 6.6.*._ O                                                         X X 5 u u u X O O   O +   +     +       O   5 5 5 1 X               . .     X @ ) =.! W E ! *.*.+.*.*.6.*.W Q ' @ O O   +       X                 O           @ ^ &.&._ @ X .                             X       . . O O   +           X     +               .         O   .   . . . +                                                                                             X u i y y O       .   +                                                                               y a a a X     O                                                                                         O           O                           + O                                                                             ",
"                                                                                                                      .                   X             . @ Q 6.*.) O       .                                 O ( ;.*.) O                                                                                                                                                                                                                                                                                                                                                                                                                                                                                                                                                                                                         O P *.8.8.) ) Q ) ) ) ) _ &.) ( E 6.6.*.P O         .   .                                           X   5 u 4 9 @ O X O O O           O     X @ y 5 u g   X                   . O * _ W *.1.) ) T Q Q Q =.E Q ' / M @ O                 . X   X             + o X & ^ ~ W L * O                                   X . . . & & O O X X X @ @ @ X X O O & & @ O & O X X X O & O X     o .   O                                                                                     .     O   y i y u O   X                   .                                                                 X l j d d * & @ = @ @ @ X O O                                                                                                   X               .             X                                                                   ",
"                                                                                                                                    .             .       O ) ! *.) O                                         O T *.*.Q X                                                                                                                                                                                                                                                                                                                                                                                                                                                                                                                                                                                                         X ) ~ *.F ; X X X O O O O O @ @ ; Y ;.>.<.O   X   X                                           .       X u u i d a y d y y u a y i y a u y y a y i p 6 u                   .     X @ ^ %.6.G ; X O O X O O @ X X O @       .   . .   +                 +           * _ =.~ / *                             .   X       . @ { <._ ) ^ T ) ) ) ) E T P _ $.Q E E ~ &.) Q ,.,.$.I M $ X X   X                                                                       .                         u a i y                                                                                           X r.d.j.h.a.j.a.a.h.h.i.y.O                                                                                                                                                                                                       ",
"                                                                                                    X                                 +       O           O ) *.*.) X                                         X ) ;.*.) @                                                                                                                                                                                                                                                                                                                                                                                                                                                                                                                                                                                                         X ^ ! ! ` * X X     . + .     @ ; Q %.%.P O X                                                       X   5 y y i i i i y y 4 a i i i i a a a i i a y u u O O O X             .   X @ ) ~ =.) *       +   +           .           .     O +   . .     .           @ @ ^ ~ ! / @ O               .     . . .         O       K T %.! %.~ %.=.%.%.*.+.%.%.*.*.*.;.;.;.*.! *.%.=.,./ % X                                                                                       .             O y i i u O           .                                                                             @ i.f.g.l.k.k.l.l.k.l.g.h.& O   .                                                                         +     . .     +                                                                                                         ",
"                                                            X             O                   O                     X         X     +   .                 X ^ *.*.T O       +             .         O         O Q *.%.,.O                                                                                                                                                                                                                                                                                                                                                                                                                                                                                                                                                                                                         X ] ~ ~ ) O       .     .       & <.%.=.) @                                                           O u u s y y y a i y 6 y i i i a a a a a a y p a u X   O                   X @ _ W W _ ; X             . .     .     X       .   O         . +   X     .   O & ^ Y Q / @ X           .           . . .     O       X ` +.8.8.*.~ *.&.>.%.! ! *.%.*.*.*.! *.*.! +.6.*.*.%.^ @ X X                                                                                   O     .         X y i i y                         .                                                                 @ i.f.g.l.k.k.k.k.k.f.g.i.; X . .                                                                         .   .       .                                                                                                           ",
"                                  .                                                                                               O                       @ ) %.*.) X                 O                       O ) ;.*.) X                                                                                                                                                                                                                                                                                                                                                                                                                                                                                                                                                                                                         X ) %.Y _ O + X     . .   X   O O _ W &.) @   X       .                                           O   O < 0 0 u u u u u u 5 u u y u u u u u u y u p u 0 O O X                   X @ _ =.~ ) @ X         .   .   .   O   X       .   X O O X X X       O   X   O O * ' ~ ` / @           +     .               .   O O X X ` ! *.6.F ) ) ,._ P T ~ ) ) Q ) T ^ _ ^ ^ E W 7.*.&.' @ X     +                                                                                                 5 i 6 u X                                                                                         X r.a.a.a.j.h.j.j.d.j.i.i.&                                                                                                                                                                                                       ",
"                                .                                                                     .                                         X         @ ) *.*.) O                           X             O Q *.*.) X     O                                                                                                                                                                                                                                                                                                                                                                                                                                                                                                                                                                                                 X O ) %.%.,.& O                   O _ *.*.` X         . .                                           X     O O O   X O   O O                   X   X             O                   @ _ ~ ~ _ * X                   O     O X     X O * O @ X @ @ X @ @ @ @ @ $ @ @ 9 J W ! S $ X X   X     .                     +       X E 6.*.Q > @ @ O & & @ & @ & & O O O O O X % ; T &.2.L @     + . +                                                                   .                       O   5 i a y             +                                                                               l x x k = & & * @ @ X X O                                                                                                                                                                                                       ",
"                                                                                                          . .                     X   X             .     & Q ! *.) O                                         O Q *.*.,.X                                                                                                                                                                                                                                                                                                                                                                                                                                                                                                                                                                                                       O & 3.*.%.P & O                   O ^ ! ! ` X X     . . .                                           +           O   O         O   +   .                   .     +                 X X P Q Q ' & O                     O   +   O   X X } I _ L _ / / I L / ^ ^ A X.K ) =.! ~ / @         . X                 X     +   + X X Q ! ~ _ X O O   O O           +   + .     X @ _ ) G | *     +                                                                                   .             O y y i u O                                                                                         X a a d s   +         + X O                                                                       X                                                                                                                               ",
"                                                            +                                                 +       X     .       X     o         .     O T *.! Q O                                         X ) *.*.) O                                                                                                                                                                                                                                                                                                                                                                                                                                                                                                                                                                                                         @ Q *.*.) O O         .         O T *.*.E X     . . . .                                                                           .   .                     .                   O @ ' E ~ / @   + .                       X   +   & I _ &.Q &.Q ) &.Q &.~ ~ ~ Q ~ W *.*.! / X X                                     +   O ) ! ~ T X           X         . .   . +     * ^ ` Q I @ O   .                                                                                       +         O u i y y             .                                                                               u a 6 4                                                                                                                           .       .             .                                                                       ",
"                                                    +         O                                           .                                   X + + . . O X ` ! *.) O                                         O Q 6.*.Q O                                                                                                                                                                                                                                                                                                                                                                                                                                                                                                                                                                                                         X ^ *.! Q @                   O O E ! *.T X     . .                                                       .                                           . .                         @ / Q Q / &                 X               O   * _ &.%.*.=.&.Q &.&.&.&.~ Q E Q &.&.=.2...X           .                 X X   + . + . O ) *.*.T X   X   . O               + .     X * ^ =.~ L & O         X                                                                                           O y a i 5 O   O                     .                                                               X u 4 6 4           . .   +                                                                                                                         .                                                                             ",
"                                O             .         O O O   O             X +   X                 + . .     O         . . . .       .         O +     O ) ! ! Q X         .       O   .                   O ) 6.*.) @                                                                                                                                                                                                                                                                                                                                                                                                                                                                                                                                                                                                         O ^ ! ! ) &                     X T ! *.Q X     .         X                                         .                                                       +         O         X X _ ~ ~ L @ O                         . .     X @ ' =.! 7.Y ) ) ' _ _ _ ' _ _ ' <.K _ I b X                 . .   .     X       + +   O Q *.*.) O       .                   O       ; _ %.&.^ *                                                                                                         y i i u             +                                                                               u y y 6 X                 .                                                                       . .                       .           O                                                                                       ",
"                                                      O O     X   O   O O O       X     X   O           O       O X X       . . . .     . .   X O O & & O * ` *.*.) O                                         X ) *.*.) X                                                                                                                                                                                                                                                                                                                                                                                                                                                                                                                                                                                                       .   ^ *.! Q @                     O E *.! ) O   .         X                                                                       O                                               X & / W ~ / & X     X             .             X @ / Y W Y , ; @ * & & & & & X & * = = * & O   .               .   . .             O   O ) *.*._ O                                 O @ ^ ! ~ ^ @ O                                                                             .                     X   5 i i 4 X                                                                                           a a i y X                                                                                         .     .               .           O                     . .                                                                   ",
"                                                    X < u g u s p 4 4 y u y y 4 y y y 4 u y 4 y p 4 p y u u y y 4 y 6 4 5 5 X   . .   . .   X * * & & & & * &.;.*.) O                           X             O Q ;.*.) O                                                                                                                                                                                                                                                                                                                                                                                                                                                                                                                                                                                                         O ^ *.*.^ O         X     + . + X T ! *.T O             X                                                 .         +     .       O     O       O   O X                         O @ / W ~ ^ * X                                   @ A ( @.( @ X X   X X   O   O   O O & O   + . .         X       . .                   X ) ;.*.,.O .     . O                 .   .   X / =.~ / @                                                                                             .         X 5 i i y O       +             +                                                                   O s a i y           X           .                                                                       + X O           X   X         O     O     X             .                                                                 ",
"                                                  O   e u 4 u a y a i y a y i i y y i y i i i y i i y i a a a y i i i i y 5 X         O +   * { L P / X.X.K 9.! *.) X                                         O ) *.*.) X                                                                                                                                                                                                                                                                                                                                                                                                                                                                                                                                                                                                         O Q *.*.) O +   .       + . X   O ( ! *.) O O                                                                 . .     .                                     X     X               & ' ~ ~ / @             O   O     X             ; / Q ( / $ X     . .   .   .   + O O O   . .                     . . .         O     X E ;.;.) O .                             +   X / Q E / @ X                                                                                                 . O   y y i u             +                                                                               s a a y O           X       .                                                                   O               X   X       X   O O   X O     X       X                                                                         ",
"                                    .   .           O u y a i a i a a a a a a a a a a a a y a a a a y a a a a a d i a y u 0 X   X     O     @ ] Q %.E E ( Q *.*.;.Q O       .                                 O Q *.*.) X   O                                                                                                                                                                                                                                                                                                                                                                                                                                                                                                                                                                                                     @ Q *.! ) O   . .               O ) *.*.Q O               . .                                                                                   . .                         .   X @ / ~ W ' X       X         .               O O & P Q T K & X   .                                           X         .   X       .   X Q *.;.,.O     X             .       X       @ L =.~ / @ X       .                                                                     .                         s i a y                                                                                             u a y y             O                                                                               X     O X X   X   X   X X   X       X   X   X   X                                                                           ",
"                                                  X X u y i i a y y u u u u u y u u u u u y u u u u u y s u y y a i a a u h O         O   O @ ) ! 6.~ ~ T ) %.8.*.( O       .                                 X ) *.;.) O                                                                                                                                                                                                                                                                                                                                                                                                                                                                                                                                                                                                         @ Q *.*.T O                     O Q *.*.Q O   O           . .                                     O   O             X           X                                               X & _ W ~ ^ $           .             .         O > P 1.,._ &             X     .     X   X       X X                 . .           +   X Q *.;.) O   X   X         .   +           O & _ ~ ~ ^ @                                                                                           +           O y a y u O O   X         O                       O         X             O         X           X     u a y u O   + X +                                                                                 X < g u u 5 5 u 5 u u u 5 u u h u u e g 0 h u u 1 X X                                                                         ",
"                                          .         X u u y u O O   O     O   X     O     X     X   O   O     O O O y y u u           O   X @ _ *.*.Q / { B 9.*.*.G &   .   .   .                 O           X ) *.*.) O                                                                                                                                                                                                                                                                                                                                                                                                                                                                                                                                                         . . .   X                                       X _ =.;.) @     .       X       @ $.*.%.<.X       X         +                                                                                                                   O @ _ Y ~ _ @ X                                 O & _ ~ ~ _ @                                                         O                 O ) ;.*.) O                   .       X       @ P &.~ / @ X                                                                                         .   .     X X p y p , * X O X O   O O O O   O   O O   O   O O O O O   O O O O O + O   O O O   O O O X O O O   O O u a a u O   O O         .                                                                         O u a i y y y 4 6 a y y y y 6 a y 4 5 5 u s a a u     o                                                                       ",
"                                                  X   u y y u X                                                     u a a u X             O X P %.W ) * ; & ~ *.*.( & O     .                   O             @ ) ;.%.) O                                                                                                                                                                                                                                                                                                                                                                                                                                                                                                                                                   X       .     X X O O   X     X         X     X       O L ,.~ ) *   X     + O X       O ,.;.*.) @     . +                                                                                                                               & ' W &._ @                                     * ' W ~ _ @ O                                                                         X ) *.*.T O       .                         O @ _ ~ ~ ^ @                                                                                     X       .   +   X . u 4 y u a u y u u 0 u s s u s s u s u u s s w s u u w u s u u u u u s s u u w u s u u u w u s s u u a a a a O       O       . .                                                                         y a d i i p 4 y a u a y y y a y p p u u a a y u                                                                             ",
"                                                    O u u a s O                                                   X u a a y                 @ _ =.>.2.* X @ =.*.*.) &   X           + +     +     X     X X   O ,.%.%.) O O                                                                                                                                                                                                                                                                                                                                                                                                                                                                                                                                                       . .   5 5 2 u u u y u s u u y s u y y s u u 6 y p k l k a d 4 6 5 e   O   X     X Q ! ~ ( X X   + .     X   O                                                                                                                   X @ L ~ ~ P &                                   X @ _ Q ~ I & X                                                                 .       X T *.*.) O                                   & ^ ~ ~ / @     .                                                                         X               .       X g y 4 y a p y y y u u u y u u y u u u y y u u y u u u u u u y y u y u a u u u u u u y u u y u y u a y p a 4 X               .                                                                         X u a d a 9 < 5 g u s h 0 u u 0 < < u < u d d a u X                                                                           ",
"                                                      u y u s                                                       u a a u         .     X X I %.&.^ * O * Q %.*.' &       X         O                       O ' =.%.1.@ O                                                                                                                                                                                                                                                                                                                                                                                                                                                                                                                                     .                       5 y u y a a y a a a a a a a y a a a a y i d a a a k d d i 4 h O + O     X X ) ~ ! ( X                                                                                                                               .     X & _ ~ ~ / @ X                                 X @ _ W ~ I @ O                                                                         O ) *.*.) O                                   @ _ =.E / @ X                                                                                               O       u u y 6 a 6 y y u y u a y 4 y y u a u 6 y u u y y 6 y 4 a y u y y y u y y 6 y 4 a y u y y y u y y u 4 y y , X                 .                                                                         u y d y * O   X   O O O     O O X     X 9 a a u X                                                                           ",
"                                                    + u u y u   O                                                 O s a a u X               & _ >.W _ @ O @ ) *.R T O O +           O   O     X       .   + + O _ ~ *.~ X     .                                                                                                                                                                                                                                                                                                                                                                                                                                                                                                                                                   X O   u i y a a a y a s a a a a a a y a a a a i y a y a a y 6 6 4 u O O +     X @ _ %.E ^ X                                                                                                                                     O @ _ ~ ~ _ &                                   O @ _ Y ~ _ @                                                               X           O ) *.*.( O   .                             X @ _ ~ ! ^ @                                                                                               .     O   < < < 6 u u u u u < u u u u 5 u u 5 u u u u u u u u u 4 u u u u u u u u u u u u u 5 u u u u u u u u h u p 5 X               .                                                                           u a a u O   O   O O O O     O     X     y i a y X       X                                                                   ",
"                                                      < y y s O                                                     u a a u       .   + O   @ | Q &._ @ X X ) ! ! Z > & O X X X @ O O O O O @ X X X O O O O O @ Q *.! ~ X X                                                                                                                                                                                                                                                                                                                                                                                                                                                                                                                                                             p i i a u u u 4 y s u u u u u u u u u u y 6 d i l a d d y p a @ O @ @ O X ; F =.*.( X                 +                                                                                                                     & ' W ~ ^ @ O                                   @ _ ~ ~ _ & O                                                     .                   O ) *.*.Q O                                   & L =.~ / @ X     .                                                                     +                         O O @ X     X X X O X X     X   X X   X O   X   X X     X X O X     X   X X O   X X     X X   X X   O X             X   .   +   X                                                                       O 0 a a u O                             X p a a y X                                                                           ",
"                                                  X X u u y u O                                                   X u a a y       . O       @ I ) =.P @ X & ) ! W =.H P 1.=.) ^ ^ ^ _ _ ) ) ,.) T ` Q ) P _ E ! ! 6.*.Q X     .                                                                                                                                                                                                                                                                                                                                                                                                                                                                                                                                                   X   X y i i y O O     O     X   X   X   O O O X @ ( Y =.1.n l a a d ( ) ) E ( ( ! w.;.*.Y O X           .                                                                                                                       X @ _ ~ ~ _ @                                   X @ _ W &._ @ X         .                                                               O ) *.*.) O                     +             @ ' ~ ~ / @                                                                                                               O         O       O   O     X O     O       X     O       O           O     X O   O       O     O . . .       .     O O                                                                           s a a u O O       O       X         X   y y y y       .                                                                     ",
"                                        .             u y y s                                                       u y y u X             X X L &.~ / @ X X ^ *.*.*.>.%.;.;.*.%.~ ~ ~ %.%.*.*.*.*.! *.;.-.*.+.+.*.*.*.) O   .                                                                                                                                                                                                                                                                                                                                                                                                                                                                                                                                                         X 6 i d a                                   @ ) ;.;.%.1.a d l d =.! ! ! ! ! ;.;.8.6.Q @   + .       +                                                                                                     X           .     X & I W Q _ @ O                                 X @ _ ~ ~ I @ O                                                                 .       O T *.*.) O                 O               O & ^ ~ ~ ^ @ X                                                                           . .               +         O O       O                                                                                                 .           O O & O X                                                                     O u a y w           X                   X p y a u     .   .                                                                   ",
"                                                    X u u y u   O                               X                   s a y y               X O L Q &./ @ X O ^ ! *.*.>.*.*.*.9.! *.*.! *.;.*.*.*.! 6.6.;.;.;.6.+.! +.W _ O X                                                                                                                                                                                                                                                                                                                                                                                                                                                                                                                                                           O y i a u X                               O O ' ! %.~ 1.d l a l &.&.! ! ! ! ! :.%.%.) O O   .                                                                                                                                 & ' W =._ @                                   X & _ W ~ _ @ X                                                                         X ) ;.*.) O                                   & _ ~ ~ / X X                                                                                                             .                                                                                                   X           X S Z ^ |                                                                         u a a u O                               u a d y X   .   +                                                                   ",
"                                                O     u y y s O                                                   X s y a u               X @ I =.~ ^ @ X O ^ *.! 6.~ ,.1.~ J =.! ! =.~ Q ` Q Q ) Q *.;.;.*.~ E T ) ) U X                                                                                                                                                                                                                                                                                                                                                                                                                                                                                                                                                   .     +     y d a u                                   & M ' ' ) N l q k x K _ _ ( Q ) _ 2.,.^ B O   .                                                                                                                                 X @ _ ~ W P @ X                                   @ _ ~ ~ I @ X                                                   .                     X ) *.*.T O       .                           * / =.~ / @                                                                                                                                                                                                                 X       +     X Z +.! ^ X .                                                                 X   u a a u O                     . .     X , y y u       .   .                                                                 ",
"                                                    O u y y h                                                     X w a a u X             O X L %.~ / @ X O ( ! +.E ; X @ @ : T ! ~ n > @ @ @ X O X ` ! %.Q ; @ X O & O   . .                                                                                                                                                                                                                                                                                                                                                                                                                                                                                                                                                     . .   u a a q                                 +   O X X X ; y a w 9 & O O   O O O & & @ ;   +     X                                                                                                                               @ _ ~ ~ _ &                                   X @ _ W ~ I @ O       .                                                                 X ) *.*.) O                                 X @ P ~ ~ ^ @ X     .                                                                         .                                                                                                                             O         .     X T +.*.) O                                                                     X y i a 9 X       .   .     . .     .   O u a a u                                                                             ",
"                                        .             u u y u O                                                     u a a u         O       @ / ~ ~ / @ X X ) ! *.( @     X X / ~ ` / @ O         X A ~ ~ ^ O   X   O   .                                                                                                                                                                                                                                                                                                                                                                                                                                                                                                                                           O         +         u a a u O       O       O               +       X     u s s s O O +   + +   +   X                   X                                                                                                                     O @ I Y ~ _ @ O                                 X @ _ ~ ~ _ @                                                           O               O ) *.*.) O                   .             X @ ) ~ ~ / X X                                                                                                                                                                                                           +         + +     X T *.*.) @                                                                       u i a y O     .     X   .     .       X u a a p X         X                                                                 ",
"                                                      u y y u O O                                                 X 0 a a u             O X @ I =.&._ @ O O ) =.*.T X     X X ..T &._ & X         @ ^ ! *._ @       O O     O O                                                                                                                                                                                                                                                                                                                                                                                                                                                                                                                                     O               .   5 i a u     X                           +           X s a a s O O O   .             . .           X                                                                                                                       O & ' Y =._ @                                   X @ _ Y ~ _ & O                                                             X           O ) *.*.) X                     .           X @ ^ =.E / @ X                                                                                                             .                           .                                                                   .     O           ^ *.*.Q O                                                                       u a a y X       O             O .     X u a y u                                                                             ",
"                                          .         X g y y e X                                                     u a y y X               X I &.&._ & O X ) *.%.) $       @ I 3.&._ @ X     . O O Q ! *.,.O         +   X   O                                                                                                                                                                                                                                                                                                                                                                                                                                                                                                                                                         y i a u X                               O   + +     O u d i y X       X             .                                                                                                                   X           .     X @ _ ~ ~ _ @ O                                   & _ ~ ~ _ @ O                                                                         O ) *.*.Q O       .                         O & _ &.~ / @                                                                                         .                                             .                                                                   O .           O + + X T *.*.&.X                                                                     X u d a y X   O       O   O   O           y a i y X                                                                           ",
"                                                      u y y s O                                                   X w a a y       .         & I &.&._ @ O @ ) %.%.) @     X & I >.%.( @ X     .   * Y ;.;.T *       .   .     X                                                                                                                                                                                                                                                                                                                                                                                                                                                                                                                                                       X 4 y a u                           X                 O 0 p 6 u X           X           +     .   X     .                                                                                                                   O @ _ W ~ P &                                   X O _ W =.' @ X                                                                         O ( *.*.) O               O                   @ P =.E ^ X X   .                                                                                                                                       O                                             O                                   X ( *.;.~ O                                                                       u d i y @ X   X X O X   X   X X X   X O y a a u                                                                             ",
"                                                  O   u y u s                                           O         O u a y u               O @ / ~ &./ @ O O ) %.%.<.O     O * <.=.%.^ $     .   + O Q *.*.,.X     .   . .     O                                                                                                                                                                                                                                                                                                                                                                                                                                                                                                                                                         6 i a u                                     .   O O   g 4 4 0   +   .             +                 . .                                                                                                                     @ _ ~ ~ L @ X                                 X & ^ ~ ~ / &                                                     .             .       O T *.*.) O                                   @ _ =.W / @                                                                                         .                                                         O       O                       O                 O                     +     T ! *.) O                                                                       0 y i f , 5 u u u u u u u u 4 u 5 u 0 0 p a a u X       . .                                                                 ",
"                                                      r s u u             O                     .   O       .       y a a u               X @ / ~ =./ @ O @ ) ! *.) X       & _ %.~ / @ X         O ) *.! Q O     +                                                                                                                                                                                                                                                                                                                                                                                                                                                                                                                                                                     y d a y O                                         O   s u 4 u X                                                                                                                                                           O @ _ ~ ~ _ * O     O                         .   @ ^ E ~ ^ @ X                                                     .           .       X T *.*.) O                                 X & _ ~ W / @ X                                                                                                                                                                                                                 .         X @ ^ ! ! ( O                                                                     O u u y y i i y y u u a y y y y y a a y a y y y u X                                                                           ",
"                                .                   O r a a u X X               O   O                               y a a y X .     +       @ ^ &.~ I O O X ) *.! ) O     X * ' ~ ~ ^ @           O Q *.! T O                                                                                                                                                                                                                                                                                                                                                                                                                                                                                                                                                                         X y a a u                                               h u a u   O                                                                                                                                                           @ _ W ~ ^ &               X                 . O & ' ~ Y / @                                                                           X ) *.*.) O                                 X @ ^ =.E / @ X                                                                                                                                                                                                                 .           O / Q E ^ X +                                                                   X g u i i i i a a y y u y a y a u u a y y y y u h O X O   .                                                                   ",
"                                +                   X u a i u                                               .     X u i i y           O   X @ / W =.I @   @ E ! ! Q &       @ / ~ ~ ^ * X         O Q ! ! T O O                                                                                                                                                                                                                                                                                                                                                                                                                                                                                                                                                                       X 4 a a y                                             O u u y s O O                                                                                                                                                   .     X & _ ~ ~ / @                     .   .         O & _ W ~ / @ O O                                                                       O ) *.*.) X                     .             & _ &.~ ^ @ X                                                                                                                                                                                                                 X         O O | ^ ^ B                                                                     + O 2 < u < 4 u u u e h 0 u s u u u u u u u u u < , X         .                                                                 ",
"                                            X   X   O s a i p                                                 .     y i i 6 X               @ ^ =.W L @ O O ) ! ! ` &     X & ' ~ *./ &           X ) *.*.E O                 O                                                                                                                                                                                                                                                                                                                                                                                                                                                                                                                                                         u i y y                                           O   u a u u X                                                                                                                                         X                 O @ _ W ~ _ & O               +     .     +     X & ' %.~ _ & O         +                                                               O ) ;.*.Q O         .     O                 X @ _ ~ ~ / X       .                                                                                                                                                                                                         . .           O O @ @ X O                                                                       X   X X X X O   O         O   X   O X X X   X @   X                                                                         ",
"                                                    O s a a u                                                       y d i y               O @ / W ~ I O O O ) ! ! T O     O & ) ~ ~ ^ @ O         O ) *.*.T &     .                                                                                                                                                                                                                                                                                                                                                                                                                                                                                                                                                       O             y i a u O                                             h y u s O                                                                                                                                                           O @ _ W ~ I @ X         .                       O * ^ ~ ~ / &               . .                                         O     .         X ) *.*.) O                                   & ' =.E / @ X                                                                                                                                                                                                                 .       X   O O O X X                                                                     . . .         X   O   O   O O     X         X           X                                                                       ",
"                                                    O 0 y y u X                                 .     O O   +     X u i i y                 @ ^ =.~ / @ O X E *.! ` O O     @ ^ ~ =./ &           O ) ! ! Q O                                                                                                                                                                                                                                                                                                                                                                                                                                                                                                                                                                       X X 4 y y a                                           O   u y y u O O                                                                                                                                                           @ _ ~ ~ P @                                   X * ` Y ~ / @ O         .   .                                     .                     O ) *.*.) X                                   & L =.W ^ @                                                                                                                                                                                                             X     .       X         O                                                                                                                                                                                                       ",
"                                        +       .   O w w s h               .       .   .       .     O O   +     O a i i y         +     X X / %.~ L @ O O E *.! ( O     O * _ ~ %./ @ X         O T *.! Q O O                                                                                                                                                                                                                                                                                                                                                                                                                                                                                                                                                                         y y a u                                           O X 0 y 4 u       .                                                                                                                                                       @ _ W ~ _ &             .             X         @ / ~ ! / X                                       X                                   O T *.*.Q O       .                         X @ _ ~ ~ / @                                                                                                                                                                                                                                 o + . X X                                                                     .               . +         X   . .     . .                                                                                   ",
"                                                  O O w s 0 h         .                       . . . O           +   u a d y               X @ ^ ~ &._ O O X ) ! ! T O       @ _ ! =.^ & X         O ) *.+.T O O                                                                                                                                                                                                                                                                                                                                                                                                                                                                                                                                                                         y i a u O                                             h y y u X O                                                                                                                                                         O @ _ ~ ~ ^ @ X       .                         X @ ^ E E / @ O .   . .                                   .                             O ) *.*.) O                   .             X * ^ =.E / @ X     .                                                                                                                                                                                                                       +   . .   .                                                                                     .                   .     .   .   .                                                                           ",
"                                          .     .   O s a s 0 O   O   O     O   O       O   O                 O   O 0 w a 0 X               @ ^ &.~ ^ @ O O ) ! ! Q O       @ _ ~ ~ ^ @           O ) *.! T O                                                                                                                                                                                                                                                                                                                                                                                                                                                                                                                                                                         O 4 i a u                                               u y u u O     +                                                                                                                                                     O @ _ E W _ @ X     +   +       O   O     O + .   & ' Y E / @ X               X       X             X                                   O ) *.*.) X         .           .             @ ^ =.~ / @                                                                                                                                                                                                                                     .                                                                             X               .   O                 .   .                                                                               ",
"                                        .     X   O @ y k d u @ X O O O O & O X O O & X O O O X X X X O O @ X O O O s a q h X         .   O @ / ~ &.L O O @ T *.! ) &     X * / ~ ~ / * O         O ) ! ! Q O O                                                                                                                                                                                                                                                                                                                                                                                                                                                                                                                                                                         y y a y                                           O   h y y u   O                                                                                                                                       X                   & ' ~ &._ @       O     O +   X   X O         O * ^ ~ =.^ & O X     X   X     X X                       .                         X   O ) *.*.) O                                   & P ~ ~ / @ X                                                                                                                                                                                                           +           .                                                                                                                                       .                                                                           ",
"                                    .   .         X { d a d a S / T Q T Q Q T E T Q Q T T T T T T T ( ) ( T T T E / a d s u X         X     @ ^ =.~ _ O O O ( ! ! ( O O     & ) ~ ~ / @ X         O Q *.! T @   .           O                                                                                                                                                                                                                                                                                                                                                                                                                                                                                                                                           O       X     O u y a u X                                           O u y y u O                                                                                                                                                     .     X @ P W ~ P &           O   < 0 u 9 y 4 5 u u < y l 1.*.W ,.l a u 4 i y u u 0 u 5 g 2 O                                                 O ) *.*.) O                           X   . X @ _ Q ~ ^ @                                                                                                                                                                                                                       .   +   O           .                                                                               . .                 X                     O     O                                                                 ",
"                                        .     X X O | j j d i ^ ! *.! ! *.! ! *.! *.*.! *.*.*.! ! *.&.*.*.R +.+.R E l l a s               X @ / W =.L @ O O Q ! ! T O     X @ _ ! =.^ *           O ( ! 6.T O                                                                                                                                                                                                                                                                                                                                                                                                                                                                                                                                                                           6 y a a                                           O   u u y u O O                                                                                                                                                         O @ _ ~ ~ / @ X O     O   O u s p i i i i y u u a l ~ ;.*.Q l a a i i i a u a p y g g O     .                     .     X               O ( *.*.) O                                   @ P =.E / X X     .                                                                                                                                                                                                       O         + O                                                                                           .         +   O                                 O                                                                     ",
"                                    X . .       X X V d l l d ^ ~ *.*.*.*.! *.*.*.*.*.*.*.*.! *.*.*.:.%.*.*.! ! R Y j l i u         O     X X ^ ~ ~ _ O O X E *.! ( X       * ^ ~ ~ / @ X         O ) *.*.T &                                                                                                                                                                                                                                                                                                                                                                                                                                                                                                                                                                         O y a a u O                                             g u y u X O                                                                                                                                                         O @ _ W ~ I @         O   O u 6 i i i i i 6 6 y i l W ;.*.Q l a y i i a a u a a a u h   O +                         .                   X ) *.*.Q X         .                       X & _ ~ ! / @ X                                                                                                                                                                                                             O                     X     X                                                                 O   +     . .                                                                                                                   ",
"                                        .         X o.l a d d S ^ ) T ) ) Q ) ) ) T T ^ ) ) Q ^ ) P ) ,.Q ~ E E / P a d a u X       +     O @ / %.~ L @ O O ` ! ! Q O O   X * _ ~ =.^ &           O ) *.! Q O O                                                                                                                                                                                                                                                                                                                                                                                                                                                                                                                                                                         y i a u                                           O   u y y s                                                                                                                                                               @ _ ~ W _ @ O .     O   X u y i i y i y u 4 5 a d ~ ! *.) l a y y 6 u u u u a a y u O                                         .       O Q *.*.^ O                                   @ ^ =.~ ^ @                                                                                                                                                                                                                           O                                                                                                               . X                                                                                               ",
"                                      + .       +   [ k k a a @ @ O O O X O O O O O O O O O O X O X @ O @ & O O O & k a a u                 @ ^ ~ %./ @   @ ) ! ! Q O       @ _ ~ *./ @ X         O ) *.! E O                                                                                                                                                                                                                                                                                                                                                                                                                                                                                                                                                                           u i a u                                           O X u y u u O O                                                                                                                                                         X @ _ ~ ~ _ @ X +     O   O < u u 9 @ O O O     X * K ~ ~ L @ X X     X     X i i a y O O +                                             O ) *.*.) O                     +             & _ =.~ / X       .                                                                                                                                                                                                                 O   O +           O                                                                                       X                                                                                                         ",
"                                        .       . O o.a a a u O                                               O + O r y a u X             X @ / ~ &./ & O O E ! ! ) &     X * _ ~ ~ P @ O         O T *.! Q O     .                                                                 X       O                 O                                                                                                                                                                                                                                                                                                                                                                                                                                                 X                     X y y y y                                               u y y u O                                                                                                                                                           O @ _ ~ W _ @             X 5 u y 0 O     + .   X @ _ E Q / &                 a i a u   O                                             . O ) *.*.Q O                 O               O @ _ ~ ~ / @ X       X                                                                                                                                                                                                                       .       O                                                                                                   .   .                                                                                           ",
"                                            X       ..l d y u O                                                 O O s y y u       X       X O ..~ ! ' & O O ` ! *.) X     O * I ~ ~ P & X X . . . & ^ *.! Q @ +         O                                       .     O X   O O   O X X O O O O X X   O O   X   X X X   O   O O O X   +                                                                                                                                                                                                                                                                                                                   X     .   .             .                                                                                                     y i a a O                                   .   O   O y 4 6 u   + +                                     .         .                 O                                                                                     X @ ^ R ~ ^ @       .   O X u y a u X     .   .   & ^ E 1._ O O             X y i i y                                     O         . . O ) *.;.E & O               O                 * ^ =.~ _ & O                                                                                                                                                                                                                 .             .         X                           X                                                                                                                                                                     ",
"                                                  X I d d y 0                                                       u a a y X             X O I ~ E P * O O Z +.*.Q X       * / Q ~ _ * O     +   O ^ *.6.Q O               X                                   .     < 4 u s u u u u u u u w 0 g u u u w h u y u u 0 0 e u 0 s y ,           .         X                                                                                                                                                                                                                                                                       O                 o .             +               X O       X                                                                                       O   4 y y u                                     .       X u i y h                                             .                 .                                                                                   X     O   X ; ^ R Y L @ X             u p a u O O       o   * ) &.W / &                 y a i y                         X   .           O     .   O &.;.! T & O . .   X                       O * ^ ~ Y I * X       X                                                                                                                                                                                                           .           .   .                                                                                                                                                                                                       ",
"                                        .         X | d d y 0 O                                 X                 X w a a u       .       O O | T &._ * & & ^ +.*.Q X       & / T ` _ * O         O ` ! ! E O O     X + O O                                       X X u p i a u u u y u 4 y u u p 4 4 y u u y y y 6 4 y u u i y f 0 O                                                                                                                                                                                                                                                                                                             .                 X   X         O                                                                                     O             X y a a u                                             X u y y 0     +   X                                   +                 .       O                                                                   .           O     X @ / =.=._ @ O         O X 5 a 9 u O       .   X @ ^ =.Y ' & O             O u a a 4 O             O               .       O           O &.;.! ^ &   .                           + O & ' ~ Q / + X                                                                                                                                                                                                                               . . .           O                                                                                                                                                                                           ",
"                                                    I l d a e                                                       u a y y O   . .   X   X & I Q &.<.* & & ^ ! *.Q X     O * / Q Q G = & @ X O O ; Y ! 6.) O       .   O O O                                       X 4 y 4 y a y y y 4 y y u y 4 4 u y u u y 4 6 6 p 5 y 4 y y y < O   .                                                                                                                                                                                                                                                                                         O         .   @ X X @ O + X X X   O                                                                                                                   4 i a u O                                             u 6 u u O           X               X     X                                                                                                         .       +   . . O @ _ Q E I & O         O   0 4 y u   O         X * ) ~ ~ / @ O               u a i y                             .           O         @ Q *.~ ( & O O X X     O O O O O   X X X O O * _ ~ ` / @                                                                                                                                                                                                                   .               . . .                                                                                                                                                                                                     ",
"                                                  X | d d y 0 O                                                   X w a y u       .     O O @ _ *.! T ; * = H =.%.^ X       & ^ ! ! :.W Q Q T T ' G %.*.! _ O O   . . .                                           X X u y y p y u u 5 u 5 p 5 5 u u u 5 0 h u u 4 4 u < u 0 f d a 4 O                                                                                                                                                                                                                                                                                           O               O & @ @ & & O O @ O     . . o         X .                                                                                             X y i a y                                             X u u y r O O                                 O     O X X     .         . .       .                                                                           +   . .   & X.Q Q 5.& O     O   O   h 5 y h O     +     O * / Y ~ / @ X               u a i 4                               +                   @ &.*.6.Y > & & * $ @ & & * * & @ @ @ @ & * * > E Y ! / @                                                                                                                                                                                                                 .   +             . . . .       O   O       O       +                                                                                                                                                                       ",
"                                                    I l d y s                                                       u a y u X   .   O     O @ ^ ! ! =.E L G >.*.%.^ X .   X * _ ! *.*.;.;.6.*.:.~ ~ ! :.*._ O         .                                             X < 6 y u @ O   X X X     X   X X X   X   O X X X X X O y y i u O                                                                                                                                                                                                                                                                                               .       + O & } ..B & & | ..{ * O   .               .                                                                                               4 a y y                                           X   h a u s O O O X O O   O   O   O     X   O O   O         X           . .         O                                                                     X     O .       * _ &.3.<.= O O   X O   X y y a u X O O O   O O * 2.~ Q / @     X     . +   u a i y O                                       O         X ) ;.*.9.H <._ ^ ^ P X._ I <.) ) / ] ' ^ ^ ) Y 7.! Q / @ X       .                                                                                                                                                                                                         . .       X         .   .             O O O         . . .                                                                                                                                                                 ",
"                                                .   I l i i u O                                                   X w a a u           O O O O / ~ ! R ~ Q Q *.*.;.) X     X @ _ ! 6.*.*.*.;.;.! 6.! *.*.W ^ O X     .     X                                     .   X < u u u     O O   X       O     O                   O u y 6 < X   O                   .                                                                                                                                                                                                                                                                               X O X / ( T > = Q G ..X O   X . . X                                                                                           O           X u y a u X                                         O   0 y a s O O O   O X   O   O     X O X       +   X   O           X       +                                                                           X               X @ K &.%.F > * @ @ @ @ @ $ y d d d * * O X @ X @ , G ! Q / X X   X     +   O u a a y O                                             X   X _ =.*.*.>.=.%.~ W &.>.,.&.&.&.&.~ ~ =.! ~ Q ~ *.! E / @ X       +                                                                                                                                                                                                         .           X     X       .           X     O                                                                                                                                                                             ",
"                                                  X | d d y 0   O                                                 O u a y y               O O I E ! E R E ~ *.*.;.Q X       O | / ^ _ ) ` T ` ~ ! E Q Q _  .O       .                                               X u u u 0 X               X           +         X   O   u y a 4             +                                                                                                                                                                                                                                                                                             O * ] Z ! _ ) ~ ~ / X O   . .           . . .                                                                                             6 y a u                                             O u s 9 f , h u < u g u u u u u u 4 u u u u u u u u u g u < @                                                                                               O         X * _ =.%.=.T ^ _ / ^ / _ N ` ~ Y ' G _ L L ' _ P Q =.! ~ ' @                 u a i y                                         O         X / Q =.W =.W ~ ~ =.~ ,.,.&.&.E ! ~ ~ ~ Q Q E ~ Y =.T I O X         +                                                                                                                                                                                                         .             X                 +                                                                                                                                                                                       ",
"                                                  X ..l d a 0 O                                         X         X 0 a a u X   .   +   + O @ } ..A / ^ ^ E =.*.;.Q O . .   O O O X O X X O O O O O & O O O                                                           u u u u O O                     X     +             X y y y y O   X                                                                                                                                                                                                                                                                                                     O @ ^ R Y Q Q *.Y S @ X   + .             .                                                                                               y a a y O                                             h a i d a u u u 4 y y y y y y u y y y y y y y y y u 4 u 5 O                 X                                                                                       X $ ^ Y 6.%.! ! ~ ~ ~ E Q ~ ! +.6.! &.=.Q Q Q E ~ Y *.*.! / @ X               u a a 6                                       .   +       X { / _ ^ / / ^ ^ ^ / I I I / / ^ / / _ _ I / / / ^ L | @   O   X +                                                                                                                                                                                                   X         + +                   X       o                                                                                                                                                                                       ",
"                                                    I d d y 0                                                       u a a u       .           * @ & * X @ , J 9.;.&.O   . .         +       .     O   O                 O O O O                                     X 5 u u u   O                                           u i i u O       .   .                                                                                                                                                                                                                                                                                           O O $ N ( ` ` T Y ` | O O   . +           .   .                                                                                           X y i a u                                   .         O u i d i y u y 4 4 y a 6 u y 4 y a 6 y y a y y y y a y u u                                                                                         +       .   +     X X _ =.~ E ` E =.~ ~ Q ! ~ ! ! 6.! %.~ Q &.E ~ Q =.&.=.' ..X           .   X u a y u O           O                               .       > & @ @ @ @ @ @ @ @ @ @ O @ @ @ @ @ & & @ X @ @ @ & & O           O                                                                                                                                                                                                                 + X     O                                                                                                                                                                                                       ",
"                                                  X L d d y 0 O                                                   X u a a u       . X     X X   O O O O O * ~ ;.;.=.X                                                     O                                           u y y u X                                           O u i i y                                                                                                                                                                                                                                                                                                       +   O } o.N / X._ / / { O.X   .     X         .                                                                                               u a a u                                         O     s y a i i f u u p u u s u y u u u u u s u u u u y y i y 5   O                   O                                                                   .       + .       $ } L P L ] K P ^ / L N ^ ` Y ~ Q ) / _ ' _ _ X.<.P _ I b @                 y y a 6                         X     O         +     . .   O O       O   X X     O X     X   X O O   O X X O O O   X .                                                                                                                                                                                                               X   O   + . +   +   + +           . .     X             +                                                                                                                                                                 ",
"                                                    I d i y 0 O                                                     u y a y X               X   O   +   X @ ,.W ;.&.O                           O                   X                                             O X 4 y y u X O                   X               .     O y y i u O                                                                                                                                                                                                                                                                                                           X @ @ & @ * & * @ O   X   o             .                                                                       X                   O   4 i a y                                 .         O   u i d i i 4 @   X O   O O   O O X O     O   X O O a a i u O   O                                                                                             .         X & * * @ & * X @ @ @ @ @ a d j d > & & @ X @ & & & = * &     .           X u a y u X                                           . .   +   O O .     +   X       . . X       + X           O   X     X                                                                                                                                                                                                       . X           +   + .             . + . .     .           . . .                                                                                                                                                                 ",
"                                                  O I d d y u O                                                   X w a y u                       X   .   O 2.;.*.Q O . .   O               O +         .   .                                                   +   O u 4 y u                                       .     O u a i u             .                                                                                                                                                                                                                                                                                                 O @ O O & O X O @               X   .                                                                                               X y y a u O                                 .       O   u a i i f y X O X   O O     O O     O O   O   O O y i a y                                                                                             X       +   . .   O O O O   X   X     O @ u y a 0 O X   X X X O O & & O   . . .             u a i y                               O           X . .         +                   .                                 X                                                                                                                                                                                                       . . .     X X       +           O O + O + . . .     X           .                                                                                                                                                                 ",
"                                                .   / d i y 0                                                     O u a a a             X X   . +   . .   O ) ! *._ X         O   + +         O O             .                                                     X 5 y y g X O   . .           .               X   .   O s a 6 y X                                                                                                                                                                                                                                                                                                           O O   O     O                           .                                                                               O           X   4 i a u                                             O u y i i y u                                       y i y u O                                                                                             X             . + O O     .           O e 0 u u X     .     . +   O O   . .             X y a i 4               O                         . O     . . O O         . .     X     .                           O                                                                                                                                                                                                             . . $   X X X @ O O O X O X O O & O O O     +       X         O                                                                                                                                                                 ",
"                                                  X | l d a 0 O                                                     u a a u O     . O X     . .           @ ) *.*.( X                                       +   O           +                                         u y y s O     .           .                     .   O u a a u                   X                                                                                                                                                                                                                                                                         O   +             .     .   +   X         X X     +   +                                                                                                 y i a y                                         O     g y i i y 0   O   .         + .         +   .   O y i a u O O         .   X                                                                       .                     X O                 O O 0 u a s O X                   X         X O       u a a y O                         +   +     X         X             X   .           .         O             X   O O       . X                                                                                                                                                                                                   O & } / ` ` E Q ) ) Q ) Q E ) ~ Y ~ ^ B & O   + . . .                                                                                                                                                                           ",
"                                                . O / d d u 0                                                       u a s y         . +   .   .             L ^ ( /                           . . .   X           O     . .                                         X y y a u   O                           X       .       y a i y O           .                                                                                                                                                                                                                                                                                               .       . . .     o     X                                                                                                               y a a y O                                             u y i a y u O   .                                 y a a u                       .                                                                   .     X         o                 O   O   O u s 9 s O           .     X   X                 X u a i 4                               +       X X                         .           .         O         . .   +             +                                                                                                                                                                                                 & & I ~ ! *.! *.*.! *.*.*.*.*.*.6.+.! ) @ X   .     .         O                                                                                                                                                                 ",
"                                  O             O O L d d u u X                       .                             s 6 i u O               .               X X   O                                                                                               O O u a y 5       .                         X     . .   X y i y 4             .                                                                                                                                                                                                                 X .                 X               +   .       . .     O                                                                                                                                                           O u a d a                                 . .         O r u y y y 4 X                                     u d i 4 X                   .                                                                                                           O   O u y y u X   X                                     y i a 5                               .                                                                                           O   O   . . .           O               O       O                   O     X     .                                                                                                             O & <.-.8.;.*.W ~ ! *.*.*.*.*.;.*.*.*.) X X   +                                                                                                                                                                                 ",
"                                O               + O B d a u u X             .                                   X @ y i y y O O                                                                                                                                       s a i u                     .                   .     y a i u O   O                     .                                                                                                                                                                                                     . .   .                     X           . . .                                                                                                                                                               X +   O u a i i O X     O X       X     O X       X   X X   O , u y i i y                                     O u a i y                                                                                                                               .     X u y y u X                                       X y y y 5 X                                                                                                                           O                                                               +   X             X   +                                                                                                       O H %.8.8.T ' ( T _ ,.P _ Q &.%.*.*.) O     O                                                                                                                                                                                 ",
"                                  +               O S d a a a O O                                 +           X   O , p y u                                                                                                                                         O u i i g         + O         O +   +     X   O   .   O y a i u             +                                                                                                                                                                                                               X       . .           . .       +         X               .                                                                                                                                     .                   O   u u i i y u u y u u u y s u u y u u u y y 6 y y y y a s a a i i u X   +                               X y a a 5               .                                                                                                               .       u u 9 u O     . .                       X       O y a a 5               X       .                                                                                                         . .     X                                                   & O . .     O             X                                                                                                   X ) =.*.F ; @ X @ O O O O O * Q *.*.) X                                                                                                                                                                                       ",
"                                  O             O O ..j a s y X X O X   O   O X O X X O X   O O O O O O O   O O & O p y y u   +                                                                                                                                     O 0 i i u           +       O                 X   .   O s a i y X                                                                                                                                                                                                                                 .     X @ & O O O O   O O O * O O O X                 +                                                                                                                                                   + +   O g y a a a d a y a a y a a a a y a a y a i y a i y y a a d a d a a O                                     w a a u O       X                                                                                                                   .   +     h 0 u u O O         X             X               y a a u O                                                                                                                         X         X X X X X X O O X X X X X X X O X X X O X X X X X O @ & & *         +                                                                                                                 X ^ ~ ~ ) * X   X       +   O ) *.;.T X                     O                                                                                                                                                                 ",
"                                                  O L d d a y ; @ @ & @ @ & @ * @ @ & @ & @ & @ @ @ & @ & @ @ @ O * a i d u X                                                                                                                                     .   0 a a u   X     O                             . .     y y i y O       +   .                                                                                                                                                                                                                         O B ) ) ,.,._ _ $.,.,.) T E ^ S $                                                                                                                                                                           O e u u y a y a y s a a a a a a y a a a a a y d d a a s a d a a y 0 X     +           .       .       .   w a a w     .                                                                                                                       .   .     u u s s O O O         O                         O y i a y O                                                                                                                       . .       @ B ` T ` ( ^ _ ,.Q Q Q ) ) ) ) ) ) Q ) ,.) ) Q ) ) ) Q T ) U & X                                                                                                                       X ^ ~ ~ ) O       .   . .   X ( ;.*.) @           X                                                                                                                                                                           ",
"                                                O & B d d a a B .._ ../ / ..../ / ..../ _ ../ / / .._ _ / / ..| | | i d i , @                                                                                                                                       O h y i u X O   O   O   X   X X             X           5 a a u                         .                                                                                                                                                                                                   .       X X ` *.*.;.%.%.%.:.;.;.:.! +.R ^ @ O +         +                                                                                                                                                             O 2 g 5 u u u u u y s u u u u u u u u 0 u u u s u w u s s , a i a u   X                                   s a a u O     .                                                                                                                   X       X X u 0 u u O O     O       O O O   O   X O     O   X y i i 5   O         +     X                                                                                                     .   +   O O ) ! *.*.%.%.*.;.*.;.*.*.;.*.*.*.*.*.*.;.*.*.*.*.*.*.*.! 7.2.&       + + .                                                                                                             @ ) ~ W _ O +       .       X ) *.*.) O                                                                                                                                                                                       ",
"                                                O & { i d a d ../ / ^ / _ / / ^ / ) ^ / / / _ ^ / / ^ / ^ ^ / / _ L i j i 4 O                                                                                                                                         0 y i u X X         .               .               X u a i y X           .                                                                                                                                                                                                               +   X     O ) *.;.;.&.*.~ ! ;.6.%.*.! R ^ @   + .                                                                                                                                                         X             . O X X   X   X O     X   X   X O X O     O         O O * u y 4 u                                       u a y u O     .     .                                                                                                                       O u a a s @ & O O   +   X     O       O X   O +   X a i a 4                                                                                                                                   O ) *.;.6.%.>.%.*.*.6.*.*.*.*.*.*.*.*.*.*.*.*.*.*.*.*.*.*.*.) O   X     . .       .                                                                                                     @ 2.%.%.) & O               X Q *.*.) X                                                                                                                                                                                       ",
"                                                  X { d a d a d l d l l d d l l d l l l j d d d d l d j d l j d d d d y i 5 X                                                                                                                                       O 0 u a p       O   .               . +           .   X u a i u O                                                                                                                                                                                                                               X     X T *.;.*.~ Y ~ Y ! *.%.:.! ! ) & O +                                                                                                                                                 .                     X                                             +             < p u u X X       O             O         O O a a a y     .                                                                                                                     X         X u y y d 9 s u u u u u u u u u u 4 u u u u u u u u a y a u X           +                                                                                                               o . O O Q *.6.*.Q _ <.) T ~ ) Q ) Q ) Q ) ) ) Q ) Q ) Q T &.*.*.:.H &             .     . .                                                                                                 X & =.*.%.,.* O               X ) *.;.) @                                                                                                                                                                                       ",
"                                        .       O O } y a a y i i a i i i i i i i a a i a i i a d a a d i d d a a k a a y 5                                                                                                                                         O u s y u O     X   + .     X         .       X   . . O s a i u             .           .                                                                                                                                                                                                   +     X   O T *.%.W : $ $ $ ; > 8 >.=.=./ & O +         .                                                                                                                                       +                                                                               X u u a , X X O   O O X O     O   O O   O O X O y a a y   X .                                                                                                                     X         X 4 y y a a u y u 4 y y y y y y u y y y u y y y y a y y u 4           .           X                                                                                                       +   O ( *.+.~ * O O O X   X O O O O X O O X O O O O O X & Q %.%._ O .                   .                                                                                                   O T *.*.) O O   X     .     X ) *.*.) O   O +                                                                                                                                                                                 ",
"                                                  O @ y a s 4 a a 6 6 y y 4 y y y 6 4 6 u 4 6 u y u u u y i a a a d s s u g X                                                                                                                                       O s y y u     +                     .     O         O   9 a a 4 X                                                                                                                                                                                                                           X         X ( ! ! q.T ^ ] / ^ <.,.,.W ~ / & O +         .                                                                                                                                                                                                                         u 4 a p u u 0 0 u u u u s u u s u u u 0 u u s y y i 4                                                                                                                                     X p 4 y u u 0 a 4 y y a 4 y 6 y y a y 4 y a 4 y y u u y u 5 X     X     +                                                                                                               .   O @ ) *.! ~ O     + .                                 O ) *.*.( O                 X   +                                                                                                   O ) *.*.Q O               . X ) *.*.) X           O                                                                                                                                                                           ",
"                                                O X X u u u u u u u u 5 u u u u u u u 5 u u u u u u u u u u y u 0 u u u 0 < X O                                                                                                                                   X O u y u h   . +   O O + . .   .       O O     X .     X 9 d a y X   +       +                                                                                                                                                                                                                   X   X O ) =.%.%.>.~ ~ &.%.:.>.! +.Y ^ ; O                                                                                                                                                                                                                       X     X   X O s s a a y s u a y a u u u a a y y a u u a y y y a y 4 X                                                                                                                       X   .   .   X 1 u u u u u 0 u u u u u u u u u u u y u u u y u u u h u < X X       . +                                                                                                               O + O O _ %.*.Q O                                         X Q 6.6.~ X         X                                                                                                               O ^ ! *.T @                 O Q *.*.) O                                                                                                                                                                                       ",
"                                                    O   X O X O X   X     X     .   X   X   X     X       X X X X O O O X O                                                                                                                                         O u a u g       @ O O O O O X O X X O O O @ X     .   X y a y u O                                                                                                                                                                                                                                     O / ) 3.&.>.Q >.=.%.*.W ! R ( / @   O                                                                                                                                                                             .             O                 O     X     X     X O u s a y q s s u y y a y a u a y y y y u a y y y y 4 4 X           O                                                                                                             . .   .     @   X O O O X X   O O   O   O O X O   X O O   O O X     X                                                                                                                           O     O & ) *.*.Q X +                                       @ Q 6.6.E X               X     +                                                                                                 . X ^ ! *.( O                 O ) *.*.) @                   O                                                                                                                                                                   ",
"                                      +         X     X   X   O       O O   O O X     O   O   O X         X X         O       o                                                                                                                                       y s a u     * N C ` ( T E ( T E E ) ) ) / { $         0 a i y O                                                                                                                                                                                                                           . .       @ { X.P P I I _ _ ) ^ / A A ..{ @                                                                                                                                                                                                         X             O             O < u s s 0 w s u u u u u u u u u u u u u u u u u h u <                                                                                                                             + . .     X O   O     O X   O   O O   O O     O O     O O   X X   X             . .                                                                                                                   O ) *.*.~ O                   O                     @ _ *.*.E X         O . + X   . .                                                                                                   O ) *.! ) O               + O ) *.*.) @                                                                                                                                                                                       ",
"                                      X               X       O   O O   O       O   O   O   O   X               +   .         .                                                                                                                                 +   X y a y u X X @ ( R +.! *.6.! *.*.! *.! ~ Q / @ o X   O s a i u             .             +                                                                                                                                                                                                 . . . . +   * O & * * & @ @ * @ @ @ @ X X X X               O                                                                                                                                                                                                               .       O X O O   O O   X X X X X O O X   X O O X X X X   X   .   .             .                                                                                                                     O                                                                                                                                                                                       X T ! 6.Q @ X X           O                         O _ =.%.( X               . .                                                                                                       O Q *.*.) O + . .       .   O ) ;.*.) O                                                                                                                                                                                       ",
"                                          O         .                         .                   O + . .         .                                                                                                                                                 X u y y g   O & ) ! 6.;.;.%.*.*.*.;.6.*.*.Q ^ $ X       u y i u     O                                                                                                                                                                                                                         X           X   X X O X   X   X X O O   X                                                                                                                                                                                                                                   . +     X           X             X               O   X     . .     X                                                                                                                         X         +   +   X     .     + .         +     .         X .             .                                                                                                                   O ` ! ! Q @                                         O &.;.*.Q @     . O O   +                                                                                                           @ T *.*.T O         X       X ) *.*.,.@       X                                                                                                                                                                               ",
"                                                      . . X .   .                                     .       . .       X                                                                                                                                       .     y y 5 g   O O ^ ! *.%.>.,.) &.Q Q ~ %.%.Q / X     X X u a y y X                                                                                                                                                                                                                             O           + O       .     .   +     +   . X       .                       .                                                                                                                           O     X                     X                         O O         .   .       X     +                                 O       . .   .                                                                                         .                         X                                                     .         +                 .                                                                                                           X         X ) *.%.) X                                         O ) *.;.` X         O                   .                                                                                           X E ! *.) O   .             X ) *.*.) X                                                                                                                                                                                       ",
"                                                                +       .   +       X           +     +       . . . X   X                                                                         O O   .     O   .   . O   X                                   . . X , s 0 u O O O ) ! *.&.* & @ O O @ * ) E ) / @ X       g 4 p p   O X                                                                                                                       .         .   X X   .       O                           . .   X .       . .       o     X                       + +             O O         +     X   .             X     . . .         X     +   O                 o   X     .             .       .                     O           . +     . .             O                                                           .   . . .       X   +                                 O           .       X           . .       X       . . .               X   +         .   .             O + .         X     O                     X           .   O -   . .       X   X O . .                                       .   . .   X     X                   X + .         O                                                     X ) *.*.) X         O O O                 X O O     X ) &.:.) O       .       . . X   & O + .             X                                                                             O E ! ! ) & O               X Q *.*.1.O O   X         . .                               O   +                                                                                                                                 ",
"                                            O       .                     . O O O X   X X   O           O X                                                                                           X   +   + +         O                                           u a a u @ O @ T *.;.Q & O O X   X @ P Q =.K @ X   X X 5 6 4 y O     +                   O                                                                                                   + O                   X   +   + X     X                         .                 . o       X + O         X   +           #   O         .                               . . . .     X     X               +                         O +   . .       +                 O       X     +   +     . +         +   O     .                                         O O         +                                                   O O         .     O       o . .               .     . +         .   X     . .       .           X       . .     X     O       .                             .   O O +   . . .   X     + + X                                     +   .     O .                         X O   #       O   X                                       O     .   X ) :.%.) O         O + + O           .   O O & & X @ Q *.%._ & O @ X X O & & X X O O & & . . . X                                                                                       X T ! ;.E > O O X O O & O X % Q *.! _ &         X O   . . X O O   X   X   X   X   X   O                                                                                                                                       ",
"                                          O       .               O X   X O < w s q 4 4 6 4 u 0 4 i y y a a 4 4 u 5 u h u g   +                                                                           .     X   .                                               X u a i d y s a ` ! ! ~ d p u u u y d Q *.! ' d y u y a i i i 5 O   +                 .                                                                                                             X       .         . . .   .             X   . .               X + O @   X + +     .     X             X X   .   o .   @                             .       +     O         X       .   .   .         O     . .     + + O O & & . . .   X           .   +   X   O   X       .   O O   +   O   X       +     .                                             .   X .     +       O     X                                                         +   + + & O + . . X           O         + +     X   . +           +   O         .   .           O O   . . .     + .   .         X         X     +   . +         .       o                                 O O     O O   .     O   X           O O ; > O       .         .                                   . .     X E *.*.) X   . . .         X           X { / Q T T E ! 6.%.%.) ( Q ~ ) ,.3.&.T Q T ) _ { X                                                                                             & ) *.;.;.W ,.( E Q ~ ,.,.^ E ! ! +.) O   .     O       X , y y 4 u 4 y u u u p p u u u y u u                                                                                                                                 ",
"                                    .               .     .               X u f a d p i i i u a i i i a d i i i 4 y a s y h O                                                                     .       .         .       .                                   X X   u y a i i a a T *.;.~ d i a a y d d ! 6.6.W j a y y a y a 6 4 X                                                                                                                                 @ & > & = O X         . . .   .     .           .           X X O & 8 * @ & & O       .           . .     O         + O & X @ @ $ @ * * * * * @ * ; ; ; $ @ $ @ & * ; ; @ %     X   +   . . .             @   . . O O * * ; * = &   . .       X         .       O O O     X X X @ * = * @ @ X X   X     O                                                 + .       O O & ; ; ; & @                                         + .           +     O O & & = & & X     X   O X                 + . . X     @ @ X X X O O & & X X X @ X X X X O @ & O O O   .   .         .           .           O O X X O & & O . . o   X                                   O & $ X @ X   .   + .           . O & = m.vX= & O           . . .                                   .     X Q *.*.) X       . .   X X     . .     X ( R +.*.*.*.6.6.:.:.*.+.6.*.%.%.;.;.*.! ! ! T B X   O         . . .       +                                                                 O O _ *.8.;.;.~ ! *.*.;.-.%.%.%.! ! ! ( O O     +   O     X 4 i i f a a i y a 0 y y a a y a a y X                                                                                                                               ",
"                                .                             + + .         y y a i 6 4 p 4 u y y a a a a d i i p a a a a s O O                                                                   .   X     +   O       X   .                                     X   h s a a y a a T %.*.E d a a a u a l Y 8.;.~ l a a s d a d u 5 X                                                                                                                           X X X , c.tXuXG.l ; X X       @           +   + + .                   & 8 G.<X4X; & @     .           . . . .   .   + . O O & = 4X>X2X2XeXeXwXwXwXwXwXtXyXyXeXwXtXtXwXwXtXwXeX6X7.* O O O   + .       X           O   O ; m.>X:XY.V.-XlX@     +     X   X               + .       X ; hX6XI.Y.5XjX@ X X     O                 +                                   .   X X O = xX6X0X2XbX@ X . .                                               O   +   O ; gX8X2X<XZ.@   + . o   O   O O       X X       X @ * = > > > ; ; > > = = 8 9 8 > > ; > > > > > $ @ X     .   .       .     X           X   ; > : ; > > = & o .                                       O = > ; : : $ O .   + .           + X * xXtX,XF.9 O     X       +                                           X Q ;.;.Q O               X X   +       O ^ ! 6.*.*.*.8.;.;.;.! +.! *.*.=.*.%.! ! 9.*.*.) X     X       . . +     .                                                                     O _ ~ *.;.%.! +.! 6.;.;.-.%.%.! @.! ` X       . .   +     4 y y d 9 a d a a u a a a a a d i a                                                                                                                                 ",
"                                  .         O                               u p a f u < u 0 s h u u w u y y y y y y d a a s                                                                     .   O X X X X     O X O O     .                                   X O e 0 s u y u a ) %.*.1.a s y u u y d Q ;.W Q a y w s s y u 5 < O     . .                                                                                                                   X X & hXtXoXoX{.yXx ; O @                   +   + .               X @ a iX}.#XpXnX; O .     . X         . . .       .   & * 8 9X^.+XoXVXFXVXZXCXCXCXBXBXNXFXoXoXZXSXVXOXBXZXoX[.A.v &   + +                   + + + O O : B.P.~.~.~.Q.I.; X O                           . . +     @ ; n.^..XQ.J.n.% X   X   O       .                                                 .   & 8 7X$X+X@X<X$     .                                                 + +   @ , 5X$X X@X2X; O   . . X     O               @ $ ; nXF.9X7X7X7X6XF.4X7X7X7X7XyXyX7X7X4X3X7X6X9X4XZ.#.$ X                 . . .       X     % hX3Xb.-X;X7XxX= X   X                                     @ lXA.Z.b.B.m.X X                   O a 6X&X%XaXm.O   X X   X   .                                     X     @ Q ;.;.,.O       O               O X   @ ) *.6.;.E ,.%.;.-.&.~ E ( ) ) ) ) <./ n 7.! ! Q X X O   +                                                                                     X { / ) ( T ( T T Q Q ,.Q ) ( C ) A V @ X   o   .   +   X u i i d a u y u s s a u u y d d i y X                                                                                                                               ",
"                                  .       O   O           O O               u 4 y y X   X   O O O O   O   O   X X X y a a u X                                                                   + O * * @ @ * @ & * @ @ & ;   +                                         O     O O @ ) =.%.) O O O X   O * ^ ~ =.^ * O   O   X O X O           .                                                                                                                     ; mXE.oXDXAXGXtXa.1 O   O O             . . O         .   . . @ 4X].PXFX%X}.F.; X                     . +   X X X X ; 4X>X$XoXZXAXNXJXFXVXBX+XCXBXAXFXFXoX+XVXoX+X+XVXVXOX+X}.z.y X       O                   O O O : v.^.|.~..X(.-X* O       X                       O +     O > C. XK..X^.3X; @         X     .         O                                 . .       X > 6X$X+XoXeX*                                             .   O O       O @ ; 4XrXoX+X1X;   . .   . +   O             X $ : 2X0X$X#XGX&XGX&X&XrX$X$X[.&X#X$XwX$X#X^.$XrXaX}.pXz.l & O       X           .             X ;X#X^.#X=X'.tXH.* X @   @                                 @ v.#XY.U./.B.% X       .           X , uX%XVXoX8X&       X                                                 O ,.*.*.Q O O     +                     O P *.;.W > * &.;.*.' * X O O @ O O @ X @ T ! +.~ X     O +                                                                                       @ @ O & @ X X X & & & O O X & O O @   .       .   O   X a y y , X O X O   X X O X X y y y y                                                                                                                                 ",
"                                . .   X   O O   O   X X     O   X X   X   X u a a s O O O O O O     O   X           a u u u X                                                                     O | ^ ^ / ^ / _ ^ / ^ _ | &                                     +   O O   O     @ ) ! *.) O           @ / Q Q ..@ O         X   X   +   .                 X                                                                                                   . X * lXrXoXBXDXBX%XwXvX* O           X                     .   O ; 1X+XVXoXHX].F.$ X   .   O O         .       X     $ Z.0X#X+XBXZXMXJXAX%X&X$X#X[.NXNX{.PX$X$X].$X#X#X%XVXOXZXFXqXr.$ X X               .         + O > B.'..XXX.X|.wX* O   O                                   O ; 3XK..X|.L.;X: X                   X                                         X .   . X , 6X].+XZXtX*                                             . +     O       O > 7XPXMXoXtX* O     .   +   O           O & kX2X#X|.+XZXBXVXBXVXFXoX+X@X+XoXoX+X#X XOX@XOXHX_.%X*X1XM.9 O O         X   O     .           @ E.|.|.oXoX+XZXrX7X; @ +   .                               $ 1X|.~.Q.~.N.$         .           @ > <XFXBXZXwX* .         X +                                           O ) ;.*.Q O O       .     + +           O _ %.*.) O @ T *.=.T @   + .           O ( ! *.T X   +   +                                                                                     X     O                       O O O O X   X         O   X d i p u O   O         O     u y i u                                                                                                                                 ",
"                                    5 5 u u u u 4 5 y 5 5 u u y u s y y y s a d l a q s u u u u u < g +             s u u 0                                                                     + O I ~ ~ ! 1.E Q =.E ~ ~ L O +                                 .                 O Q ! *.T O         X @ / ) Q L X       .                 .                                                                                                                       O ; -XQ.XXCXBXFX'.8XnX@ O     o             X X   X o   O O > 9X].HXOXCXOX].zX@       X           X           @ + ; 5X#XVXZXDXDXJXVX+X$X;X7X4X4X7X7XG.7X6X5X4X3XeX].%X+XXXBXMX{.>Xd $ X           +   .           O ; ;X).XX.XXX.XT.*                       O       O         O ; A. X|.|. X;X, O                                                                   . X : 5X$XoXVXtX& +                                         . . .             X > G.{.FXJXiX*               X X       X = xXqX#XXXDXZXXXZX.XoXLX_. X+XOXVXFXZXVXFXoX+XXXOXDXAXAXMXoXpXh.= O   . . .   X         .         * E.XX`.XXBXZXVXFXpX4X*     .                               @ T.XX|.|..XY.;       .           . O > 7X{.BXVXtX& . . . .   .                                     .   + + O ) =.! ) X   X       O               O O ) *.;.) & @ ) ! ! ( X . . +       O   X ~ ! ! ) O   +   O             X                                                                               X             .       . +               +       O u y 6 5                     5 y y 5                                                                                                                                 ",
"                                O   y y i i u a u 6 6 y 4 y y i a a a a a i a l k a s y a a y y y y u               s s a u X                                                                   + O ) ! ! ! W &.&.W *.! *.) O +                                   .           .   O ( ! ! T X           @ L ` Q I @                         .                                                                                                                     . + X h.E.oXZXHXFXoXR.8X, @ X o       .     X X   o     X & > 7X}.&XoXXX+X=XeX> X X                     O         @ M.0X+XBXBXAX`.oX[.].9X> ; $ ; > = > ; ; ; ; , , F.2X].FXVXJX_.aX<XjXX X     X                 + O ; A.)..XXXXX|.R.*               . .                       X > ;X X|..X'.>X: O .   .             O O                                         . .   X ; 6X].VXAXtX* O                                             . X O         X ; 7XrXAXMXtX* .   X                   X 8 iX{.oXZXoXVXoXXX=X].tXqXuXpXwXeXeXtXtXeXeXeXrX&X%XJXZXZXZXoX1Xa * O + . .       O     . .       ; 1X.X`.BXBXVXKX`.*X2X* &                                   * T.XXXX|..XE.*     . .             X = 7X&X+XZXuX* +                                               +   O   O ' Q *.E ; X O X X @ O O O X X X O O O * E +.*.Q * * Q *.! ^   +   +         X @ ~ *.*.) O + + . +     X                                                                                 .   +                         .   O     X         + .   u y y 5                   X 5 y p 4                                                                                                                                 ",
"                                  X a y i d a s i i 6 y y i i i d a a i a a a a a a y 4 4 i i i i i u             O w w a y                                                                       & ~ +.! ~ _ ,.$._ ~ ! +.E &                                                     O ( ~ *.) X           & ^ Q ~ L @ O                           .                                                                                                               X X   @ a a.W.oX X*XoX X#X<X, ; X X   + +   X     X . X O & > 3XrX%XoXVXVX].yXa & O . . .           O   O       X X ; 4XP.OXBXDXoX+X*XpX8 * $ X X     O O O   X X X O > * nXrX_.oXZXVX].lX* @ X                     .   ; 3X'.|.oX|.|.I.$             + .           .           . X ; ;X`.XXOX).<X> O   . .     .                                               O     .   X > 7XrXNXJXtX=                                           .         X   .   X ; lXrXZXDXrX;                 X       @ z.[.%XFXNXFXFXFX].<XzX= > * = * $ ; * * & & * = lXuX[.`.VXVXoXoX$XC.*           O       .   X     * :X.XXX`..XBX`.AX%X<X, O   +                               * ,XXX.X.X|.T.* .                   O ; 7X#X+XoXqX& +   O                                                 O O <.%.! 6.n ( ' Q ` T ) Q ( Z T ^ _ P Q ~ ! +.! *.Q &.%.*.6.` O + O +           & ,.*.*.Q O   .   O             . .                                                                     . . . .                         .               .         u a a u O   O   X         O y y a y X                                                                                                                               ",
"                                O   y 6 i i , u u y y y u 5 4 u q u u u y 0 d a a f u p 4 i 6 i i i s X X     . O O w a a 0 O                                                                     X E +.! W q = > q W ! ! E X X                                 .                 O ^ %.! ( X   O     O @ ^ =.~ / @ O             .                                                                                                                                   X & y x.J.`.oXoXSX+X#X2XgX$   O   + +   .   .     O = 6X$X_.FXVX+X%XtXk & * .   .   .   O     +             & y b.Q.IXZXZXVX XR.4X& O   .   .           .     O   & = yXFXoXOXCX%X7X> @ O                     . X ; B.R.|.`.XX.XI.@                 +       .               O * D.L.XXXX).;X> O .                   O                                     X   .   . X ; 9XPXNXNXtX*                                           .                 X * 7X].VXDXtX$   X                     ; T.XXoXVXFXNX_.[.uX9 & O O O O           + + + @ ; , :XaX%X+XSXOX@X:X* +             X     +       $ :X~.|.|..XXXSXZX%XwXgX;   .                               $ }.XXXX|.|.T.& + .                 X ; 4X$X+XVXqX@   X                                                 O   X _ &.8.6.~ ~ *.%.*.:.*.*.! ! ! *.%.;.*.*.+.+.+.*.*.*.;.;.W ( O         X       O _ ;.*.Q O   +     X X     . .   . .                                                                     .   . .           +             O   O   X       .     X u a y u O O               O u a a y                                                                                                                                 ",
"                                +   u y s u O O O   O O O     O O X   X   @ 4 y y 4 X   X X X y a a u O     .     O a k a y O                                                                     @ E 6.*.*.W ~ ~ ! ! +.6.E X                                       .             O _ =.&.) O X O   +   * _ =.~ ^ @ O           .               .                                                                                                               +   + + X $ j V.'.ZXAXBXVX+X'.sXgX> & O O       .   O & , 6X$XoXZXVX+X X$X7X8 &     .     o   X       O       .   O a <X'.+X%X%X+X$XmX= & +             X     X O & +   O * mX{.+XCXCX%X2X: X             O           X : B.L.|.|..X|.I.@     . +     O .                   X     X ; n.R.~..XL.;X> O .                       +                                     O . . X % 5XE.*XoX2X$ X                                           .             X @ ; 7X$XoXNXyX@             . .         , E..XoXVXoXoXFXwXxX= O   X     o                 O @ a -X#XoXXX+X@XeX* O . .           X           * Y.~.|.|..X.XXXVXoX$XD., O                                 @ T.|..X|..XT.*           X         X ; 4X$XoXFXyX@     X                                               X X X / Y ! ! ! ! ;.;.%.%.-.;.*.! *.*.-.;.*.! ! ! &.%.%.*.%.;.6.( X .   O           X ) ;.*.Q X                 .   .                                                                               .         +   O       X                 +         p a a y   O               O s a i y X                                                                                                                               ",
"                                    5 y a u O O   O     + +   O             5 p a <           0 a y w O     .     O s a a u X                                                                   o X E Y ! 6.W 6.*.W 8.! ! ) O o                                       . .         & ) %.%.) X         X @ / =.~ / @ X           . .                           .                                                                                                   + + X .   X @.<X[.NXMX+X+X+X&X<X> * * O     X   O & 8 ;X$XoXVXBXDX@X$X8X> & O . .   X                         X O , <X'.(.oXFX X<X> & O   . X         X       O O X @   @ > yX#XoXVXFXpX4X;                         X : ;X X|.OXXX|.I.$             O           O   O             ; n.^..X.XL.3X> O                 O O                                                 X % 5X$X%XoX2X@                                         X                   @ ; 6X#XoXNXyX$       O O   .   . .     , E.|.VXoXZX+XaX<X> * X   X   .       .           . O * lXpX XHXoX+XtXt & # .   X     X     . +     ; :X~..X|.OXXXVXoX+X#X1X9 @ O                               $ T..X.X|.|.,X&   X   X         .   X > 4X].%XAXqX@                                               .         $ B _ ) Q E E Q ) ,.,.) ) Q Q P ) Q T Q Q ~ *.>.&.) E Y 1.) V X           . .   X Q *.*.E @   +           . . .                                                                                               +   X         + X                 X y i i y   + +         O   O u a a y                                                                                                                                 ",
"                                  O 4 6 y u   O           .         .   X   y i a u O     X   u s a h             X u a a w                                                                       O ) ;.*.*.;.*.*.%.*.;.*.) O                                     X     .   .     & Q *.;.Q O           @ K ~ ! / @ X     + .     .             .                                                                                                                   .       X ; n j.&X%X_.LXVX XaX6X> @   .     O * 8 6XaX+XoXHXXXKX.X:X> O O     X         .   .   X       .     @ a -X#X|.OX X$X4X* O +                       .     X   X @ ; eXoXMXFX=X>X;     .       X         . X ; >X).XXXXXX(.<X$     .                                   X ; D.'.XX.X).;X; X     X           O     .                                             @ > 7X&XFXVXqX$                                         O       X     .     & > 6X].ZX+XtX$     . O O             X , E..X(.+X X'.8X, $ @         . . .     O +   X       @ > H.aX XDXVXPXlX= X   +             .   O O * -X|..X|.XXMXXXZX|.*X#X<X> O                               @ I..X.X.X+X-X$     X           .   @ > 6X].FXAXtX% X       .   .                                     o +     O O O X % X X O O O X X X O O O X X X * ~ ;.%.) $ @ @ O X O X X   O O   .     X ) *.*.E O   X .         . .       X                                                                 O                     . .           . +         .         X u y i 4           X         u y i y                                                                                                                                 ",
"                                  X 6 i y u O           .       X     .     y i a s     +   O 0 a y u X             a a a u                                                                         I Q _ ) ,.T ) ,.) ) ) / O                                             .       & E *.*.Q * O & O O X * ( ~ ~ A @             .                             .                                                                                                   O     .   + X $ x d.wX%XMXVXVXoX$XnX; X   X @ ; xXuX}.oXoXFXFXFX#XpX4XO .     + .   X     . o .                 O n 1XQ..XOXQ.V., * X                       .     X     .   @ <X_.ZXVX+XeX& + . .             . . . O ; ;X).XXXXXXXX;X@   .         O         . .               X = D.'.XX.X).3X; X   X     O                                                         O O > G.NXZXFXeX$                                                       . .   & ; 7X$XoXVXeX$     + O O         .   @ 9 Y.|.XX+X+X].gX; X       X   . . .   X               O & > <XGXVXDX[.7X; @       O       .     O   & I.Q..XQ.XX`..XoXoXoXFXwXvX* X                             @ -X~..X.X|.,X$                     X ; 7X$XVXZXwX@   X   . .                                         .   .   +     X           .           +       @ ) *.:.,.X       .         O O .   .   X Q *.*.) O                 . .                                                                       + X           O         . .           +                     u a i 4 X .     X           y y i y X                                                                                                                               ",
"                                    y i a u                               O y i a y         O s y u u               y a y u   .                                                                     O O O X O @ O @ O @ @ O O     X     .                             X     . .   & T ! ! %.&.3._ ) Q &.%.%.! ` / @     X .                                                                                                                                     O O               @ d b.$X+XVXDXMX&XeX, X   O = 6XaX#X XHXoXAX[./.B.4 & O .       . . .                         . @ d.`.(.XX.XL.;X, X                                         $ ,XoXVXVX+X2X&                       + O : ;X X.X|.|.|.-X;             O               .           X ; A.'.|..X).3X> X                                                                 O # @ > G.{.VXVXuX@                                                             O ; 7X&XoXVXeX$                 .   X @ n R..XXX`..XI.* X X           .                       + O > ;X$X+XZX&X9X; O   X                 + O & E.~.~..X|.|.|.XXJXAXMX&XuX, O X       .         X         * -X.X|.|..XT.@                     O ; 7X{.VXVXeX@         .                                                                     +       .         O ,.%.;.Q O                   +   . .   @ E *.;.Q O               + . .                                                                                       O     .   .           .       +           O u i d y                     y y a u                                                                                                                                 ",
"                                  X u a a u X                         .   O u a a u       X O 0 y a s O O   .     X y a a u                                                                                                       X     . .         O                       .   O @ ( +.6.;.;.%.;.*.*.;.6.;.%.) S X @                                                                                                                                                         . . X ; ; -X=XVXAXAX`.aX6X> = > F.PXXXoX+X|.*XFXwX5X% O O + .       . .                             $ N..X|.|.|.!.;X; X .                                       @ ,XOXXXZXCXwX& .                     . X : ;XR.|..X|..X-X@ X                                       X ; A. X|..XR.3X; X                                                                   @ @ > 7X#XCXoX2X@                                               .             O > 4X#X+XVXeX;               .   . X ; e.R..X.XXXXXI.@                       .                 X ; B.#X+XoX#X7X* O                       + * R..XQ..X|.|.+XXXAXAXDX).].4X@ O   X . . . X     +         * -X|.XXXX.XT.@                     X ; 7X#XVXoXeX;                                                                                         + +     @ ,.=.;.,.O   .   .     X   .   .     O O Q ;.;.) O     X     O       .                                                                       .           X     X .         . .                         O y y a s     X               y a a u                                                                                                                                 ",
"                                    u a a y         O                       y a i 4         O 0 y y u O     .       y a a u   .                                                                             .   +                           . .     . .         .                 @ ( R ! ! *.;.! ! +.;.;.*.~ ) / X X X +     +                                                                                                                                 .               .   O > a.2X).VXVXZXoXaXA.y <XpXoX`.LXoXZX+X[.yX: @ O + +     X                                   $ 1X|.XX.XXXL.;X; X                       O                 * ,X.XXX+XOXwX* .     .                 O ; ;X X|.XXXX.X-X@           O                             O ; D.!.|.@X'.;X; X                     .                                             + @ ; 7X&XBXoXeX*                                                             O ; 7X{.oXVXeX*       X         .   X ; n.R.|.|.XX.XI.*                                         O ; 3X#XoXXX].6X> O                         * Y..X~..XXXXXFXFXVXBXVXLX).uX> @ X           O       X     * ,X|..XXX|.Y.@                     @ > 3X&X+XVXqX>                                                                                     X     .     X ( ! ! Q X X   .       X +           O O ` ! ;.) O .                       X                                                                                                                             4 y i y O                 X y a a 4 O                                                                                                                               ",
"                                    y y y u                   X           X u a y y X       O u y y u O O   .     X y i a y O                                                                                       .     .                     . .                               @ D Z ( ( T E T ( T Q Q Q ^ / } @ X                                                                                                                                                 X     X         & = bX1X*XoXAXZXVX$XR.#XoXAXAX_.FX%X$X7X> @ O +     X   X X         X     .       X         @ 1X|.XXXX.XL.B.; O                   .                     @ ,XoXXXZXOX1X*                       . X ; ;XR.|.XX|.|.-X;                                         X ; ;X X|.|.R.3X; X       +                                                       +   # X ; 7X&XoXoXeX*                                                             O > 3X#XZXVXeX@               +       ; 4XR..X.X.X.X:X@                       .               . X ; ;XR.+XZX[.9X; @         O           .   % Y..X.XXXOXOXoX XXXDXXXHXVXT.lX;   .         O             * ,X|..XXX.XY.;                     O ; 7X{.VXFX2X,       X                                                                       X                 X ^ ! ~ ` X       .         O     X     O ' *.*.) O     X                                                                                     O O                         O O                 .       X   u i i u     O               y a y y                                                                                                                                 ",
"                                  O u a a u X                             X y d a u         O u y y u       .     X y a i y                                                                                       .         O O + O O .     X                               . . .   X X X O O O X X O O O O O O X   X   X . X                                                                                                                                     .                   O * t 9XR.oXJXAXMX*X#X XVXJXJXKX[.rX9X= & + + #   X   X                                     @ 1X|.XXXX.XR.3X; X                     .                   @ T.|.XXXX.X,X&                         X ; ;XR.|.(.|.|.-X@                           .             X ; A. X|.XXR.3X; X                                                                 O + X = 7X#XoXoXeX*                                                           X O ; 4X{.oXVXeX$               X     X ; n.L.|.XX|..XI.@                           .             O ; 3X'.OXOX$X3X> O     X                   @ Y..XXXBXXXBX|.VXoXZXXXXXVX=X6X9 X   o     X               @ ,X|.XX.XXXY.@                     O ; 4X#XZXoXeX;                                                                                               X X A ! ~ _ @ X             O       X   O O P Y &.,.X       .         X                                                                                 .           +   .                                 X u i d y     O   +         X y a a u                                                                                                                                 ",
"                                  X u a a s         O             .         y a a u X       O u y y u X     .       y a y u X                                                                                     X   @ @ O O O X @ O + o                       X X       . . + . +   X   + + +   . .   O O       X                                                                                                                                                       X   X   o   + O & , >X{.FXAXVX X+XoXVXMXJXFX].4X; O o + . X     X                                     . @ 1X.X.X|.(.#X;X; X     X   +                               ; ,XXXXXXXXXT.* +                     + X ; ;X).|..XXX|.I.;       .   O                             O ; A.R.|.|.R.;X; X                                                                   O O ; 7X&XVXoXuX@ .                                                           O > 4X#XoXVXeX*                 +   X $ C.R.XX.XXXXXT.@                 .     .             . . X ; ;XL.|..X'.H.; O                     .   $ N..X(.XXXXXX|.+XoXoXVXSXOXXX].6X;     X                   * I.XXOX.X.XY.@                     O ; 6X{.VXVX<X;                                                                               +                 X ( *.&.F ; X X O O O O X O O @ X X X O = K =.*.) @       +   O                                                                               .   @ X O O O X X O X O O $   . .           .         . O   y i a y                     y a a u                                                                                                                                 ",
"                                    u y a u                           .   O u i i 4         O u y y u O O     .     s a i y                                                                       X     .   .     O * | L ) ` Q E S & + +                     O       O           .                           O         X                                                                                                                                           . .             .   + O ; vXpXoX XIX@X@XoXVXAXNXtXF.; @       . @ X X   . . . . .   .   .                     $ 1X.X|.|.(.).v.; X                         O               @ ,XXX|.XX.XE.@                       . X ; ;XL.|..X|.|.I.@                                 O       X ; ;X X|.XX'.3X; X                       O                                       X   X O ; 7X#XZXoXeX*                                           X                 O ; 7X&XoXFXeX;                     X ; 4XL.|.OXXX.X-X*                                         O : ;X).|.XX'.D.; O                       + @ I..X.X.XXX`.oX`.%XFXoXoXCXZX%XwX> @ X             + .     $ ,X|.XX.X.XI.;                     O ; 4X&X+XVXeX*       O                                                                           .           X @ T ! ;.w.~ ~ E Q ) ) ) ) ) ) ^ Q 2.' _ F *.*.*.) X                     +                                                                       X B ^ ' ' Q T Q ) ' ' ^ V X                               u a d s X                 O y a y u X                                                                                                                               ",
"                                    y y a u O                             O s a y y X       O e a u u O     .     O u a a 4                                                                               .     O O @ X.Q ~ *.+.R E O O     X     .     O                           X     .               +       +         +                                                                                                                                                     .   .     X ; 6XaX&X X X#X+XVXNXrXq * O                   +           . .                       @ T.|.XXXX.XL.b.; X                                         $ T.XXXXXXOXE.$                         O , B.'.|..X|.|.z.;           O                             X ; A.!..X.XR.3X; X       +           +                                               + O ; 9X#XVXoXeX@     O                                         .             O ; 6X$X+X+XtX@ X         . @       X ; B.L.|..XXX.X:X@           X                             X ; ;XR.|.XX'.3X; O                     +   & -X~.Q..X|. XR.$X&X*X+XVXZXBX+X$XG.> &     .   .       .   $ I.|.XX.XXXI.@                     @ ; 4X&XVXFX<X;                                                                                         . . X   @ Q ;.8.;.;.! *.*.*.;.*.*.%.~ *.! *.! >.%.8.6.*.^ @       + O             .                                                                     X ( ! *.*.*.*.*.*.*.! ! ` X                             O y i a u     O               u a a y                                                                                                                                 ",
"                                  O u a a u                                 y a i y X       O u u y 0 O       .   O u y a u X                                                                           . . +   O O & ..) =.*.+.+.Z O O .   X                                               .           .     .                                                                                                                                                       .                       @ ; bX].%X+XoXVX&XyX8 $         . .           .             .               O       @ :XXXXX.XXXL.A.; X                                         @ -X|.XXXX.XT.@                       . X : ;X'.|.XXXX|.-X@         +                               X > ;XL.|..X'.;X;                       .                                             X O ; 4X{.ZXoXqX@                                                             O > 4X[.oXFXeX$                     X ; 3XR..XOXXX.Xz.@                       .               . X ; ;X'.|.|.'.3X; X                       + & I..X~..X.XQ.z.q uXpX#XoXFXAXoX%XwX4X& @     . .   +       $ -X.XOXXX.XY.@                     O , 7X&XVXoXx.&                                                                                         . .     O ) %.*.;.! %.+.*.*.*.*.*.%.*.! *.! &.&.&.;.! Y ^ X       + O         +   . .                                                                   O E *.;.;.*.*.*.*.*.;.;.) X                               4 i i y     O             X y a a u O                                                                                                                               ",
"                                    u a y u X       O                     X y a i 5         O 0 u a s O   X         u a y u                                                                                     O O * | / ) ` E E S * +     X     +                 .     O     X               X         . .                                                                                                                                                       .   +   O                   @ > 2XVXFXVXoX&X7X= X       . .   .       . .     X       .                       @ T..XXXXX|.L.3X; X                                         $ T.|..XXXXXT.@                         O ; ;XL.|.XX|.|.I.@                                         O ; A.L..X.X'.3X; X                                                                   + O > 7X&XBXoX2X@ .                                                           @ > 4X$X+XoXeX@                     X ; 3XR.|..XXX|.Y.*                                         O ; ;XL.|..X).B.; X     X               + + * I..X~..X.X!.S.9 9 7X].%XFXMXoXoXoXtX> & X     . +         @ -X|.XX|.XXY.$                   O @ 9 9X&XoXoXx.*       O                                                                                   .     O B ) <.<._ ^ ) Q ) ) ) ) ^ ) ( ) ) ) P ) ) ) ) { @ X                 O                                                                       O O E ! ;.:.Q ,.,.Q 9.;.! Y O +               +           X u i i u         O           s a a u                                                                                                                                 ",
"                                  X y y a y                           + +   u d i y         O g a u s O O X     O O 0 a y 4                                                                                 .       X @ O O O O + & O . +                 O     .   .             X                                         +                                                                                                                                         + +                       X * wXXXKXAXoXR.6X; X .       O . .   X     .     X                               @ I..XXX.X|.R.;X;                       .                   @ :X|..X|.XXT.$                         X ; ;XR.|.XX|.|.-X;             O                           X ; A.#X.X|.'.3X; X                         O                                     +     O > 7X#XCXoXeX*     O                                                       @ ; 3X&XVXVXeX$                     X ; 3XR.|.XXXXXXY.@ .                                     . O : B.L.|.XXL.D.; O         +     X       O & -X.X.X|..XL.6X; * > 6X^.FXZX%XoXoX&XyX> O . +     O       $ -X|..XXX.XY.@                     O , 3X&XVXVX<X;                                                                                               +   * X & & O O X X O O O O O X @ @ O O O & X X @ $     .   +                                                                                   +   ` 6.*.F ; O O * J *.*.` O                     .     O   5 i a u     O             O y a a u                                                                                                                                 ",
"                                    u a y u             X                   y i a 4 X       O 0 u a u O O   O X O   a d s u X                                                                                             O   O O O   +                       . .                         X                                                                                                                                                                             .       X     + .         ; wXVXMXJXoX$X6X; X   + X   X   .                                               @ T..XXX.X.XL.3X; X       +                                 $ 1X|.OXXXXXT.@       .               + X : ;X X|.XX|.|.-X@               O           .             O ; ;X X|.|.R.;X; X                                                                   X X ; 4X{.VXoXeX*                                                 +           O > 4X].+XoXeX$       .       O     X ; ;XR.|.XX|.XXI.@       X                                 X , ;X X|.|.).;X; X +                       @ I.|.|.|.|.L.B.: @ @ > 8X[.VX+XXXoXoXrX4X@ X   + O         @ -X|.XXXXOXI.@                     X > 4X&XoXVXuX@                                                                               O               +   X O   + + X       O O             O       X @ @   . .     .         X     X                                                                 O O T ! ! ) & + + & ^ ! ! T O + .                         O y i i y X                   u a a y                                                                                                                                 ",
"                                    s a a u X                         .   O s a a y         X u p f a * X   X   O @ a a a y                                                                       X                 X     .                     . .                                   .   X       O                                                                                                                                                                     .           . +           ; tXSXVXDXOX$X5X; @   +             X       . .                                 @ I.XX.XXX|.L.3X; X                         O   O           @ ,X|.XX|..XY.@                       . X ; ;X X|..X|.|.:X$         +                         +     X ; D.!.|.|.'.3X; X         +                                                 X       + X ; 7X#XVXoXeX@                                                             O ; 4X#XVXVXeX$                     X ; C.L.|.XXXX|.I.*                                       . X : ;X X.X|.L.3X; X .                       $ I..X(.XX.XL.n.% X X @ zXrXoXHXFXZXVX XeX: @ O   O   X     @ I.|.XX|.|.Y.;                     & ; 6X$XVXoXeX*     X                                                                               X         . .                                                   .     X   X                                                                                 O ,.%.*.) O     O ) *.*.) &                 .           O u y d y                   X y a a y O                                                                                                                               ",
"                                  X u a a s                               O y a i u O       O u , a u 9 u p g g 1 y a a a y                                                                                     . .                 X     .   .     . .                     .       . .       + +   O         X X     O                                                                                                                                                   .                       : 1X+XKXVXoX#X6X; O O +           X         . .                                 $ I.XX.XXX|.L.;X; X                                         $ ,X|.XXXXOXY.@                         O : ;XR.|.XX|.|.,X@                                         X ; A. X|.|.'.3X; X                                                                   X O = 7X&XoXoXuX@ .                                                           @ ; 6X{.+X%XeX$                     X ; ;XL..XOX.X|.I.@                                         O ; ;XL.|.|. XB.; X       X                 $ Y..X`.XXOX).B.% X   O > 6X[.%X`.VXLXXX'.9X; O O           @ ,X.XXXXX.XY.@                     @ * 4X&XVXVXuX@                                                                                   X                             +   O O           +   X   X         .           X .     O                                                                     O O ) *.*.Q X   X X ) ! *.) O O +                         X y a d s       O +           y a y u                                                                                                                                 ",
"                                    u y a u                                 y i y y         O 0 y a a y f y 4 5 u y d d a y                                                                               X             .         X     . .                           X       .     .             .                                                                                                                                                                   .                         . @ :XSXMXAXVX{.G.> O     .     X O           .             +                     @ I..X.X.XXXL.3X; X                                         @ I.|..XXX.XT.$                       + X ; ;X).|.XX|.|.:X*                                         X ; ;X!..X|.R.;X$ X                     .                                             X O ; G.&XVXoXeX*     O                                                       O > 4X$XoXVXeX@                     X > 3XR..XOX|.|.-X@                                       + O : ;XL.|..X!.;X; O       # o               @ V..X.X|.|.'.B.: @   X & , uXGXVXVXXXHX+XpXZ.@   .         $ -X|..X|..XY.&                     @ > 9X&XoXoX<X*                                                                                 . X           +   .       X             X     .   . +         . .       X       X .     O                                                                       X ,.;.*.` X     X Q *.*.` O                     .       O 5 i a y O                   y a a u                                                                                                                                 ",
"                                    u a y y O O       O   X       X       X u a p 4 X   X   O u a a a a y y u u 5 u a d a u O                                                                                               X                 X                             .         . X       .         X         +                                                                                                                                                           .       X     . . @ sXXX_.AXJX{.7X; X   .   .       O                                       O   . @ I..X.XOXXXL.3X; O       +             .                   @ ,X|..X|..X:X@                         X ; ;XL.XX.X|.|.:X@   X                                     O ; A.#X.X|.'.3X; X                                                               + O   O ; 9X#XoXVXeX@                                                             O > 3X$X+X+XeX@       +       .     X > 3XL.|.XXXX.XT.@                                         X ; ;X X|.|.!.3X; X     . X                 @ I..X|.|.XX'.;X: @     X ; lX{.VXVX*X+X+X X2X; X   .       @ -X|.OXXX.XT.@                     O ; 7X#XVXVXeX@                                                                               . .       .         +                             .     +     .   .                 . . +                                                                       . X ( +.*.~ & X X & ~ *.! ) X .                             y a a y     O       .     X y a a y X     .                                                                                                                         ",
"                                  O 0 y p 6 X O O O O   O O   O   X   . X X 5 y p 4 X X @ O O 0 a a a a u 9 u u u 9 f a q u O           . .       O         O   O O .     X                                                                                                                                       . +                     . .               . .                                                                     +         X             +                                     @ wXoXZXVXZX{.7X* X   .                                                         @ Y..X|.|.|.R.n.* X   X                     .             X * 1X|.|.|.|.-X@   .                     X : B.!..X|.|.|.>X&           .                   X         X ; D.'.(..X).3X; X                                                               + +   X : 5X$XFXVXuX;       O O       X     . . X                           X   + & , 6X#XOX+X2X@ .     +       .     X ; 3XJ.|.OX.X.X:X$                               .         O ; 3X'.XXXX).;X; X                         $ T..X|.|.XX[.D.; O       X ; tXoXFX XFXFXoX$XvX* X       . @ -XXX.X|.OXI.@                     @ $ 4X].VXoXeX@       .                                               O   O                     .                                                                                                                                                             .   E 6.6.W ; @ @ ; W 6.*.E X .             .             O u a a u O       O     +   O y a i i     . .   X             .     X                                                                                                 ",
"                                O   < y i d 9 u s u s u s y u u 0 5 p p u 4 y y u p y y s y u d i a a a 9 ; O O O @ 0 a s s             .               X             . .     X           + .                                                                                                         X O             + O                     +               .                                             +             X           .                   . .                                     * eXoXoXVXVX{.7X; X                                                         +   $ Y.~..X|.|.'.4X> X     X O O               .               @ -X|.|.|.|.<X@                       X X : ;X!..X|.|.|.1X* +         . .                       .     ; C.'.|.OX).;X; X                                                               . .   X % 5XE.FXJXtX@ X .   +   O                       o   O   +           +   O O : 4X&XOX+X2X@ X     O         .   X ; ;X).|.XX|.|.1X@                           X     . .   X O ; D.'..X|.L.;X; O .                       $ 1X|.oXoXoX[.3X; X         @ 7X&X%XLX[.%X+X&X2X, X .   +   $ I..X.X|..XI.@                   X X ; 4X$XVXZXeX*   O X   .                                             O                   X                                                                                                                                                                     X ` ! *.*.H ' _ H *.*.! ` X                 .           O u a y y O X X       .   O O u a i y X   . .     X           . .                                                                                                     ",
"                                  X u 6 i y y a u 0 a y u y u y y y a a y i a y y d y y a a a a i y a d a y y y u a d a a u   O     X       @ & X X X     X X X @ X . .               X                 . .       . X         +                                                                 .                       X       .   X           . .       .   .                                                               X                       X                                           @ tXVXoXVXVX{.7X; X                                                     O       $ I..X.XXX|.R.b.>           + .                   .     X   @ 1X.X|..XoX-X$                   .     X ; ;X'.|.|.|.|.z.*             .                           X $ C.'.|..X).;X; O       +               O                                         +   X % 4X{.FXJXS.:       . .         .   +                   .       X   + + + X , 6XGXMXVX2X@     O   X           X ; 3XR..XXX(..XI.;       .                                 X ; ;X!.|.|.!.C.; O                     .   @ T.XXoXoXVX&X6X; O         O > iX&XoXIX XXXoX X8X&     X   $ I.|.XX.X.XY.;           X   O     O ; 4X{.VXZX2X@         .                                     .                   .                                                                                                                                                                           + O ^ ! ;.;.&.T T >.*.;.%.) O                         X   O u i p 4       X     + . +   0 y y <       O +                                                                                                                       ",
"                                    u 6 6 6 y y u a u y y y y u y 9 u s a f i a a d d i a a a a a 4 y i i i i y y i d a d u     O         X 1 u u u u 5 5 p u u 0 <                                         +   + O     O   O                                                                     +                   O           . X X X         .       .                                                                                                                                       * eX+XVXVXFX{.7X> X                                             .               @ -X|.|.XXXX'.M.* O   O   .                         .       $ Y..X|..X|.-X*           X       . +   O ; A.R.|..X.XQ.z.*   X       . . .                   .     X ; B. X|..X).3X; X                   +                                           O     X ; 4X].KXJXtX$   o . . .         . .   O @ X X   O O X     .       X +   .   , D.GXAXZXwX*       O   X     .   X : 3XL.|.OXXX.Xz.$           .                             @ : ;X^.|.|.R.;X; X                         @ ,XXXoXoXoX#X7X; X         X @ 8 tXoX=X*XSXCXZXaX> O +     % Y.|.XX.XXXY.@                     @ ; 4X{.VXVX2X*                                                                   . . .   + X                     .       .                                                                                                                                   O O _ &.%.&.&.E Q E >.&.&.X.O +                             y y y 4   .     % X O O O X a i a d @ @ O @ O O   +     . .                                                                                                         ",
"                                X X 5 5 p 4 u 0 u h u u 5 u g 5 u s u s y 9 s a a y a s a a a y y 6 a d y i y 6 y y a d d u X   X   X     X u s i a 4 4 6 y a u s u   +                 .             . .                                                                                         . .   X                       .         O     .                                                       O O                   O         .   .   . . .                                             * eXoX+XoXVX{.7X; O                                             .       O       @ :X.XXX|..X'.v.: X     X +   .       X           . .       $ Y.~..X.X|.-X@                   .     @ > 3X'.XX.X@X.Xz.;     X     .                       +     X : B.!..X.XL.;X; X                     .                                         O O   X @ vX].VXZXyX>         .         .       @ ; ; * * &   X . .     X       # O y 6XGXAXCXrX@     O               X ; ;XL.|.XX.X|.z.@   X   .   .             X               X : V.!.|..X).;X; O                         $ ,XXXoXoXXX{.6X; X           O * 6X$X%XVXXXBXVX[.<X,   .   $ I.|.XX.X.XY.$                     O ; 6X&XZXBXeX*                                                                   .                                 . .                                                                                                                                         O { L L _ ^ ] ' K _ _ P | O                           X   u y y u     . X V ( E ~ / / ~ ! &.T / ) ) ` ~ N @     . .   .                                                                                                       ",
"                                    X     X X X       O   X X   O O O O O @ u u u < u s u w 0 u 4 p a y i y 4 5 u u i i d y               X u a y a 4 u 4 4 a a y u O           .                                   X                                                                                                           . .   X                     X                                                                   .         . . .                                                   * eXBXVXVXVX&X7X; X                                                             $ -X|.XXXXXX).3X: X       .                         .       $ Y..X.X~.|.T.*                     .   @ > D.'..X|.|.|.-X;                                         X ; ;X!..X.XL.;X; X                                                                 O + O ; F.&XXXVXqX* X               . .     ; 9 nXF.nX> @ X     . .             @ a 1XGXZXZXtX;   O             .   X > ;X).|.XXXX|.N.$         .                               X : B.!..X|.'.C.; O .                       @ T..XoX+XVX&XF.; O         . . X ; 6XGXMXZXDXVXFX{.6X@ X   $ Y..X.X.XOXI.@                   + O ; 6X#XCXBXtX* .   O                                                             X                         .                                                                                                                                                   O @ @ & @ @ @ @ @ @ * X X O                     X   X   X y i y y X   . O ( ! ! 6.! ! +.;.*.;.=.! *.6.! ` O O .     .   +                                                                                                     ",
"                                .             X   O               X   X     X   X X       X   O X y 9 y 0 @ X     @ 4 y i y     O         X u a a f u u u u f a y u X                             X               X     . .                                                                                               .     .   X                   X O                                               O                       .                                                               * eXoX+XVXVX{.7X; X                                               .     O       @ :X.XXXXX.X).;X: X           .         .       X     .     @ Y..X.X.X|.,X*                         O ; D.'..X|..X.X-X&                                 .       O ; n.R..X.X!.;X; X                         O                                       +   O ; 9X].ZXVXwX> @ X       O           & > 7XrXtX<X7X9 $       X       o   X & 8X#X).%XVXtX*   O   .         .   O > 3X'.|.|.XXXX1X$         . .                   .   .     X ; B.R.|..XR.;X; X                         $ T.XXoXoXAX[.7X; X               X ; tXAXAX`.oX%XNXqX, X X $ I.|.OXXX.XY.*                   + O $ 5X%XBXCXeX&   +                                             O O   X + .                     .   + . .             X                                                                                                                                         X X X X   X     X     X                               O   u i d a     + O _ *.*.6.*.+.! ! -.%.! *.;.8.*.Q @         X O                                                                                                       ",
"                                . . .     X           .   +                                   X X u y a u X X X   O u p y u X     + .       u a a a O   X O q u y u   O           .                             X           .                                                                                           . . X             .         .                                                 +               .       O .   X       +                                                     @ tXoXVXVXFX{.7X; X   .                                             .           @ Y..XXX`.OX).;X: X         .           .               . . X :X~..X.X.X1X*   .   X                 X > ;X).|.|.|..X1X* . X                   .     X   .       X ; D.R..X.X!.3X; X                                                                     O > 7X&XoX+X].bX;   +               @ a 7X].FXNX%X].8X9 $     . +         O q wX+XFXoXHXtX& O       .           X > D.L.(.XX|.|.1X$                                 .       X ; 3X!.|.|. X;X; O                   .     @ ,XOXVXoXZX{.7X> X               . & iXNXJXVXHX XJXPXF.; X * T.XX.XXXXXI.@                     X ; 6X=XCXOXtX* . O                                             O                                                                                                                                                                                                       .         .     X   X                     X     O y a a y O O   & ^ *.;.*.! Q E Q &.&.) =.W *.6.Q X       X       X                                                                                                   ",
"                                  .                     .                                         u y u u X     +   u a y 4       .       X u y a y X   X   s s a u O             .                                                                                                                                     .   O O + +     +   O       . .                                               +             .   .   X     + X     O + .                 .                                 @ eXVXVXVXHX{.7X; O                                                 . .         $ Y..X|.oX(.).;X; X .                 . . . . . X   o   . . @ :X.X.X.X|.T.*           .     X . X   X > v.%X|.|.|..X-X* . +               . . .   X             & > D.'.|.Q.!.;X; X                                                             +     X @ > 7X'.+XoX#X2X, O     X   X   O @ 8 uX{.FXVXVXoXoX$X3X; @ +   + . .   X @ x ].XXZXXXVXqX;     O         .     X ; 3X'.|..XXXXXT.@ X       .                 X   . .       X ; 4XJ..X|.R.B.; X       O               . $ 1XCXoXVXVX&X9X; X           . .   X 8 PXPXMX X*XFX[.&X6X@ * ,X|..X|.XXY.@                   . O ; 4X'.CXOXwX*             X                                   X +                 +       O                             X                                                                                                                                             .           .                               X   X u a a s     X @ ) +.! 6.* @ j a a l * * Q ! ! (   .         O O                                                                                                     ",
"                                                                    .                           X u u y u           u a y u     .           p i y y O   O   0 s a u O   X       .                               . +   X X @ O +                                                                                   X X o .   @ O O O O O O & & @       . O                                           .     X     X   .   O O   O O O @ X O     + +                                                 ; wXoXVXoXVX{.4X; X     .                                       X   .           $ /.Q.oXXXXX=Xv.; X     +   X           .           g   . . @ -X.X|.|..XT.*           .             O ; ;XL.|.|.oXK.N.* +                 . . .               O O 9 A.R. X.XJ.C.; X                                                                   X & 8 6X$X X X=X&X6X* O O   .     O 8 mX{.BXBXZX+XVXVXFX}.9X* X X   . . + X ; 4X].+XDXZX+XtX@   +       X   o .   X ; 5XR.|.oX(.|.I.@       X .                     . . .     X ; m.'.|.|.L.3X; X                         @ T.ZXoXVXVX&X7X> X           .     X & mXrXNXoX|.(.KXXXrX= = 1X|.XX|..XT.*                     X * lX&XoXSX2X*     O X                                         .     O         .     O O @ X O X O                                                                                                                                                           O                   .       X             O                 4 y u 0 O O   @ T R 6.Y * @ a a d a * > E +.+.A     .       O                                                                                                       ",
"                                              X                                                   g u y 4 X X     X y a i y               X y i a s   O   X 5 u a y   O                       X     .         . . O @ | ( T  .&                                                                             .     X       & { _ ) ,.Q E ,.,.T ^ X     .   O                                             .           .       @ } / ^ Z ( V $ O           .                                         * eXVXoXVXAX{.7X; X                                           X X     .         $ I..X|.|.|.P.6X;   . .                               X O + @ T..X|.|..XE.@                 X     X O : ;X X|.(..XOX1X&   +               . . .                 O > 6X$X|.Q.^.;X; X                     .                                     + +     X @ > 7XaX*X|.HXoX,X> O     o   X 8 7X}.FXBXOXOX+XoX%XFXFXpX6X, @     . . @ 4XE.oXKXMXAXXXsX; .   + O X   X .     @ : V. X|.(.DX|.Y.;           .                     .   . X X ; v.#X|.XX!.3X; O         +               @ T.CXoXoXVX&X9X* X           .     = * gXsX.X+X+X*X+XZX{.xXq R.|..XXX.XT.*                     X ; gXaXVX(.eX*                                               .               . +   O O | / A O.X X X   X .               .                                                                                                                                                                                     X       O u f a y u 4 p i ~ +.*.6.Q <.` Y =.! &.Y ;.*.! ) X         +     . .                                                                                                 ",
"                                                                  +         .                 O X 5 u 4 p X         y i i y                 u i a y       X 5 y y y O   X         .                   .   X   + 3 + & / E ! $.* O                                                                 . . .                 X O L Y %.*.! *.*.*.*.Q X     +                                               .         X     .   X X ..T ! R @.( @               .             X .                       * eXoXVXoXVX{.7X> X                                               . .   .       % :XQ.+X(.oX#Xv.; O . . + O   X X               .     O     ; R.|.oX|..XI.;       . . .     X o     X ; ;XJ..XOX|.|.T.; O                 . o               X O O , -X[.|.|.L.3X; X       +                                                       .     & > bX].+X X+XVX&XF.*       * = G.].HXVXVXOX+X+XVXoX%XVX%X{.8X4 @ X   O > 1X XFXoXZXAXZX1X@ . # .           .   X : 8X!.|..X.XXX1X$         .                       . o     @ ; ;XL.XX|.!.B.; O +       O         .     * ,XVXoXVXVX&X9X; @             X   O X ; :X*X+X+XXXoXFX{.qXa '.|.XXXXXX1X@                       @ > wX%XoX2X;     X                                               X         . . O O @ P E E { X X   X               .   . .                                                                                                                                   O                         O         O                   O < y i i p 6 i i ~ *.*.*.*.%.W *.8.;.*.;.*.;.! _ & O         + .                                                                                                     ",
"                                  X     .                           +   +   + O     +   X       X u y 4 p X X     X a i i y   +             y i a u       O 5 i a u X           +                   .           + O & ^ R R ) *                                                                   . .         .           O ' *.8.;.W W *.;.8.E @   .   + .                                           .       X       . X X X L ` *.! Y ' @   + .                       .                         * tXoXoXoXZX{.7X; X                                               .             % v.#XK.|.OXP.<X, X + X .                   X       X   * @ : '..XXX(.OXT.@       . .               X * F.R..X|..X+XT.; X   +                               X O * y E.).oX.X!.3X; X                         X                                 X   .   + O ; lX].oXHX+X`.GXuX> @ X O q 7XaX[.FXVXoXoXoXoXXX+XOXCXoX%X}.6Xa @ X * bXJ.VXoXJXAXVX+X2X@   . +   .       X   @ ; v.)..XOX|..XT.;                                     . # & , :X X|..X'.;X; O                       . @ wXZX%XVXVX&X7X;                 O   O * Z.^.|.CXXXHXNX&X$X&X XoX.X|.XXY.;                       & > <X*X[.8X;                                                         X       .   O @ ^ ~ E B X X                     . .                                                                                                                                                 . .                                   X       u y y y y i s d Q ! 6.;.;.%.>.;.;.%.;.;.;.;.*._ & O + .         X                                                                                                   ",
"                                      . .           . . .                       O             O X 5 y p 4 X         y i i y X     X       X y a a u O     X 4 y y u O                 O             .         X +   @ S A C ..@ O                                                               .       X   +           O & ` ! ! 9.Q ,.*.! ;.Q O         +                                             .           .     O @ X.~ %.6.! ] @ O +               X                                   @ tXVXVXVXFX{.G.; X                                                 .           % F.].`..X|. XY., $     O + O                       +   O % Z.).BXXXXXXXT.@               . . .     @ & zXE..X|.OX(.R.: X X       .                 .         X * 3XJ.(.XXQ.!.;X; X                                                               +   .   * zXpXXXoXHXVXFX].6X, * q mX'.+XoXoXoX%XFX%XoXVXOXCXXXSXVXFX{.;X> * a ,X#X+XMXoX%XFX$X4XX       +       O .   @ * G.'..X(.OX.XT.*                           .   X         & 4 U. X|..X).;X; O                         * <XCXVXVXZX&X6X; O   X           O O O O : <X%XZXAXoX%X_.HXoXXXXXXXoXXXY.@                       O * dX{.&X6X;         .                                                     . X   O X / / A } X X X     +               .                                                                                                                                                                                           + O < u p p , u w y L ( Q Q ) ) ,._ ) 1.) T P _ ) K & O X .                                                                                                             ",
"                                X     . .               .                     X               X   u y 4 4 X   . +   u a i y       +         s a a u   O O O y y a u O   X               O                           X X X @   O                                                                               + +       O & ~ *.6.Y * > Y *.=.^ X       O O                                     X     .             .     O X N &.;.6.! ^ &             .     O X                                 * 2XXXVXoXZX{.4X; O                                           + .         .     i q fX XOXQ.Q.N.b.X   * O +         . .     X   . .   O O : V.|.XXOXXX|.T.@               . .   X   X & = E..XCX(.XXE.M.% X .     X           O   . . .   X X X ; N.!.oX.XXX!.;X; X                                                                 +   O O > rXBXoXoX_.JX%XrX6Xv wX#X*XXXZXoXoX*XFXFXAXMXZXAXoXoXVXFX XaX6Xx wX$XFXoXSX+XSX).tX8 ; .             X   X   & hX'.|..X(.|.1X;     X           O         .   X X O + + X B./.K.XX|. X3X; O +                       ; wXVXoXVXVX%X7X; O           X       O O > xX].FXAXoXoXKXXXZX+XXXXXXXXXT.*                       + = 7X}.].9X$       . . .                                   +               .       O   O O O   X   . . . .                                                                                                                                                 X                                           .               O O X O   O     O X X @ X X @ X X X O O @ O X X   O                                                                                                                 ",
"                                        .                                                       X u y y u     . .   u a i y           .   X s a a u O       u a a u O                             X                         +                                                                           X         . .     O ~ 6.! ' & * ) %.~ '         O O                                             .       X   . + O O * / &.%.;.! ) * O +           .                                       * <XoXoXoXZX{.7X; X   O                                       .               c X > 6X X~.|.|.@XN.4 X X           .   .       X   .     % Z.N.|.BXOX|. X;X$               . .       X O = U..X|.OX(.'.V.% X         .       X X     .   +     @ kXE.|.OXXX|.#Xm.$ X       +           .                                         .   O     X * qXGX%XVXAXZXoX%X{.aXoXXXVXSXXXVX%X$XtXqX<XqX,X{.%XFXFXVXVXoX{.{.#X%XFXoXoX+X+XaXmX=   .   X   O X     X     O 8 E.(.oXOX.XU.M.@   O                           X   O O ; V.~..X.X.XR.B.; O                   .   . @ qXVXoX%XVX{.7X; X             . X       & = iXNXFXVXoX+XXXCXZXVXOXCXOX2X@                       + O 9 7X6X, X         .                                       O   X           X           O   O         . o       X                                                                                                                                                 X           O     X           O                 +   X X       O   X .                                                                                                                                                   ",
"                                                                                                  u y y u     .     0 y a u O             X u a a u O     X u y a u                                                             X           .   .           X   .   .   .       O         O     X X     X       +     o X & Q ;.*.) & & ,.%.*.) X         O                                                           +   O @ ) >.;.*.! ) & O +                             X                 X   & a.GX%XFXMXGX8X; O + O O                                     .         X X X   X : 5X!..X.X`.|.K.V.: X O   X       .             . X X , ;X!.|.CX(.|.U.C.%           X   . .       @ & t ,XQ.|.OX.XK.!.;X* O X .                     .   + & 4 Y.K..XXX`.XXE.hXX                                                             . .           @ 8 <XrXFXZXSX`.#X[.#XoXoXVXZXAX`.[.qXa & & : a 7X&XVXAXoXVXoX%X#X=X`.HXXXXXFXXXtX= O   .                       * W.|.|.|.|. XI., O O   + .         O X .     O   O & ; M./.Q.(.XXXXP.3X; X         X             . @ eX%X%XoXFX$XmX= @   X                     & , eX&XVXFXFXZXXXoXXXZXVXAXtX&     X           . . .   X X @ X X   @     X                                                                       +     X   . + O +     X   X X                 X O             .                                                                                                                                                                                                                                                                                                                                 ",
"                                                                                                X u y y u X         u a a s                 y a a u   O     y a y y X           .           +                                         .       +   .       .                                                 + . +         O ) *.*.Q & & ,.*.*.) X     . O O                                             . .             + O @ / &.*.*.~ ^ @ O .       X     .           X                         * x.#X%XoXVX[.5X; X   O O                                           X           X $ Z./.Q.BXBXOX@XU.v.; @   X                   X X @ ; Z.R.|.CXXXOX XV.: $       .       . .   X X O & = ;X#X(.XX.XOXK.U.F.> O   %       +     O   O     O > V.!.|..XXXOXXXT.;   X   X       .                                               .         X X X = zXtX%XZXVXoX%X%XLXoXVXSX(.VX&XuX9 * O . X X , <X*X_.ZXAXVXoXoX X*XoXZXHX%X}.G.@                             @ 2X|.). XOXK.#XV.> O O   X       O       . .   X & * y 0XK.|.|.`.OXL.m.; X     X         . .       $ eX%XVX%XoX].G.= X     X +           . .   X ; bX].&X%XoXoXoXVXZXOXVXAXyX*   X     .   O           X     . X +   X X       +                                                                             + O +     X X   O     X X   X X   + + O     X     +                                                                                                                                                                                                                                                                                                                                 ",
"                                                                                                X u s a u X       O y y a u O   +     X   O s a a u       O y a a y     +                                                                     O O                                     .         O             + +   .     O Q *.0.Y = * J 6.*.T X     .                                                     .   X   . .   O @ ^ ~ ! ! R / @                   X O                     .       .   * -X).+X+XVX{.4X$ X . + . . .                                                   O O , N.~..X|..X(.).].>X> &                       $ : V.J.K.+XOXBX(.#X;X> X           O   . .         O & , :X).+X(..X.X.XP.>X> @   . .     X     .   X : , b.N.!.Q..XXX|..XT.; X   X X     . .     .                                                         O = 4XaXK.VXKXoXVXoXZXVXDXDX+XT.9 @ O O   O O @ , 6X{.NXZXXXHXoXZXXXoXXXZX].xX> X                             @ ;XL.oX|.K.@XP.U.3X; O     .     . .   o   . o   O ; -XP..X.XXX|..X#X8 O     X   +       . .   X   $ wXoXVX+XOX&X7X> X         . +     .       X O > 6X$XFXVXBXZXoXoX+XoXNXqX@                   X X     @ +       . .       . X                                                                 O           O O     X X X X @ O & @ O @ X X   + +       X X                                                                                                                                                                                                                                                                                                                                     ",
"                                                                                                X u y y u   X     X u y a u                 y a y u O     X y i i u O                                                           +         X O @ O O X                                       +               + +         O O 2.:.W ! _ _ =.*.*.( X       +                                                 +             + O X / ~ ! +.R / X O           O                               .   .     ; 2XoXOXZXMXrXM.$     . . .                                         + .       + + O * B.^. X.XOXOXXX(.L.<X> @ X X O X @ X O O ; ; m.:X!..XQ.|..XXX+XfXlX> X         X   X         .   O O * gX1XK.@X|..X~.~.!.v., $ X X X X @ X @ X ; $ m.;XR. XQ.|.@X~.Q.#X;X;     X                                                                       O   9 , 5XrX XVXSXXXoXMXKXBXoXpX4X@ #     O O +   @ gXqXGXKXBXVXVXoXDXKXVX{.yX> O                               @ , Y.K.@XXX.X.X~.U.v.> @ X     X .       X   X $ ; Z.U.~..XXX|.|.Q.1X* + .     O   +       .   X   $ wXBXVXoXVX#X7X; @             . .             & 9 ;X#XZXAXMXFXoX+X+XoXuX@ .     .     O       X   O & = ; & X     .     .                                                                   O     X     O   . X { N / ..K X.X.L X.I S { O     X                                                                                                                                                                                                                                                                                                                                             ",
"                                                                                              X   u y y u X         y a a u       +         s i y 4       X i a y y     O       +                                                   X o     @ * * @   . O X .                                 X O               X     X X O _ ! 6.+.~ E ! +.6.E @ X X                                                           X X   .   O O / Y *.*.! / @   + .               X + . + +                       O a wXCXCXBXSX{.e.& X         X                                           .   . .   O * > D.U.~.|.Q.|. X~. XU.3X8 = > : ; ; ; , 3X,XW.].|.K.OX~.~.K./.n.= O O           O       o .     .   O ; v.R.|..X.XXXOX|. X}.<X8 q > > , , , y b.E.!. X|..X(.XXK.~.!.C.; X   X     X                                                           O O   O   X X @ ; ;X#XVXAXDXZXAXAXZX].zX@ X       O O   X X $ bXaX(.SXMXFXJX`.BX&X7X> @                                 X ; F.#XQ.Q.|.OX|..XJ.B.4 $ X           X X ; , B.I.E.K.Q..X.X|. X/.m.O + . .     +       . .     O & eXVXVXAXoX&X7X= X           .         .       * > zX1X@XBXSXAXoXoXoXoXeX@                   .   + & = 9X<X4X; X X     +   .                                                                 O   +   X     X . X _ E W &.Q Q Q Q &.W ! / X +     X X   .   +                                                                                                                                                                                                                                                                                                                                 ",
"                                                                                                O u y u 4 X     X X y a y u               O u a i y         p i i u X                       .                                             X M _ _ M @         .                                 O   .         X   X       O _ ` ! ! E E ! ! Y ) X             .                                           +         .   +   X / ~ ;.*.W ^ @ O O                             +   .               O q rXDXBXBXKXrXH & X   X     X                                 +         . . . .     O & > B.J..XXX XK.OXP.|.^.<XH.;X;XB.4XC.:X X(.+X|.`..XXX|.~.U.B.; O +   O           X     .     o . +   @ , A.J. XXX(.OX|..XXX'.,XS.D.6Xv.D.-X1X^.Q..XXX.XBXCX(.!./.B.; X O X     .     .                                                             .       o ; , 8X[.ZXZX`.AXoX].7X* X       X     O   . X ; 5X].NXFXFXFXFXFXeX> @ X                                 X & > v.R.|.oX|..X.X@XU.z.m.> ; ; $ ; @ ; ; m.1X^.|.|. X|..X(.+XW.v.; O + .     X   +   X           = eXVXAXZXVX{.7X; X                           X   X $ 5X$XLXMXAXFX%XoXOXwX*           O     .   . + & bXrXoX$XnX* O       . .                                                                 +   +     X       X ^ ! ;.*.&.&.E =.*.;.R ^ X     X         +                                                                                                                                                                                                                                                                                                                                   ",
"                                                                                                  u u y u X X       y y a u   O             u y i y X     X u a i u                                                                       X / ) ) / X                                           + .           .           X m / P / ../ ] / L  .X         O                                           O                   O O ..~ %.*.~ / * O               O             + +                     = 2XOXoXFXoXrXE @                                                         .   . o     & & ; 4X)..XXX X|.+X(.).'.'.R.!.L.K.L.).oX|..X|.OX|.(.OXK.>X> @   X                           X     .   @ ; B.U.K.OXXX|.@X|. X).#XR.J.#XP.L.!.Q.Q..X.X.XXXOX@XR.n.; * X             X                 .                                   O               X     O > pX|.OXDX+X].bX; X   X     .       +     X 9 <X#XoXoX_.GXtX9 * X X o                                 O * ; m.R.|.(.VXXX|. X[.R.E.I.Y.:XI.:XE.E.R. X|.`.XX|..X.X(.).<X> *         o                     * 2X+XVXAXFX{.7X; X . + .                         X X > 4X}.FXAXAXMXVXOX$X* O     . . +         .   = 6X_.DX[.3X; @ X O O                                                                         +     O O   . X ` *.;.*.H _ <.H *.*.! ` O         O   + X                                                                                                                                                                                                                                                                                                                                   ",
"                                                                                                X 5 y y u           u a a u O   X         X u y i y         5 y y 4 X           .                                               .       O X _ W ! _ O X         .     .   .                         .           X       . X & @ * X O @ @ & & O                                                                       .     X { I ,.) ^ S @ X             +                   .   O       X       ; 1X XoXoX(.].q.; X       X                                         X     . .       O   O ; ; H.}.).|.K..XoXXX|.|.~..X|..X.XOX.X~..X.X|.).#XW.>X: @   .   .     . . . O         .     X   . .   X , C.,X'.Q..X|. XK.(.|.~..XQ.@X.X~.XX~.@X(.|.`.W.R.;X= O     .     .   X                                                                     X       O * F.$XVXXX^.6X; O X         X     o         X d 8X].FXGX,XxX; X                                         + O ; B.E.[.`.oX(.XXoXXXK.@X.X~.Q.OX|.XX.X|.OX(.XXOX|. XE.;X9 * O   X           O               & 6X[.FX X%XtXlX; O . . +     X                     X @ > 3XrX%XAX%X%X%X2X*       . .         +     @ 6X$X[.pXlX; O   O                                                                               X         X Q ;.6.*.> * & > *.8.*.T O .                                                                                                                                                                                                                                                                                                                                                 ",
"                                                                                                X 5 p 4 u     .     s a y u           X     s s y 4       X u y i u O                                                                     O ) ;.*.Q X       .           .   .                                           .   X O O   O X   O O O   .       X                                         O                 .     O O & & @ X X X               X     X   X     X   X                 O > >X!.Q..X.XL.M.% @ O O   . .                                                               O @ , N.!.~.|.XX.X|..X.X|.|..XXXXX|..X|.(.#XE.B.kX% X X   . . . .   .                             O O X @ * m.^.~..X.X|.|.|.|.XX|.|.|.|.|..X|..X X<XF.gX; O     + .   .                                                               +             X     X & ; xXwX].vX;     X                   X O   X @ x 8X].].6X* O                                             X @ ; F.<X'.!..X.X.XXX`.|.|.|. X|.oXXXOXBXOXoXXX.XQ.U.6X; O O .     X         O       .     . X cX7XwXpX,X6X> O   . +           . .       . .       X O ; 9X$X.X@X].7X8 O O + .       X           X jX5X5XvX@       +                                                                             X         + X ) *.*.E * O O * ~ *.! ` O .                                                                                                                                                                                                                                                                                                                                                 ",
"                                                                                                X 4 a y u     . +   s s y u X               u a y y X       0 a a s     X                                                                 @ ~ *.*.Q O   X                   .   .   .           X             X         .   X   O   +               .                                                                         O O   X X                   . O                     X         .     a m.2X1XI.I.;XhXi X   O   + # .                                       X                   . .   X 4 ;XsXE.T.E.U.Y.Y.T.T.}.T.1X-XV.-X<XA.9 , @ X   X       .   . .                 .       X   O   + X @ ; b.0XY.T.Y.T.T.,X}.,X-XI.E.T.T.T.I.;X> = * X O X   +                                                                       . .             o   X > ; bXF.* X X +   O         .       O       . & 9 4XlX9 O   .   X                                         X * * 9 v.Y.L.'.!.).'.'.R.U.R.R.'.!.)._.).'.'.E.2Xb.% O + . .       X           O           X ; ; 8 9XbX> O O .     X     O     +       +   +       @ O ; C.sX>X4X= & O   . . .               .   $ $ ; * X   +     X                                                                                 +     X ,.*.! ) O     X ) *.*.` O         + .                                                                                                                                                                                                                                                                                                                                       ",
"                                                                                                X 4 p y u X       O u 9 y u                 u u i u     O   h s y u             .             +                                       .   @ Q ;.;.~ O                           +   +   .   +         X   X                                       . +     O                                             O                         .     o   .       X             .   . .                 . .     X $ * * * * ; X X X       .                                       .     X             . .     .   X X ; $ * @ $ % $ @ $ $ * @ @ $ @ ; & * O O                                     +   X   X           O X % % $ $ $ @ @ * > * * @ * ; * ; * @ @ * X             .                                                                     .   .     O     X   X O & @ X     O + X                   O   X   X * * * *         O                                       X   O O @ > Z.;X3X;X;X;X;XH.3X3X3XC.C.C.F.F.4Xm.; $ $ X X                                         X & & & O X     X                         O     . .   X . ; @ * & O #   .   .             X     .   X @ O         +   .                                                                       . . . .       O ) *.W ( X . .   ) ! ! ^   +   . + . .                                                                                                                                                                                                                                                                                                                                       ",
"                                                                                              X   y p i u O   +   O u a a y X         X O   s a y y O O   O w 9 i y O                                                                     X Q ;.;.Q @               X                                             +   . + +       X   X X                                                                                     X               + .               .   . . .   .     X         . . X X     O O   .   .         X                                   .               .         .       o . .   .   . .             . .   X     O + +           O                 X     O   . +     X     o   .   X                 O     X               +       X X                                                                                 +   X         o   + O O   O       .         O   O + + . +   O   O X     X     O                                   .     +     X $ : : ; % ; > > > ; ; % $ $ ; * ; $ O O .           X       .     O             o   + X O O O +         X         O               O   . .   . o .     + . +   .           +             X     +         O +                                                                               . + +   X ) %.! ( X     X ) ! *.) O O     .     .                                                                                                                                                                                                                                                                                                                                     ",
"                                                                                                X 4 y y u O       X a y a u X O             s a d i O     O s d y u         .   +                                                         @ ) ;.*.&.O   +                       X   +       X                         O                 .   .       .                                                             .                   X   X       + . + .         O   + +                             O X     +       +       X                                   .                 X   +     X   X . . . .     O O + O   . . .       X   .   o X           O                         + +           . .   o         O O   X     +       . .     +     X X     X                                                                   X             .   . +       . . . O + @     X     . . . .   O O + . . .   X   . + o . .                                       .   . + .     X X O X X X O O O @ X X X X @ X   X @ X O   .   X           .   .                   o           . .                               X X     . . .     o     o   . . .         O       X   o X     O O O O   O     X                                                                                 + O ) =.~ ) * X @ $ ^ %.~ ^ O                                                                                                                                                                                                                                                                                                                                                   ",
"                                                                                                  u y y a X X O X @ y a a y             +   u a i i X X O O a a i y X                                                                     X ,.*.;.) O                               O X O X X   O X   O X     O O O O     O O     O .         . .                                                                                     X O * O & & O O O X O O @ O O * O O   .       X           X   +         . .   O O   X                                       .           .                 O X   . . .     O O         .   X         +     .             O                           .         + . .   .         O +       .     X   +   . . X   X   X X                             O   O                                                   .   +       .     . +   O X X     . . . .       . . .       o       .   .                                     O   +   .       .   O       .                         X X                 .                     +       X     . .       O           O       X       O O       X                                       X   O   X       O                                                                                           O ) *.*.F ; @ X ; J ! *.) &               O                                                                                                                                                                                                                                                                                                                                   ",
"                                                                                                X u a y f , u < 4 4 d a d u               O s a i i 4 5 u u d a i u                           .                                       .   O ) -.-.) O     .     .     . +       X O < u < u u y p 5 s y 4 u u u u u y u y y u u 4 < @   X               .                                               O                       .     O @ M / ) ) ) ) Q ( Q Q ( ` / B & O     + .                   + .       .     O O O     .                                 .   X                             O O       X       O             o o .     @                     O   .         .                       X     +   O             .       X                 . .                 .                                                     X     O         X     O +         . +         X .   .     X   X     . . .     X X   .   .                                                   . .         .     X +     X         . .     #   . X .               . . .       O   X   . X   .     O O O O .           X         . +   X   X       @         O       X       . .       X .         .                                                                           X   +             O T ! *.9.T ) ' T :.;.*.T O               X O                                                                                                                                                                                                                                                                                                                                 ",
"                                                                                                  s y y d 6 y u p y d a a u O   X           u a i i y u y a d d y u O                                                               .       I _ _ | X             . . .             5 p 4 i 6 y 6 y y a y i y y a a a i i i 6 y a u O X         O                                                                               . .   X @ ] Q W *.*.*.! *.*.*.*.Y ` ' * O O     .   .           O O X .   X         O O O . .                                             X +     O               +   X X                       .     .           . O                         .                   O         +   O         .           X   O   .         . + . .                                                                     . +                 + O       X                     .                 . .       X     .                                       X   X         . +             + O   .           + . . + O   +     .                 .       X & O       . +       O O O   . .   .   .         .   . + O X         + @     O   + O               +     .           .   .                                                                         O     X X       @ Q ;.;.*.~ Y W ~ ;.;.*.( @ O       X   .                                                                                                                                                                                                                                                                                                                                     ",
"                                                                                                X u f y a i 6 i i a a y u 0 X   X         O u u y i 6 i i i i i 5 g X                                                                       X O O                     . .         X u d a y 4 u y y y a i i a u y i y y f a i i i p O               X O .                     X         O     X                                   .     @ ' Q W *.*.! ! +.+.&.%.Y ` _ $ O O     .   .                                                                                                                                                                                                                                                                       .                                                                                                                                                                                                                     .                                   .                                                                                             .                                                                                                                                                     X       X ) W *.;.*.*.*.*.*.! E ^ O O                                                                                     X                 O                                                                                               X                                   . . .                                                                                                 ",
"                                                                                                @ < u , u u , y u y u 0 u < O O       O X @ < 5 u 5 4 y y y y y 5 2 @   X                                                                                                           y d a f 5 < u u y u u y u u y 5 5 4 0 9 d d i y O                         X       O O         X                                                 . X @ B _ 2._ _ T E Y E ,.,._ _ B @ O O O . .                                                                                                                                                                                                                                                                                                                                                                                                                                                                                                                                                                                                                                                                                                                                                                   X                           X X N ^ ` 2.) Q E ~ ` ' L { O X X   X                                                                     O                   X                                                                                           .           X                 .                 .                                                                                                     ",
"                                                                                                        O O O O X O O O   +   + .           X     O X   O O O     @           X .                                                                                         .         y d y 9 X X O O O   X   O O   O   X O O 0 y a u                     . .           O             . +   + +                                             @ O & O @ X X X X @ O O & & O     .                                                                                                                                                                                                                                                                                                                                                                                                                                                                                                                                                                                                                                                                                                                                                       .   +   .           .         O O   X   . . .   ; @ X O O X & & O O O &   + .                                                     X         X     X   X       . . + .                                                                                                                                   + + +                                                                                                               ",
"                                                                                                  +         X               . +   .   .     +                 X     X                                                                                                     .       X y a y a X         X                   O w u y u O +     .     +       .                     o     O       .                                           O   O O             + O   O   + .           X                                                                                                                                                                                                                                                                                                                                                                                                                                                                                                                                                                                                                                                                                                                                                 .     . +       O   +       + O   + . . . .   O   O       O O X O     . . .       X O                                       O       .                     . . +   . .                 .                                                                                 .     +   +     O   O                                                                                                                           ",
"                                                                                                          X   X X X                         .         . . . .     X X   X         .                                                                                       +       X y a a u X   X         X     X         X 4 y a u O     X       .   +     .       X   X +   .       X   +                                       X     +   + + .   .           + . . .         X       X   + .                                                                                                                                                                                                                                                                                                                                                                                                                                                                                                                                                                                                                                                                                                                                                         X         +     O   . . . .       . . . .           o .           O +                                             . . . O             O O O   + X                                                                                         .                   . .         X   O                   X                                                                                                     ",
"                                                                                                                                                      .     . .                                                                                                                     y a y y X                       X       u i a s O       X   .     O & O X X X X         X   X O O O O   .                                       X   O .   + . . . . . . O       . o   .                 . .                                                                                                                                                                                                                                                                                                                                                                                                                                                                                                                                                                                                                                                                                                                                     X                       O                 .           .                                   +                                   . .       +   O @ O O O & O @ & O * O +   . .                                                                                                     .                                         X                                                                                                 ",
"                                                                                                                                          X   X X         X                                                                                                             . .         u a d s   X X                 X         u y a u X   X       . X * @ & * @ @ X $ @ @ & @ @ @ @ @ @ & * X                                                       .                           .               .                                                                                                                                                                                                                                                                                                                                                                                                                                                                                                                                                                                                                                                                                                                                                                                     X     O   X           X X                 .                                             X O / ( ' / / ) Q ) ' L [ @                                                                                                                                 X                                                                                                                       ",
"                                                                                                  X                     X                                                     .                                                                                                 +   u a y s                           X   O p a a u X     X   X   X } I _ _ D A A / ^ / / / / L ..P _ _ } @ X                                           X X                       X X         X                                                                                                                                                                                                                                                                                                                                                                                                                                                                                                                                                                                                                                                                                                                                                               X X X   X X   O   X   O     X           O     X     .                                                                 .         @ T ! *.%.~ ! ! ! W ` _ @ X             .                                                                                   X       X X   X X   X X   X                 .                                                                                                         ",
"                                                                                                              . .   .             .                               .       .                                                                                                         a a y u       .                         u y a u               O / Q =.%.~ E ! ~ ~ %.&.Q Q ~ =.~ =.) I & O                                   .   .             X         X               +   X                                                                                                                                                                                                                                                                                                                                                                                                                                                                                                                                                                                                                                                                                                                                               O         X @ @ X @ X X X X @ @ @ @ & O O   O                   X + + .                                                         .   . +       O Q ;.*.%.~ &.6.*.+.~ ^ @ X   X                                                                                       X     O   O @ @ @ @ & @ O @ O @ X O X @   +     . .                                                                                                         ",
"                                                                                                        .   .   .                 +   . +                                                                                                                                 .         u a y 0         .       .     X         u y u w     .         X ' %.;.*.! E ~ ~ =.=.&.&.~ ~ =.*.W &.I & O X                                 +               X   @   . @ . .         +       O         X                                                                                                                                                                                                                                                                                                                                                                                                                                                                                                                                                                                                                                                                                                                                               @ m X._ ^ ../ A ] ' L P _ P X. .O X   X   . . . +         X     .                   X                                             O @ Q *.%.:.) ) Y *.6.*.) $ X X           +                                                                                 + X & O.| I / ) ) _ I X.I L / X.S } O +   .                                                                                                             ",
"                                                                                                              .                                               . .                                                                                                     O .       O O u a a u X       .               O   O   y i a u     .   +   + O _ %.-.4.Y ' / _ _ _ _ _ ' ) Y 7.%.=._ X   .                                 + + +                 +     X         +   + +                 X                                                                                                                                                                                                                                                                                                                                                                                                                                                                                                                                                                                                                                                                                                                                       X X O I 1.&.W T ^ ( T =.>.Q 3.=.~ X.@ X         . . .                                                                                   X T ! =.) * @ ; T %.~ _ & X               +   .                                                                         X     X | ' Q %.;.;.;.%.>.&.*.! ! ~ / & O + +         . .                                                                                                 ",
"                                                                                                                                    X           O         .   .                                                                                                         .           u a a u O               +             O y a i u X   . .       O ,.:.:.%.; @ & O & & @ @ @ * > Y R Y / $ X                                       O   X           + . .       . X   +     X                                                                                                                                                                                                                                                                                                                                                                                                                                                                                                                                                                                                                                                                                                                                                   O +     O X ) W *.*.1.) Q Q &.=.>.W *.&.P @ X X       .           X                   X     O                                   X   X         X ( ! Y _ X O @ _ =.Q I @                   .                                                                         +     @ * I ) W ;.6.;.;.;.;.*.;.6.+.! ` & O O   .     X                                                                                                     ",
"                                                                                                                        O                                                                   O                                                                         O +           y i u 0         .         .           O u a i a X   . .       O ^ %.>.,.& X X     O   X X X $ ( ` E A @ X                                                   . . + .           +                   . .   .                                                                                                                                                                                                                                                                                                                                                                                                                                                                                                                                                                                                                                                                                                                                     . .     O 2.:.;.*.) X.X.' P P ) Q ! ~ P @ X O     + + + X             .               O   X                                               .   E ! =._ O   @ / ~ =.I @                   .                                                                         .   O O O ..) =.*.*.6.;.*.*.:.;.6.! +.( O O     +     X   .                                                                                                 ",
"                                                                                                  O                         O                                                                                                                                                       y a a u X               .           O   u a i y     .   X     X Q *.>.<.X     . .         X X / E T ^ $ X                                                       O O X                                 . .                                                                                                                                                                                                                                                                                                                                                                                                                                                                                                                                                                                                                                                                                                                                       .     & ) *.;.J > & X @ * ; > ) ! ~ / & O                         . .             .                                                 .     X ( ! *.K O X @ _ ~ ~ I O   .       X   O +                                                                       .           * } | ^ ( Q Q ( ( ^ P P Q ^ ( V & X     .   X     .                                                                                                 ",
"                                                                                                                                                                                            O                                                                         O           X u y a u                 .     X   X X   y y a u   + . +       % E 6.-.P X           .     O $ L Q Q ^ & X                                               .     O L Q Q B O +                                                                                                                                                                                                                                                                                                                                                                                                                                                                                                                                                                                                                                                                                                                                                                 X     .   O ) *.*.E @     X X O & ' Y ~ I * O O             X         . .             . .                                             + . .   X E 6.;.&.& O @ ^ *.! _ @   +   .     O       X                                                                       . X   X   O O X & @ O X   O O & & X X @         .                                                                                                           ",
"                                                                                                                                  .     .   .                                                                                                                                       u a a u O                               u p a u     .         @ Y ! *._ X                 X X L ,.=.P = &                                         X X     + O & ) 6.6.( O O         X                                                                                                                                                                                                                                                                                                                                                                                                                                                                                                                                                                                                                                                                                                                                                             +   O ) ! R #.@ X       X * / ` T / * O     O                 .                   .                                                 .   O E ;.*.,.& O * _ ! ! / @       +     O                                                                             X           X               .   . +   X   .       . .                                                                                                         ",
"                                                                                                                                                                                                                                                                          . .     O u y y u O O                       X   O g 5 a p     X .       O T ! *.) O                 X @ / &.Q _ & X                                       + O O X .     & ) *.*.Q O +                                                                     O O X         O   + +                                                                                                                                                                                                                                                                                                                                                                                                                                                                                                                                                                                                                                                                         O     + O P *.! ( X       X O * <.T E _ X O +                                                                                               O Q *.*.) O O & / ~ =.^ @     .                                                                                                                                                                                                                                                   ",
"                                                                                                                                                                                                                                                                              .     u a y q & O O         O   X   X O X X X , 4 6 y O O +     X   O ) *.*.) O O X             X @ / ~ &.^ X X                                         O O         O ) *.*.T X                                                                   . +         .   O O   .   X                                                                                                                                                                                                                                                                                                                                                                                                                                                                                                                                                                                                                                                                       X       O _ *.*.! > X X X X & > H ~ E K @ O   X                                                                                           . O ,.*.%.P X X & L W =.L @ O                                                                                                                                                                                                                                                       ",
"                                                                                                                                                                                                                                                                            .     X y y d d a u s u u u 0 u u u u u a f a 9 f a i u O   .         @ ) ! ! T O                   X ^ ~ W / @                                         +             @ / ~ +.^ X                                                                     . X       . .   O + . O     .                                                                                                                                                                                                                                                                                                                                                                                                                                                                                                                                                                                                                                                                         + & <.;.;.w.F _ ` Q ,.&.&.=.*.! / @ O -             .                                                                                 O ) *.*.) @   @ / &.=._ @ O     .                                                                                                                                                                                                                                                 ",
"                                                                                                                                                                                                                                                                                X   p 6 i i y s a a a y a a a a y a y s a y i y y 4       .       X T ! *.) O O               X @ ' &.~ / @ O                                         O           O | / ^ ..X                                                                       * * @ X X   O O X O O @ O                                                                                                                                                                                                                                                                                                                                                                                                                                                                                                                                                                                                                                                                             O <.:.8.8.%.&.~ ! ;.:.%.W +.Y ' O O   . .     . .                                                                                 + O Q *.*.) O X @ ^ ~ =.L @ X   .                                                                                                                                                                                                                                                   ",
"                                                                                                                                                                                                                                                                .                 X p 6 i y y u y a i a a y a y 9 a a d a y d a p 5 X             @ ) ! *.T O   O               @ _ &.W ^ @ X                                       .       X X   O O & & O X                                                                   X * I ) E T A A T ` ( ( ~ E ) X.X                                                                                                                                                                                                                                                                                                                                                                                                                                                                                                                                                                                                                                                                       O X K %.*.*.! ! E ! %.%.%.! ! R A @ O + +                                                                               +             O Q *.*.( X   $ ^ =.=.L @ X   .               O                                                                                                                                                                                                                                   ",
"                                                                                                                                                                                                                                                                              .   X u 6 6 u u u y u y y u u y u y u y y y y a u 4 ,   + .         & T *.*.( O                 X @ / ~ &.] @ X                                                       O O O                                                                         & ) &.*.6.E ( E Q Z Z 6.*.W ) O                                                                                                                                                                                                                                                                                                                                                                                                                                                                                                                                                                                                                                                               +         * K ' Q E ( ( A ( ) _ ' ] T ^ { @                 X                                                                               + O Q ! *.T O   @ / W =./ @                                                                                                                                                                                                                                                         ",
"                                                                                                                                                                                                                                                                            .       X X   X X O       O O         X       X X X X O   + +         O ( *.*.Q @   O               @ / ~ ~ ' X                                                             X                                                                         X ) =.W G ; X & O X $ E *.%.T X                                                                                                                                                                                                                                                                                                                                                                                                                                                                                                                                                                                                                                                                 + X .     O O & @ X X X X @ @ O O X X @   + . .       O                                                                       +           . O Q 6.*.T O   @ / ~ &./ @ O     .                                                                                                                                                                                                                                                 ",
"                                                                                                                                                                                                                                                                            . . .         X                     +               X     +   .       O T ! *.) O                 X @ ^ &.W / @ X                                   .                 +         X                                                                     X ^ *.! ' O O O   X X ( ~ *.Q O                                                                                                                                                                                                                                                                                                                                                                                                                                                                                                                                                                                                                                                                 . .   . . +     O             +     X .   . .             O                                                                       O         X ) 6.*.( O   X / ~ =._ *       .                                                                                                                                                                                                                                                 ",
"                                                                                                                                                                                                                                                                  X         . . .         . .                                           +         O ) *.*.T O                 X O _ &.W / $ X                                                     O                                                                               X ) *.*.Q O O O +   O ) ;.:.) O                                                                                                                                                                                                                                                                                                                                                                                                                                                                                                                                                                                                                                                                           .   X                     X X               X . .                                                                               + O ` 8.W ) O   & _ ~ =.^ @ X   .                 O                                                                                                                                                                                                                                 ",
"                                                                                                                                                                                                                                                                              .   .   .   . .                                         .         O O T *.*.Q O                 X @ / ~ &./ @ X                                     O         +                                                                                     X T ;.;.&.O         O ) *.;.) O                                                                                                                                                                                                                                                                                                                                                                                                                                                                                                                                                                                                                                                                       X       .           +   .                       . . . .                                                                   X           O T *.*.P O X @ / &.=.L @ O                                                                                                                                                                                                                                                       ",
"                                                                                                                                                                                                                                                                                .             .           .   . .   .     .                       O Q *.! T X   O               @ _ ~ W / @                                       O   + +             . . .                                                                       X ( %.*.) O         X ~ *.*.) O                                                                                                                                                                                                                                                                                                                                                                                                                                                                                                                                                                                                                                                               .         X   . .           . + . .                     .                                                                       O             O ) *.:.Q * O * _ &.=./ @       .                                                                                                                                                                                                                                                 ",
"                                                                                                                                                                                                                                                                        X                       .   X     +         .     .   +   O +             O ^ ! *.Q O                 X @ / &.W / @ X                                               .             . .                                                                     X T *.*.) X         O Q *.*.) O                                                                                                                                                                                                                                                                                                                                                                                                                                                                                                                                                                                                                                                                                             . .   .     . .                                                                                                 O ,.*.W Q @ @ * ,.&.=./ @ X   +                                                                                                                                                                                                                                                   ",
"                                                                                                                                                                                                                                                                    .                       X       O     O O                         .           O ) ! *.T O   O               @ ^ W &.^ @ X                                                         X                                                                           X T *.*.^ X       . X ) *.=.^ X                                                                                                                                                                                                                                                                                                                                                                                                                                                                                                                                                                                                                                                                   X   X               X                                   X                                                                     O           O T :.;.&.; $ ; Q %.=./ @ X     .               O                                                                                                                                                                                                                                 ",
"                                                                                                                                                                                                                                                                  .                                                                 .           O O ) *.*.Q O .               X @ / &.~ / @ X                                                           X X                                                                       X Q ;.*.)         . X ) *.&./ X                                                                                                                                                                                                                                                                                                                                                                                                                                                                                                                                                                                                                                                                               .             X               O             X                                                                           . .   @ 3.*.;.W C ] H 1.=.=./ @                                                                                                                                                                                                                                                         ",
"                                                                                                                                                                                                                                                                  .                                                               .         X     O Q +.! Q O   O               @ _ &.W / @                                         . .   X X       . . .                                                                         O ) ;.;.E X       + O Q ;.;.Q O                                                                                                                                                                                                                                                                                                                                                                                                                                                                                                                                                                                                                                                               .                                                 + +   O                                                                               .     @ T -.;.*.E E ~ W %.=./ & O     .                                                                                                                                                                                                                                                 ",
"                                                                                                                                                                                                                                                                                      .                                                           O ) ! *.Q O   +             X X / ~ ~ _ @ X                                           +           . . .                                                                       . O ) ;.*.~ X         O ~ 6.6.Q X                                                                                                                                                                                                                                                                                                                                                                                                                                                                                                                                                                                                                                                               . +     O           +   X   .         . +     O         +                                                                               .     @ ) &.&.=.E E E Q ) ) / O X     +                                                                                                                                                                                                                                                 ",
"                                                                        + +                         .       X X     O   +         X     X                                                                                                                                                                                       .         .       @ ) *.;.Q &         O +       @ ^ E &.P *   .                                                     .                                                                             O ) *.*.E O         O Q *.*.Q O                                                                                                                                                                                                                                                                                                                                                                                                                                                                                                                                                                                                                                                                                                                                                                                     X                     O O } L L / / A / ^ o.{ } X O   X   +     .                                               X   + . .     .           . .         X       . . +                                                                                                                                       ",
"                                                                      . .         X     .       X   . .                                                                                                                                                                                                                                 . X + O   X <.=.-.,.X         +       X $ _ Q &._ *                                             +         X   .       .                                                                   O ) *.*.E X         X ( *.;.) X                                                                                                                                                                                                                                                                                                                                                                                                                                                                                                                                                                                                                                                                                                                                 .       .                                                                     X @ X X @ @ @ @ O X ; O           .   .                                         .             .       +   O       .                 . . O                                                                                                                                       ",
"                                                                                                  . . . .                                 .     +                                                                                                                                                                                     X         X X / ! %.) X X         + .   X X / Q 3._ * X                                         + .             . O O                                                                       O P *.! E X         X E *.*.) O                                                                                                                                                                                                                                                                                                                                                                                                                                                                                                                                                                                                                                                                                                                                 .                           .                                       O       O     O O O O O O O X X O O O                                                       . O O O               X           .           X       X                                                                                                                                       ",
"                                                                      X +   X         O     O     . . . .           O               . . .     .                                                                                                                                                                                   O               X A ! ! ) X   X         .     $ o.T H _ * X                                     X   O   .   X     .   O                                                                         O ) *.*.Q X       . X ( *.*.) O                                                                                                                                                                                                                                                                                                                                                                                                                                                                                                                                                                                                                                                                                                                                                               .     .   .   +   .   .   .               O +   O + O   +   O     O     O         . .                                           .     O & O O               X         . .                   X                                                                                                                                   ",
"                                                                      .       O   O     O       X   + . .               .       .         +         O                                                                                                                                                                           +                 X ^ ! &._ @ X         O     O @ S ) Q / @ X                                     O O       . . + .       O O                                                                     O ) *.*.E O         X Q *.*.) O                                                                                                                                                                                                                                                                                                                                                                                                                                                                                                                                                                                                                                                                                                                                                             .     X                 X   X     O       O                   .     O           .                                                         O O   O               O @ @         +     X     X                                                                                                                                       ",
"                                                                .     .     @     X O     O O O O @   .           .                 .             O   O                                                                                                                                                                                           X ( +.&.F ; X X X X X O O O @ ; G 1.) / X                                     O   * O X X X X X   X X O *   X                                                                   O ) *.*.T X     .   X T *.;.) O                                                                                                                                                                                                                                                                                                                                                                                                                                                                                                                                                                                                                                                                                                                                                                                                   O                             + .   + + .                                                     X .   & & O O X X O O O O O O @ @ X   . +             O                                                                                                                                       ",
"                                                                    . X   X 0 u u u 5 u u u a i y 0 O   X     X           .                             O   +                                                                                                                                                                                     @ Y *.;.w.! ( ( Q ) Q ,.Q ) ~ ! 6.*.Y _ * X                                     X B ) ` ` E E R E 2.` _ K X                                                                     O ) *.! E O         X E *.*.) O                                                                                                                                                                                                                                                                                                                                                                                                                                                                                                                                                                                                                                                                                                                                                                                                 .     + . .                   +   .                                                               X O U _ ) T ~ ~ ) T ) T ,._ / S @       +                 .                                                                                                                                 ",
"                                                                            u y y a u y u a i i d 4 X                             X           X                                                                                                                                                                                     .     . . X O @ Q 6.8.;.*.! *.*.;.;.;.;.*.*.;.*.;.=._ & X X                                     ) *.*.;.! +.6.! *.%.*.) X                                                                     O ) *.*.E X         X T *.*.) O                                                                                                                                                                                                                                                                                                                                                                                                                                                                                                                                                                                                                                                                                                                                                                                                   . . .     .             X     .   .   +                                                         + O _ %.*.! +.+.! *.! *.;.-.~ ^ X X     + O   X       + .                                                                                                                                   ",
"                                                                    .     X u a a a y 4 y y i d a u O                 X     X                     X                                                                                                                                                                                         .     O ) %.*.;.%.%.*.*.-.*.*.*.*.;.*.*.%.,.X.@ O X                                 X X ' *.:.-.*.*.%.%.:.-.%.` X                                                                     O ) *.*.E O         X ( *.*.) O                                                                                                                                                                                                                                                                                                                                                                                                                                                                                                                                                                                                                                                                                                                                                                                                       .           X                                                                               + O ) *.;.*.+.+.*.*.~ *.;.;.*.^ O           X         . .                                                                                                                                   ",
"                                                                  O .     X u a a a u 5 u u d i a u O   X         .           X X         X                                                                                                                                                                                                   . O O B ^ <.<._ ) ) _ ) ) ,.) ) ) Q ` ) / | &   .                                   X E *.:.&.&._ ,.Q >.:.;.T X                                                                     O ) %.*.T X   +     X T *.*.) X                                                                                                                                                                                                                                                                                                                                                                                                                                                                                                                                                                                                                                                                                                                                                             X                                                               .                             .                                         O Q *.*.! ~ E 2.) ( F :.%.*.Q X                         +                                                                                                                                 ",
"                                                                  + .     X u s a u X   O O a a a u O .     .     .       +       . +   .                                                                                                                                                                                               X       +   ; O & & O O O X X O O O O O X @ @ O @                                         X ,.-.;.H * X X @ T %.;.,.X                                                                     O ) *.*.E X         X T *.*.) O                                                                                                                                                                                                                                                                                                                                                                                                                                                                                                                                                                                                                                                                                                                                                                                                 X   X X       X           O .       X                                                               X Q *.+.E * O O O X $ W *.*._ O       . +                                                                                                                                                 ",
"                                                                      .     y a s s O       0 s a u O     .   . . X       O O   .   . +   . . . .                                                                                                                                                                               O     X         .     X   O +           .       O   X       . .                                   X ,.*.*.` * @ @ * &.%.*.` X X                                                                   O ) *.*.E X         X ) *.;.Q O                                                                                                                                                                                                                                                                                                                                                                                                                                                                                                                                                                                                                                                                                                                                                                 .       .       +       .                 X           O     +                             .                                   .     X ~ 6.+.^ O + +     X T W *.) O         X O                                                                                                                                               ",
"                                                                  O         s a q q O     X u a y y X       .     +   O O   O O O   O   O   +                                                                                                                                                                                     O             . .                     .           X X   .                                       @ ) *.:.%.E T Q E %.%.6.) &                                                                     O ) *.*.E X         X T ! ;.) O                                                                                                                                                                                                                                                                                                                                                                                                                                                                                                                                                                                                                                                                                                                                                                                                                   O   O   +                 O                                                   +   O =.*.6.Q O O O       ' ;.:.) O .       O   O           X                                                                                                                                 ",
"                                                                  O .     X a a d s X       u i i y O               X X O O O O O X O         X                                                                                                                                                                                       X                               .   . .   +             X                                   O ) 6.! ! 6.*.*.;.! W 6.) O                                                                     O ) *.! Q O       . X Q *.*.) O                                                                                                                                                                                                                                                                                                                                                                                                                                                                                                                                                                                                                                                                                                                                                                 X       X O   O X     X   O   O       O   O O   O   O                                                                         +     O Q *.+.T O +     . X ) *.;.) O                                                                                                                                                           ",
"                                                                O O .     X y a a y O     X 4 a a u O   .       X X @ X @ X & @ @ @ $ X X * O O             O                                                                                                                                                                   .               +   +       X                         . .   .                                   + @ ` ! ! *.*.*.*.*.6.! *.) O +                                                                     ) *.! E O         X E *.*.) O                                                                                                                                                                                                                                                                                                                                                                                                                                                                                                                                                                                                                                                                                                                                     .     .         X X   X X X   O X .   X         X       O   O   O   O     X   X O X           .   +   +   +                                                     O Q ;.! T O +       X ) ;.;.&.O     X           .                                                                                                                                         ",
"                                                                  +   .   X y i a y       X 4 p a u O   X         X { S / / / / / A / S | { X   X       +                                                                                                                                                                       . .       .   X   O   O X   X O O O   X   X   X   X                                               & / Q Q T ` Q Q ) ( Q ` / @                                                                     O ) *.*.Q X         X Q +.;.) O                                                                                                                                                                                                                                                                                                                                                                                                                                                                                                                                                                                                                                                                                                                                                         X 1 g 0 u g u u u u u h s u h u h u u h u s e u e g g u < 5 g < @     .                                                                     X ) *.*._ O         X Q ;.;.) O   X     O   .     +     O                                                                                                                                 ",
"                                                                      +   X y i a y         y i a a   + +         X S R @.Y 7.Q T =.W ~ E A X             .                                           +           .           .                                               X                                                 +               w y a a u 4 y a y s s q u u u u y 0 u u u < e     .           .           X         X X O X X O O O X X O X                                                                       O ) *.*.T O         X ) *.*.) X                                                                                                                                                                                                                                                                                                                                                                                                                                                                                                                                                                                                                                                                                                                                                         X 5 y a a y 0 a 6 a y y a y y 0 y y y a y a u a u u u y y a u u X   O                                                                       O ,.%.! ( @ + . +   X 1.*.*.Q O   X .     .                                                                                                                                               ",
"                                                                            u a i y   +     y i d y   .           X Z R +.! &.3.&.%.*.*.+.E X         X . .   O                                   O         X       +                               X                                         X                                       O         s a d d y y i i a y a a i a a a d a d y y u w O   .           . .                                                                                                                 O ) *.! E X         X Q ! *.) O                                                                                                                                                                                                                                                                                                                                                                                                                                                                                                                                                                                                                                                                                                                                                           u i a d u u a i i i a u y y y y u y y y a u u 9 u q y a a y u     +                                                                       @ $.-.! ~ @   O   X X E 6.*.,.& O     . + + +         X                                                                                                                                   ",
"                                                                          O u i i y       X y y i u     O       X O ^ W *.>.P 5.5.P =.*.W ) O +         .                                       O   +     X                                                                         +   O                                                     X s a a d u u y a y i y y i i i a y y y y 4 a u O                                                                                                                                   O ) *.*.E O     .   X T *.*.Q O                                                                                                                                                                                                                                                                                                                                                                                                                                                                                                                                                                                                                                                                                                                               +             +           O y i d f 0 0 0 4 6 < 0 h u u 0 s u u u u u u u u u u 9 f i y u X                                                                     .     & &.;.6.! ; * & & @ ; Y ;.*.T O     .     +   X                                                                                                                                           ",
"                                                                            y a i 5   +     y a i u         O O + O <.:.*.H = & & = &.:.:.<.O     X                                                                     X X           O                                                 +     O                                                 0 a a f 0 e h s y 4 p y u y y y y y 6 p i u u X X                       .                                                                                                         O ) *.*.T X         X ) ! ;.) X                                                                                                                                                                                                                                                                                                                                                                                                                                                                                                                                                                                                                                                                                                                                                 +         u i y , O O X X X X O   O O       X   X X     O   O @ 6 y i u                                                                         X + O $.;.! ! Y ( <._ / T *.-.;.2.O         O   .           X                                                                                                                                 ",
"                                                                O         O u i i 4   .     s a y 4 X     X O   + & _ %.*.~ * X X X =.;.-.$.&   O       X     .                                   O                       X                               O                     X                                                             X y a a 0 O O       X X X           X X 4 y u u X X                     .                                                                                                           O P *.*.E X         X T *.*.) O                                                                                                                                                                                                                                                                                                                                                                                                                                                                                                                                                                                                                                                                                                                                                         O u y u 0 O             O   O X     X X   X   X   X X X 4 y p p                                                                           O & ,.*.*.6.+.! ~ E Q ~ *.%.W _ O X X     X O                                                                                                                                               ",
"                                                                            u a i y         y i 4 5   X           & _ %.! E O X X X Q *.-.$.O . O                                                               .                                                                                                                               q a a y   O O O       X   + . . + X   u y 4 u X             X           .                                                                                                         O ) *.*.E X     .   X E *.*.) O                                                                                                                                                                                                                                                                                                                                                                                                                                                                                                                                                                                                                                                                                                                                                         O y a y u O                                           X 5 4 4 5 X                                                                     X O   O _ Q R R R R ! E E Q W &.1...O     X X     O       . O O                                                                                                                                 ",
"                                                                          O y i a y       X y y i 5 X           + O ) 6.@.E X   X X E *.*._ O . .                                                           .     .   +       .                                 + .   .     . .             .                                       O           u a a u                   . . .     X 6 i y u   + . . +             . .                                                                                                           O ) *.*.E O         X ) *.;.Q X                                                                                                                                                                                                                                                                                                                                                                                                                                                                                                                                                                                                                                                                                                                                               .           4 y 6 u X             .         X     .     +     O X 5 4 4 5 X X                                                                         X [ | / / / ] ' _ / / I X._ M @                                                                                                                                                           ",
"                                                                  +         u y i y   +     y i p u     X       . O T +.+.Z X     X E *.*.) X .         X   .                                           +     .     +                                                                         .                                                 u a a u     +               . .   O   6 y y w O . +                                                                                                                               O ) *.*.T X         X Q ! *.) O                                                                                                                                                                                                                                                                                                                                                                                                                                                                                                                                                                                                                                                                                                                                 .                     X   u i 4 p X     X     .                   .           o p 4 4 p                                                                           .   O @ X X @ * & @ @ X @ O * @ X                     . +                                                                                                                                   ",
"                                                                        O   u a i 4       X u a y w               O ,.*.*.` X     X ` ;.;.Q X .       X   + . .                                         .         O O         O                                                     X       . .                                               X y a i y                       .     O u 0 s r O     +     X                                                                                                                       O ) *.*.E O         X ( *.;.) O                                                                                                                                                                                                                                                                                                                                                                                                                                                                                                                                                                                                                                                                                                                                                         X u i i p             .                             O   u u u u                                                                           .     O X   O O O O X   X X O O                           O                                                                                                                                 ",
"                                                                          O y a y y   +     y a y s O O X X       O ~ 8.;.Y > @ O > W ;.;.E X   .         O                                               .     O     X O X X       X   O X X     X     O   X   X   X   X O   O   X X     X                                           O         y i i y         . .             O O   r 0 s s O X X     . + .                                                                                                                     O ) *.*.E X         X E *.*.) X                                                                                                                                                                                                                                                                                                                                                                                                                                                                                                                                                                                                                                                                                                                                                 .     O   y i i y O   X       .                               O u u u u X                                                                       +             +   O O         X     . .                                                                                                                                                       ",
"                                                                          X u i i y   .     y d a s     X     .   & &.;.;.;.Q _ ) Q ;.w.;.=.X         O O O                                     .             X < u u 4 u 4 u u u y u u u u w u s u u u u u u u u y a y u y w 0 s w s u w e O +                                               X y i i y                             O 0 p d d y.y.% X     +                                                                                                                         ) *.! E X         X E *.;.) O                                                                                                                                                                                                                                                                                                                                                                                                                                                                                                                                                                                                                                                                                                                                 .                         u a a u O             +                               u y u u     X                                                                 + O       X   X   O           X     + . .                                                                                                                                                       ",
"                                                                            y a i y       O u a a a X         .   O &.;.;.-.*.&.&.;.;.;.;.~ O     .     O                                                       u y p 4 p 4 6 y y a a y a a a y a a a a a a a y y a i i a a a y y y a a y s O                                                   y i i 6 X                 X X   O   O w d i j t.u.% X X . . .           .                                                                                                         O ) *.*.Q X     .   X Q ! *.) O                                                                                                                                                                                                                                                                                                                                                                                                                                                                                                                                                                                                                                                                                                                                           .             O y i a s O       .   .         .                 O   O u y y u O                                                                                         O             .         .                                                                                                                                                   ",
"                                                                            s a i 4       X y i a a         .     O _ %.;.*.%.*.*.*.%.>.=.] X       O       X                                   .             X y y a y p y y i a a y a y a a s a a y a a a a a a i i i d a a a f d i i y p O O                                     O   .       y d i y X             X         + O   u i j j i.u.% X X . . .         .       X                                                                                                   O ) *.! E X       . X T *.*.) X                                                                                                                                                                                                                                                                                                                                                                                                                                                                                                                                                                                                                                                                                                                                         O     .           4 i i y   +   .   .             .                 O O u u y 5 X                                                                     +   X                                         .                                                                                                                                                 ",
"                                                                        +   y i y y   +     u i a s X   .         X | _ ) ^ ^ ) ( Q ) P / S X     + +                                             .       O   O y y i a u u u 4 u u u y u a u y u u y u u u u 4 5 y y y a s u u a y d i y y O O                                           .     y a a a                       .     X 6 d d p u.y.@       o     X       .                                                                                                         O ) *.*.T O         X T *.;.) O                                                                                                                                                                                                                                                                                                                                                                                                                                                                                                                                                                                                                                                                                                                                                         X u i a u O O                                       O   u y 4 u   X                                                                   .                     . .               X                                                                                                                                                       ",
"                                                                          O u a i y       O y i i u X     .         @ X O @ X @ O & @ O X X                                                     .             X u y a 0 O O X     O   X     O     X     O X     X       O   O O   @ 4 y 6 u                                                 . X u a d y   .                 . . .     d a a p @ O O O   +   X X       . .                                                                                                         O ) ;.*.Q X         X T *.*.) O                                                                                                                                                                                                                                                                                                                                                                                                                                                                                                                                                                                                                                                                                                                               .                       O   5 i i y                                             X u u y 5                                                                                   +       + .                                                                                                                                                                         ",
"                                                                  +         y i a y   +     u y y 5 X   . . X     X               O         X     O +                                                           u y s s O O   O O                               . .             O   u y 4 5 O                                             .     u a a y     .   . .           .     X 4 y s r O     + O               . .                                                                                                         O ^ ! *.Y @ @ O O O @ Q *.6.Q X                                                                                                                                                                                                                                                                                                                                                                                                                                                                                                                                                                                                                                                                                                                                           .             O y y a y X                 X             .             u y u p X                                                                                           .                                                                                                                                                                         ",
"                                                                          X u a a u       O s a a 5                         .       O             X               X     . .   +         .   . .               O u a a u                                                             u a y 4                                                   O s a a u   .     .   .           O     y 6 u 0 O                                                                                                                                 . O C +.*.W 3.) Q Q Q Q ! ! ;.Q O                                                                                                                                                                                                                                                                                                                                                                                                                                                                                                                                                                                                                                                                     X           .       X                               X                               X u i y y   O                                 .       X u y u 5 X                                                                                                               X   .     .                     .                                                                                                                     ",
"                                                                .         X u a a u O     O u a a y O                           O           o       O   O         X   .   .                                     y a y y     O                                                     X u a a u X                                                   w a a u                           O X u y u u O                                                                                                                                 . X ( R 6.*.%.-.;.;.! ! *.*.*.Q X                                                                                                                                                                                                                                                                                                                                                                                                                                                                                                                                                                                                                                                                           . . .                                                             .   .     O   y i y u O   X   .               .                 O   u y y u X                                                                                                                                                 . .                                                                                                                 ",
"                                                                          X u a a u         y y i u             .                     + .               .     X             . .                               X u a a y O                                       X                   u a a y                                                     u a a u                     X   O     u a y s                                                                                                                                   O O ` ! 6.*.-.:.*.*.*.*.*.*.*.) O                                                                                                                                                                                                                                                                                                                                                                                                                                                                                                                                                                                                                                                                     X     . .             .       O                                                       u a i y             .                               O u y y u                                                                                                       .     .       O                   @   . .             X                                                                                                         ",
"                                                                .         O y a a u O   X   y a y 4 X   X           O           O           . o             .       . . .                                       y a a u                                                 O           u a a u O                                                   a a i y X                           X u u u h O                                                                                                                                 O & A E 1.&.,.,.) Q ) ) ) ) ) I X                                                                                                                                                                                                                                                                                                                                                                                                                                                                                                                                                                                                                                                               + +     X         .         . .                                                           O y i i u O                                   .     X O u y y u X                                                                                                         . + X @ X X @ @ @ @ @ @ @ X X X + X                                                                                                                         ",
"                                                                +         X y a y 6       X y i y y O   +                           . . . .             .   .   O O + .       X     X               O           u a a y       O                                                 O X u a a u O                                     +           X u d i p                 O     O O     u s u w O                                                                                                                                 . . X X X O & O X X X X X X O X                                                                                                                                                                                                                                                                                                                                                                                                                                                                                                                                                                                                                                                                   .                   X             O     O O   O       +                       .         X y i i y             .           .           .       O u u y 5 X                                                                                                           X ; u.t.h.h.h.h.j.h.j.h.s.y.: X     +     + .                                                                                                             ",
"                                                                O           u a y u X     X y i i u O           .                     . . .   @ @ X X O X     X O @   + X X     .       X                     O u a i y O                                                           u a y u                                                   X a i i 4                           O O 0 y y 0 O                                                                                                                               . . .   X X   X       .   .                                                                                                                                                                                                                                                                                                                                                                                                                                                                                                                                                                                                                                                                       .       X                                     O O         . . . .         O                 5 i 6 u X                                           X u y y u                                                                                                         X   & * s.d.f.f.k.k.k.k.k.k.d.t.@ O O       . .         +                                                                                                     ",
"                                                                          O u a y y         p i i y                             X X .       * L ) Q Q ,.&.) ) Q ) / & X   X   . . .   O                       X y a a a                                                           X u a y y                                     . .             y a i y                         + O   0 u u u O                                                                                                                                 . .           .       . .     .                                                                                                                                                                                                                                                                                                                                                                                                                                                                                                                                                                                                                                                                             X               . .           O       O                                     O   5 i a y             .                       .     O O u y y u X   .                                                                                                     O & * r.d.f.k.k.k.k.k.f.f.d.r.; O O X X                                                                                                                     ",
"                                                                            u u i 4       X 5 y i 5 O           .               X       X O * ) ~ *.*.;.;.;.;.;.! ( &   X       . .     + .                     y a a s                                                           O w a a u                                                   X y y i p   .                         O u u a y O                                                                                                                                     X     +       .       .                                                                                                                                                                                                                                                                                                                                                                                                                                                                                                                                                                                                                                                                                     X               .       .                                   .             O y i i u O               O                             u s y u X                                                                                                     .   + O * t.x.f.k.k.k.k.k.f.l.d.r.; O +       X           +                                                                                                     ",
"                                                                      X     u s i y O     X w y y y             .           .       . . O O @ _ ~ *.*.%.*.*.;.*.! T @               O     .                   O y a a y       O                                                     u a a u O                                         O       X y i i u   .                         X 4 4 i y O O                                                                                                                                                                                                                                                                                                                                                                                                                                                                                                                                                                                                                                                                                                                                                                                                                                 X         + O       O   O     X           .                                             O u y y 4             .                                 s s y u                                                                                                         . + O * r.x.f.k.k.k.k.k.f.k.d.r.$ O O +   X                                                                                                                   ",
"                                                                          O w y y u         0 u y u X                               . .   O @ / ` ! *.%.*.*.*.! R ( O O                                         u a a y                                                             u a a y                                                     5 a a u   . .             X . X X   X p 4 i u                                                                                                                                   X                                                                                                                                                                                                                                                                                                                                                                                                                                                                                                                                                                                                                                                                                                       O         O         X       X           X                                 +       X y a i u O   O                     .         .       O u a y u                                                                                                             & * r.d.f.k.k.k.k.k.f.l.d.r.$ O O                 X                                                                                                       ",
"                                                                  X         s y i u       O s s y y             .     O           . . + + O @ / ( ~ &.W %.*.+.! +.( @ O   .     +     O                         y a i y O                                       X                 O u a a y                                                     s a a u   +         .   .             5 y y u X                                                                                                                                     O                 X                                                                                                                                                                                                                                                                                                                                                                                                                                                                                                                                                                                                                                                                                 .           . .   X             .                     .                           O y i i 5             +                       .     O X u u y u                                                                                                         X   & ; t.d.g.k.k.k.k.k.k.k.d.t.$ X O       . . . O   .                                                                                                       ",
"                                                                          O s u y a O     O 0 y i u O       .                         . O   * } L ^ ) ) ) ) ) E ( N O   + .   .         X   X       O         X u a a y     O                                                     X u a y u O                                                   0 a y u           .   .         O   X 5 p u 0 O                                                                                                                                 X     +       +               X                                                                                                                                                                                                                                                                                                                                                                                                                                                                                                                                                                                                                                                                       . .               .         . + . . . . X           . . . .   .                       5 i i y X                                             u a y y X                                                                                                           O ; u.r.h.h.h.a.h.h.j.a.r.y.;       .       .                                                                                                             ",
"                                                                  X       O u a i i X   O O s a a u O                             . + . .   X X X O O @ X X X X @ @   + . +                                     u a i y                                                             s a y y                                               .     u d d y X     O   O         O       O u u u 0                                                                                                                                       .         .                                                                                                                                                                                                                                                                                                                                                                                                                                                                                                                                                                                                                                                                                       .     X X X               O O + + . . .     X       X   +                   .       X 5 i i y O       +   .                               X u u a u X                                                                                                       . . X   & @ @ @ @ @ @ @ @ @ X O X X .             X                                                                                                           ",
"                                                                            u a i y O O   X a a i u             .             + X +         X       X               O               X                         X u a y y       O                                                   X u a y u                                         O       .   u a d y O X X X   X O O O   O   O O X u , u 0 O                                                                                                                                                           .                                                                                                                                                                                                                                                                                                                                                                                                                                                                                                                                                                                                                                                                           X     $ X X @ O O O O O @ & O O &     +       X                       +           O   y i a u                         .                   O u a u 5 X                                                                                                           .                           O   . .                                                                                                                       ",
"                                                                          O u d i i u 5 u u d d i y     O                       O     X                   X   . .       X                   +                   a a a y                                                             u a a u O                                           .       y a d d 5 , w u u y u y s y y u 0 u y d a a w O O                                                                                                                                 .     X           O   . .                                                                                                                                                                                                                                                                                                                                                                                                                                                                                                                                                                                                                                                                     .   .   O * B _ ) ) ,.$.,.,.,.~ Y ~ ^ B & O   +   . .                                       s a i y X           .                       .     O   s y y u X                                                                                                       .         X     .                           o                                                                                                                 ",
"                                                                            s i i i y y y a d i i 5 X                                   X   X       .         . . .     X   X                 . .             O u a a y X                                                       X   w a a u X                                         O       O y a d y p u y 6 y a y a i i 6 y a a y i 6 a s O                                                                                                                                                 O                                                                                                                                                                                                                                                                                                                                                                                                                                                                                                                                                                                                                                                                                 .   X O @ ^ E *.*.=.%.%.-.;.*.6.+.! ) @ X     . . .                                     O u i i 5 O                                           X u y p u                                                                                                           X         .                     X     . .                                                                                                                   ",
"                                                                  X   X   X 0 u i i 6 i i i i i p u X                     .       X         .               + . .         X               X         O           y a a y       O                                                   X u a y u       O O   X             O   X   .     O O   O     5 y i i d a y i y i i a i i i 6 y y i i y p a X                                                                                                                                                                                                                                                                                                                                                                                                                                                                                                                                                                                                                                                                                                                                                                                                                                 .         @ ) *.;.*.=.=.! *.*.*.*.*.+.T X         +   .                                   X y i i 5             .                               O u s y u                                                                                                                                                                                                                                                                       ",
"                                                                      O   O < u 5 u 4 y y y y y 4 < X   X           . . .         . .       .               + X .                                             O y a a u O                                                         O w a a u                             O               O O O   u u u s y y y u y 4 y u y u u y y u u u < u 0 @                                                                                                                                                                                                                                                                                                                                                                                                                                                                                                                                                                                                                                                                                                                                                                                                                                 .           &.;.;.*.T ^ ^ T ) Q Q %.*.` O .       O                                         5 i i y X                                   .     X O u y y u X                                                                                                                                                                                                                                                                     ",
"                                                                .           X   X O   X O O O X   X     . .   X                       O O             .                       .   .         . . .               u a d y                                               O             u a a u     .   .       X   X     O             . + O           O O O O   O   X   O O     X O     O   O                                                                                                                                                                                                                                                                                                                                                                                                                                                                                                                                                                                                                                                                                                                                                                                                                                     .         O _ *.*.T ; X @ & & ; ` *.6.Q O .           .                     +     .     O   5 i i y     +       .             +                 O u y y u     .                                                                                                                                                                                                                                                                 ",
"                                                                  .   .     +                     X   . .                     X X   O O O O O @ X   +       X                   .                               u a a s                                                         X   0 a a u X         .                 O         .     + .   +       O O                           O       O .                                                                                                                                                                                                                                                                                                                                                                                                                                                                                                                                                                                                                                                                                                                                                                                                                                   X   . . O _ W =.) O   X     O Q ;.*.Q O       O                                         O y y a u O                                           O u u y p                                                                                                                                                                                                                                                                       ",
"                                                                            .     . .   . . . .   O   + .                       X * ; * & & & @ @ @   + X       X   X           .             .               X u a a y       O                                                   X 0 a a u O                                   X                       + X                 O           +                                                                                                                                                                                                                                                                                                                                                                                                                                                                                                                                                                                                                                                                                                                                                                                                                                         O   + +   _ ! ! ' O   .   + X Q ;.6.~ O .                     .                         O u i i y     O       +                       .     O X u u y u                                                                                                                                                                                                                                                                       ",
"                                                                                        .     .         .         X             @ m B / K X.X._ ] V & X .   X           X                                       a a y y                                                             u a y u           X +                     X   X                                                           .                                                                                                                                                                                                                                                                                                                                                                                                                                                                                                                                                                                                                                                                                                                                                                                                                                       +   O ( ! ! Q @         @ ~ 6.*.Q O                                                 O y a i u X                                           O u y y u X                                                                                                                                                                                                                                                                     ",
"                                                                          X   X                 X                       .   +   @ / ' ~ Q Q =.Y ! A &     +                     X         X                   X u a y y O                                                         X w a y 4         O + +     .     .                 .           . .                 .                                                                                                                                                                                                                                                                                                                                                                                                                                                                                                                                                                                                                                                                                                                                                                                                                                                               O O @ Q 6.6.! > @ & @ * ; ! 6.;.) O   .               O                     .         4 y y u                           .                   u s y u X                                                                                                                                                                                                                                                                     ",
"                                                                                    X       X     X                         .   & / Y ~ =.~ *.*.! ' O O . .   . .     .   .   .                                 u a i y     O                                                     O u a a y X   O       O   + . . . .           X   . .           .                                                                                                                                                                                                                                                                                                                                                                                                                                                                                                                                                                                                                                                                                                                                                                                                                                                                                   O   & ~ ;.! 8.G _ _ _ _ Q ! *.*.,.O       O             +                         X   u i i 4 X           .                       .     O O u a y 4                                                                                                                                                                                                                                                                       ",
"                                                                  .                                                     X .   O @ ] E =.~ :.*.6.! ` @ O + .       .   . +   +   +   +                         O u a a y                                                           X 0 a a u X     .     X X O O   +   +   .   O X O + . .     . . .     .           .   +       .                                                                                                                                                                                                                                                                                                                                                                                                                                                                                                                                                                                                                                                                                                                                                                                                                                                       O @ ` *.*.*.=.Q &.&.~ ~ ! ! ~ _ O                 O     .             .           X u i y y O                                           X u y y u                                                                                                                                                                                                                                                                       ",
"                                                                  +   . +                                       X           O   & _ T ! 1.8 W *.! ^ O O   +                   O         .                       y a i y     O                                                       u a a u     .       X * O O O X O X O O O & O &   . . X                                                                                                                                                                                                                                                                                                                                                                                                                                                                                                                                                                                                                                                                                                                                                                                                                                                                                         X X   O ^ Q =.~ Q ) ) &.~ ~ E E ) I O         X                             .       O   y i y u O   +                               .     X   u y y u X                                                                                                                                                                                                                                                                     ",
"                                                                                            .   . .                 X X X X X O * L ^ ' H <.) E ` n * O X X X X   X X X   X X   X O O   .                     X u a a y                                         X                 X u a a u           X ; M I _ ` E E E T T ) P _ { *             O     X                               X                                                                                                                                                                                                                                                                                                                                                                                                                                                                                                                                                                                                                                                                                                                                                                                                                                       .         @ m X.I I / / _ _ _ ( ^ / I b & .                   +                             u a i y             .             +                 O u y y u X                                                                                                                                                                                                                                                                     ",
"                                                                    X                 X   .     .     .   .     X   5 4 u u u u d d d d l l k l d d 0 s g u 4 4 4 4 u u 5 u y 4 0 < O                 O         y a a u X                                                           u y a y X   .     X X L ` ! ! +.+.! ! ;.9.:.Y K O O X     X       X             X                                                                                                                                                                                                                                                                                                                                                                                                                                                                                                                                                                                                                                                                                                                                                                                                                                                           .     X +   O @ O @ @ @ & & @ X @ & * * X                   X                             O y i i u X                                           O s y p u                                                                                                                                                                                                                                                                       ",
"                                                                                              . . . .   .   .       u 5 y y y y y d a d d a a a d i p u y 6 i i i y y 4 a y i i i u X                           u a a y O                                                         X w a a u         O X & _ ,.*.;.6.! ! %.%.;.%.*.2.O             O       .                                                                                                                                                                                                                                                                                                                                                                                                                                                                                                                                                                                                                                                                                                                                                                                                                                                                     .       . .   X   O   X O O O X X X X O   .                   .           O       .       X y y i u         X   +                       +       X u y y u X                                                                                                                                                                                                                                                                     ",
"                                                                                                                O   u u y a 0 y p y u y f a y u y 6 u 5 4 y y y i p y s y i y y i u X O             O         O y a d u                                                           O u a y u     +     O & / =.%.:.Y Q ' _ &.:.*.*.Q & O X       +   X                                                                                                                                                                                                                                                                                                                                                                                                                                                                                                                                                                                                                                                                                                                                                                                                                                                                                 X . .                         O O         O               .                           5 i y 4 X                                             s s u u                                                                                                                                                                                                                                                                       ",
"                                                                                                                  O < 4 p f a u < u 0 u u u h 0 u 5 5 5 u u u 0 0 w u 0 u y s i 6 u X         .               X u a a y O                                                         X u a a u X         X @ / Q ~ T > & O @ > Y +.! E O   .   . . +         .   .                                                                                                                                                                                                                                                                                                                                                                                                                                                                                                                                                                                                                                                                                                                                                                                                                                                                   O   O       X       X       .   .     +     O     .                                   O   5 i i y X                         .               O X u a y u X                                                                                                                                                                                                                                                                     ",
"                                                                  .     .   .                                     X u y a y X O X   O     X   X   X   X   O O O O X   O   * , d a u X     .                     y a a y                                                             0 a a u             $ A E ~ _ @ O O   X E ! +.E &     . .                                       +                                                                                                                                                                                                                                                                                                                                                                                                                                                                                                                                                                                                                                                                                                                                                                                                                                                   .                     . . .   +                                       .           O y i i u             .                       .         u y u u                                                         .                                                                                                                                                                                                             ",
"                                                                                                          .         u a a u   X             .                   X X   . + O u a i i X       .                 O u a a y                                                           X u a a u           O @ / ~ ~ ^ @ X     & T ! *.) O         .                                                                                                                                                                                                                                                                                                                                                                                                                                                                                                                                                                                                                                                                                                                                                                                                                                                                 X     O .             .           X         . .                                       +               X O X u a s y X   X   X + +                   .           O u 5 u 1 X               O                                       . . +     O     O         O     o   .     O                                                                                                                                                                   ",
"                                                                                                          . .     X y i y u       .   . . .                           .     u a d p X                           y a i y     O                                                     O w a a y     X       @ ^ =.%./ @ X     O ) *.*.) O                                                                                                                                                                                                                                                                                                                                                                                                                                                                                                                                                                                                                                                                                                                                                                                                                                                           .       X       O   X     .         .                       . .                                                     . X     u 4 4 u @   X     O O O       X   X X   O     O O O X 4 4 5 5 X                                       O         X   . + X   X & @ @ & O X X X O & @ X     o     O                                                                                                                                                                   ",
"                                                                                                      O             y a a u O     X                         .               y y a u             .             X u a a y                                         X                 X u a a u X         X X ^ ~ ~ ^ @ O   O @ ) *.*.) X                                                                                                                                                                                                                                                                                                                                                                                                                                                                                                                                                                                                                                                                                                                                                                                                                                                                         .           .     X                       X                                                           .   X X y p a f 0 , p a a z k a y a p y a a y a y y y s u a a f a 4 u O X       O   O   O   +   +   +                     O   X B T Q ! E E E Q E T ' ^ ) P V $       +                                                                                                                                                                     ",
"                                                                                                        .           y y a u X                       O         + .         X u s u u X       .                   y a a u X                                                           0 a y y           X @ / =.=./ @       O ) *.*.T O                   .                                                                                                                                                                                                                                                                                                                                                                                                                                                                                                                                                                                                                                                                                                                                                                                                                                           .                                       O     .       X                                     O               +           4 y y a y y i a a a a d i i i a a a i d a a a a a a a i a y s O O O O             . . .   .             +         O   X ( *.6.*.! ! ;.6.! R =.~ *.=.] $ X     X   .                                                                                                                                                                 ",
"                                                                                                        .         X u a y 5       X                 X   O                 X u y u u         . .     O           u a a y       O                                                   X w a y u           O @ / ~ ~ / @ X     O ) ! *.) O       .             .                                                                                                                                                                                                                                                                                                                                                                                                                                                                                                                                                                                                                                                                                                                                                                                                                                         +       +                   . . . +   O O   .                                                                         O < u a d i i i i y y s a y u u u u a a i a a a a a a a a a u r O O   .                                   .       X     O ) *.;.*.! ! ! ;.*.*.*.;.-.%.P @ X +       X                                                                                                                                                                 ",
"                                                                                                                    y a y u                                 O               s y a 0                           O u a i y O                                                           u a y u X           @ / =.%.^ @ X   O X Q *.*.) O                                                                                                                                                                                                                                                                                                                                                                                                                                                                                                                                                                                                                                                                                                                                                                                                                                                           O     O             X             .   .         .                                                                   .   X O < u a a u y 4 p u < 0 u s w w u w w u y y s u u y u u y u u 0 X O     .         X                       . .       + + O ,.;.;.%.^ / ` ) ) ) T :.;.-.2.& O     X                                                                                                                                                                     ",
"                                                                                                                  X y s y u             .   +                 .       .   O u s u u O                         X y a a a                                                           X w a y u     X     O @ A ~ ~ ^ @   O   O ) ! *.) O               O                                                                                                                                                                                                                                                                                                                                                                                                                                                                                                                                                                                                                                                                                                                                                                                                                                           X                       X                 O       .     .                                                         .         O O O O X     X     O   O     O O O                   X X   X                 .       .           X   X           . . X ! 6.6.Y @ O O & O O = P =.:.K &   .                                                                                                                                                                         ",
"                                                                                                    O X             u y u u                                       X         u u y u X   X                       y a a s                                                           O u a a y             @ / =.%./ @ O     O Q *.*.) X                                                                                                                                                                                                                                                                                                                                                                                                                                                                                                                                                                                                                                                                                                                                                                                                                                                                                                             +   +                                                         .       +   X     + .             O X @ O O O X O X O O X O O @ O X X X O X X O O O X X X X O O O O                     X     .   X ~ 6.! ( X . +   +   O _ =.W / & O + X                                                                                                                                                                       ",
"                                                                                                      O           X u u s s       X         .                   + O         s u u u X       X                   u a a y       O                                                   X 0 a a u           X @ ^ =.&./ @ X     & ) *.*.T O                                                                                                                                                                                                                                                                                                                                                                                                                                                                                                                                                                                                                                                                                                                                                                                                                                                               X     +       .   .     .   .           X       O                                                                                     X X X X B ] T Q ) ` T ( T ( Q T ( ( ) Q ) T ` T ( ^ ) &.,.T T ` T ) ) / | O                     X     X X E ! ! C X       X X X / ! Y / X   +                                                                                                                                                                         ",
"                                                                                                              X     u 6 a u O X   . +     X     X X X X X % X X X O X   X O u a y y                           X y a a y                                                             u a a u X         X X / =.~ ^ @       @ ) *.*.) O                                                                                                                                                                                                                                                                                                                                                                                                                                                                                                                                                                                                                                                                                                                                                                                                                                                           . .           +       . .   .     .                                                             .               . .               . .         X @ / Y ;.*.! ! ! ! ! *.! *.*.*.*.*.! *.*.! ! *.*.*.;.;.;.! *.*.;.~ ^ @ O X     . .                 X ) *.! T X   .     X % ^ Y ~ / @   . + O                                                                                                                                                                     ",
"                                                                                                +                   y a a y X       +     O * O.U / _ T Q &.&.Q K { X + + O u a i i X   .   .                   y a a y O                                                         X u a a u X           @ ^ =.~ / @ O     & ) *.*.) O                     .                                                                                                                                                                                                                                                                                                                                                                                                                                                                                                                                                                                                                                                                                                                                                                                                                                   . . .   X   X         .     .       O     o             O X                                                                                     O O _ ~ 8.;.6.*.! *.*.;.;.*.*.*.*.*.;.*.*.*.*.*.*.;.;.! ! W *.;.*.*.) @         .   +       . . + + O ) ;.%.1.& O +     X @ / ! ! ^ @ X                                                                                                                                                                           ",
"                                                                                                      O           O u a a y @ X X     X * X * L _ _ &.>.=.-.>.>.^ S X X     y a i a X   . . . . .   O         O u a a y     O                                     X                 u y y y           O X / =.~ ^ *       X ) ! *.) O         .     O                                                                                                                                                                                                                                                                                                                                                                                                                                                                                                                                                                                                                                                                                                                                                                                                                                           .   X X X O @ O X X X   X O O O & X @ X     X     X   O                                                       .             .                 O O X.W ! %.Y ( ) ) Q ) Q ) Q &.) Q ) ) Q ) ) Q ) Q E Q ` T T :.*.%.) X   X     . .         . . + + O ) 6.*.W = & & & @ X ; J ~ ~ ^ @ O                                                                                                                                                                           ",
"                                                                                                .               .   u a a i 9 4 u , u u u y y a d d d d d d d a a y 6 i u y a y a u     .     .                 y a i y                                                           X w a a y     X     O @ / ~ %./ $     O O ) *.*.) O                                                                                                                                                                                                                                                                                                                                                                                                                                                                                                                                                                                                                                                                                                                                                                                                                                                             @ L E =.Q ,.,.Q ` ) ) ) _ Q ) ) T ^ D $           + .       .                                 .             .             .     O   O         @ I Q ` ( > @ X X X @ O X O X O X O X O O X X @ X @ X X @ ; T 6.*.( @                     .   O   O _ W ;.;.Q <.P T ( Q ~ =.*.! ^ $                                                                                                                                                                             ",
"                                                                                                                    u a a i a p i d d y a a d y i i i d a d a a d a d y y y i a u h           .               X u a y y       O                                                   O u a a u X         O X / =.=.^ @ O     O Q ! *.) O                                                                                                                                                                                                                                                                                                                                                                                                                                                                                                                                                                                                                                                                                                                                                                                                                                                           O & ( ! *.*.;.:.*.*.*.*.*.*.*.;.*.*.@.( X             .     .                                                                 .     O         O @ / Q Q L @                                       . .   O @ ) %.*.) &                       O O   @ ( ! 6.W %.*.9.%.+.! ! ! :.&.^ @ X                                                                                                                                                                           ",
"                                                                                                .               .   u d d a a y s a 9 a f a y a a d a a a a s a a d y y y a d a d u X                           u a a y                                                             u a i u X           @ / ~ ~ / X X   O @ ) *.*.) O       .                                                                                                                                                                                                                                                                                                                                                                                                                                                                                                                                                                                                                                                                                                                                                                                                                                                   + O T R 6.;.:.%.;.;.*.! *.*.*.;.;.*.*.) O   .       . .   X                                     .   X         .               .                 X _ Q Q _ & X                     . .           .   .     O &.*.*.) @   .                   X + O X ^ R 6.*.;.;.%.;.6.+.*.%.=.H / X         X                                                                                                                                                                   ",
"                                                                                                                    0 a a y u u u y f y 9 a a d d d d d d d k d d d d y u s 9 y y u                           O a a y y X                                                           w a y y           X @ / %.! ( ; O O O & Q *.! Q O                   .                                                                                                                                                                                                                                                                                                                                                                                                                                                                                                                                                                                                                                                                                                                                                                                                                                       . X C +.! W 3.) Q Q Q T ( ) Q W %.*.;.T *   +                                                                               . .       . +     O @ _ Y 7.) @ X                   .     .                   & Q *.*.) O O . .                   O   X S ( T ( T Q &.,.Y Q ) ) _ X.} X   .     .                                                                                                                                                                   ",
"                                                                                                                        X     X X   X O & @ & L / ) ~ =.%.=.>.~ T S @ X O       O X                 O           y a a y       O                                                   X u a a u             X / ! ! *.~ Q _ ) Q ! ! +.E &     .       .         .                                                                                                                                                                                   X         X                     . .                                                                                                                                                                                                                                                                                                                                                                                         +             .       O       O                                               X                                                                                                                                       O T ! ! ~ * O O X X X X O O * Q ;.*.) O                                                                                                       @ / =.W ' @ X                                             X ) *.! ) X   +                             X O X X O O X X @ O O O O X         .       .                   .   .   X                                                                                                                                 ",
"                                                                                                                                          O ; { L _ ) Q Q ,.,.) / S $ X   + .           .                     O y a a u O                                                         O w a y a     X     O X / Y +.*.*.*.*.*.*.! ! ! ~ & O .     X .   O   O   .                                                                                                                                                                                   +                   X       . . .       O X                                                                                                                                                                                                                                                                                                                                                                                               .                   X +           .             .                                                                                                                                                       X ) *.! T O   .             @ ) *.*.) X                   O                                                                   X             X @ ^ ~ &.^ @   .                                       .   O Q ! *.Q @                                                       .           . .   + .       X             . .   . .                                                                                                                                 ",
"                                                                                                                                          X   @ X X @ @ @ O O O @ $ O   O +     X                               u a d y                                         X                 X u a a u X   +   O & * X.Q ! *.*.*.*.*.*.*.! ! I & -   . X                                                                                                                                                                                   .                       o . .   X       .     +         O O                                                                                                                                                                                                                                                                                                                                                                     .           + .           . O                               .     O                                                                                                                                                               O ) *.*.T @                 O ) *.*.Q X   O   X                                                                                               @ _ ~ W / @                                             O O ) *.*.Q O                                           .           .                                             X                                                                                                                                     ",
"                                                                                                                                      + . .                 .   O @     + . .               X                   u a a s                                                             0 a s y       + + O & M / ) ) Q ) ` Q Q Q ) ^ K O + .             O                                                                                                                                                                         .                 . .   + . + +                     X       . +                                                                                                                                                                                                                                                                                                                                                                                       . +             X                 .             O .     .             O                                                                                                                                     O T *.*.T O O               X ) *.;.) O   +                                                                                   O             X X P =.~ / @ X                                             O ) ;.*.) &                                                         +         .   X X                 +           X                                                                                                                                   ",
"                                                                                                                                  . .   .   . .   X         .     O + + . .                                   X u a a y       O                                                   X w a y u         X   X @ X @ O O O & @ O @ @ @ *   + .             X                                                                                                                                                                                               . +   O         O       O O X         . . .                                                                                                                                                                                                                                                                                                                                                               .           .               X         O                                                                                                                                                                                           O T ! ! T @                 @ ) *.*.Q X                                                                                                       @ / ~ ~ ^ @ X                                   X         O T ! *.) @                                           .                           X                               X                                                                                                                                   ",
"                                                                                                                                      + . .                       .   .       X X                               a a y y                                                             u a y u X       X               +         O X X X   .     o           X                                                                                                                                                                                       .     O & & & O O & O X X X O @ @     +   . .                                                                                                                                                                                                                                                                                                                                                                                             X   O   O   X   O   X X X       O   O X                     O   O                                                                                                                                     O ) *.*.T &   .             O ) *.*.) @                                                                                                     X @ _ W &./ @ X                                         . O O ) *.! Q &                                                                       O   X X   X X   X   X X   X X                                                                                                                                       ",
"                                                                                                                                    X     + + +                 . X   .                   .                   X u a y y O                                                         X w a y u                 X                                                                                                                                                                                                                               .         O @ } L ' ) ) _ _ T E Q ` ` B @ +                                                                                                                                                                                                                                                                                                                                                                                   O           o   X < u s u s s u u u y y u u u u u y u <     X     +                                                                                                                                                     O ^ *.*.T O                 @ ) *.*.,.O                     O                                                                 O               X _ &.~ / X X                                             O ) *.*.) X                                                     X           o   O < 5 u y u u u u u 4 u u u u < O X                                                                                                                                   ",
"                                                                                                                                X                   O   O   O     .           X     .   .           O           u a i y     O                                                     O u a a y     . +   .                         .     .               X                                                                                                                                                                                               X X _ ` W *.;.;.%.*.! *.*.! ( O   O X                                                                                                                                                                                                                                                                                                                                                                                     X         X u u a a a a y a i y a a a a a a a a g     X                     +                                                                                                                                     O Q *.! Q O O               O ) *.*.) X   . O                                                                                               X @ / &.W ' @                                               O ) ! ! Q O   +                                                         X       X 5 u a a a a a a a a a y f s 0 &   O                                                                                                                                 ",
"                                                                                                                                X             .     X     O   O                 .   .     .                   O u a a y                                                           X u y a u O   +     O     O         .   . + + . . .           O O O   O +                                                                                                                                                                                     X     X $ ^ ~ 6.%.9.%.*.! +.*.*.*.^ O   O                                                                                                                                                                                                                                                                                                                                                                             X                     5 y a a a a a y a a a y i a a d d a u   O                       .                                                                                                                                     O ) *.6.T O                 X ) *.;.) X                                                                                       O             X @ _ ~ W / @                                               @ ( *.*.Q &                                                     X               X 5 i a a a f y p y a i i y y 0 O O                                                                                                                                   ",
"                                                                                                                                  X                                   X X         .   .                         y a i y     O                                                       0 a a u   O   + O O               o +     . . .         O   O   +   +     .                                                                                                                                                                         +           X X * ^ *.*.=.J ,.1.Q W :.%.*.Q @                                                                                                                                                                                                                                                                                                                                                                                                       p i d a 9 u 0 u u y s u u u 9 f d i h X         .                                                                                                                                                     O ) *.! T O                 @ ) *.%.Q X     O                                                                                                 X P &.~ / @ X                                         .   @ Q *.*.) O                                                             X   .     y y d a y y 4 u y y , d a u u O O                                                                                                                                   ",
"                                                                                                                                                                                .                             O u a y y                                                           O u a a u                       o                   X     X                                                                                                                                                                                         .               X @ _ =.W T ; * & @ ; T =.! E X                                                                                                                                                                                                                                                                                                                                                                                                 .   X 5 i y < @ O X X     X X O   O , u u u                                                                                                                                                                 O T *.*.T &     .           O ) *.*.) O                                                                                       O             X @ _ =.W ^ @ X                                             O ) *.*.` O   +                                                             .   X y y a , @ X     X X $ u u u u                                                                                                                                       ",
"                                                                                                                                                                              .   .         X                   y a a y X                                             O           X u a y y X                     X   .       X           X                                                                                                                                                                                       . .     X           O & / =.~ / X O   O X / =.! E X                                                                                                                                                                                                                                                                                                                                                                                             X   +   X y y y 5 O                 O O 0 u y g X X       +                                                                                                                                                     O ( *.! Q O O               @ ) *.*.,.@                   O                                                                                   @ / ~ ~ ] @ X                                           O O ) *.*.T O                                                                     O u i y u X           X < u 4 5 X                                                                                                                                     ",
"                                                                                                                                + +   O               +                     .   .                             X a a a y O                                                           s a a y                     X       . .   X     X   X           .     X                                                                                                                                                                               O             X I =.Q / X X     O L &.*.) @ O X     +                                                                                                                                                                                                                                                                                                                                                                                     . .   O y i y 4 X                   X < 4 6 5 X                                                                                                                                                               O T *.*.T O                 O Q *.*.) O                                                                                                     X @ / &.&./ @ X                                             @ ) *.*.) X                                                               . . X   y i y 4       .       u y 4 u X X                                                                                                                                   ",
"                                                                                                                                                        .     . .                                               u a y y       O                                                   X w a a u                     X     .   +   X X   X       X   X X     X   X                                                                                                                                                                       . + O           .   O ..=.Q S X O   + & P >.%.) O     + +                                                                                                                                                                                                                                                                                                                                                                           +     X     . .   O y i i u O     .               5 p i g   O                                                                                                                                                             O ( *.! T &                 X ) *.%.) X   +               O                                                                                 X @ ^ ~ W / @                                           +   X Q ! ! Q O   +                                               +           . . +   y i i u X X         X u y u 5 X   X                                                                                                                                 ",
"                                                                                                                                        X                       .             + X   X       . . +               u a a u                                                             u a i y   X         . . .   O     +     $ @ @ @ * & @ O @ @ @ @ X @ @ * * @ O                                                                                                                                                                       O       .   . O & / +.! / @ O O   & ) *.*.Q X                                                                                                                                                                                                                                                                                                                                                                                               . . .   y i 6 y O     .       X     O u a y u     O     .                                                                                                                                                     O ) *.*.T O                 O ) *.*.&.@           X                                                                           O               @ _ ~ W ^ $ X                                           O O ) *.*.Q O                                                               . .     y y a u     .       O u y w u O                                                                                                                                     ",
"                                                                                                                                . +                           X                             . .               X y a a u O                                                           u a i p               .             O X B / ^ ^ _ / | I ^ / / / L / ^ ^ _ | O             X           O                                                                                                                                           O   O       .     @ ^ ! +./ @ @   O O ) ! 6.E X                                                                                                                                                                                                                                                                                                                                                                                               .   X   4 i i p O   X             O   0 i d u X                                                                                                                                                               O Q *.*.T @   .             X ) *.*.) O                                                                                                     X @ / &.=./ @                                               O ) *.*.) &                                                                 +   X 6 y a s X X X       O u y s 0   X .                                                                                                                                 ",
"                                                                                                                                                                                              .               X 4 i y y       O O O                     .               O .       X u a a a                               X ^ ~ =.Y ~ ~ E ~ &.=.Q &.~ ! ! ! =._ & O O   O O O   O   @ O X X O                                                                                                                                                     .     * I >.~ _ X X   O O P ~ *.E X   .   .                                                                                                                                                                                                                                                                   X                                                               .                                           +             O y i i y X                   O u y a 5 X                                                                                                                             .                                 & ) *.*.T $   . .           O ) *.*.) X     .           O                                                                           +   O     @ ' &.&.P @ X                                   O         O ) %.%.) X                                                         +           O y i a y           X O h u a 0                                                                                                                                       ",
"                                                                                                                                                                                                  . X           y i y y O O O   O   O   X X   X O             O O   O             X u a l a   .         X   X             X Q *.*.! ! ! ! ! %.&.&.%.*.+.! ! %.&.a u u s u s u u h 0 u u 5 5 <                                                                                                                                     X   . .             O & I =.%.^ > @ O O > H 7.6.Y @       .                                                                                                                                                                                                                                                                                                                                   .               .         X   .                           O u a a u         O             u a y u                       .                                                                                     X                           . .             +   O   X ,.*.%.( X     +           O ) ;.*.E X   .         O O                                                                                       @ / >.&._ X X             O       O             O         X ) %.;.) X     .                                                               O u a a u O             u s a u X                                                                                                                                     ",
"                                                                                                                                                                                                .           O   p i y y @ O   X X .     X X X         X X X O O X   X   O   X     O 9 a a a   . .       X                 @ ) *.*.=.E Q E ` Q Q Q ~ ! R +.;.*.&.d u u u u y y y u y a y i d u                                                                                                                                                       X X @ / *.;.*.W ) _ ) Q :.;.*.&.& + X   O                                                                                                                                                                                                                                                                           +           X                 O                           .                                                         y i a y     .               X 5 p a u X X   .               +                                                                                           .   .               X       X       .     O X X ( %.! ( X                 @ Q ;.*.T O         X                                                   O                                       X X / &.&._ @ X                                       . .     ) ;.*.E X   . . . +                                   .               .         4 i a u X             u y u u X                                                                                                                                     ",
"                                                                                                                                                                                                              O , 6 y s 0 0 u g u u 5 u 5 6 5 4 u u p u u u y u u u u 5 u u u 5 5 u s k a s   .                     . .   X ) *.;.W x d a d d d d d d x Y %.*.>.a y u u u a y y u y y i y y u X                                                                                                                                       + +             X @ ( ! ! ;.9.%.Y =.;.;.;.8.1.&                                                                                                                                                                                                                                                                                 O     O                   O       O                       . .             .             . .                     . X   5 i y y X       X     .       p y i u   X                 .                                                                                         +     .     +       X X               X     O     X ) %.! E ; X O O @ @ X X O * =.;.*.) X                                     O             O   O       O                                       X _ &.>.) @                                     . . .     X ` *.;.Q X                                                                   X   u y y y           O   u a a u                                                                                                                                       ",
"                                                                                                                                                                                                      X   O   O y i a p < u u 4 i 6 y y u 6 6 y i y u u u y y y a y 6 6 6 y 6 y 4 p y a a w                         .     O ) ;.-.&.k s s h w w u u u d ,.:.;.%.d u u u u u u u < < , d i 6 u @                                                                                                                                   X     +               @ S @.! *.;.%.! ! ! 6.;.W G O +     X                                                                                                                                                                                                                                                                       +                                       . +     .       . .                 .                                         X 5 i a u                     X 5 a y u   O                                                                                                   .                                                         O ,.-.;.;.Y ^ ) ) Q ) Q ( T &.*.6.! ( X   + .     .   .                       X                           . +     +       .                   X _ %.:.,.& X .                                           @ ) ;.;.Q X                                                                     X u i a s           X O h u y u X                                                                                                                                     ",
"                                                                                                                                                                                                            O   u a a y u u 5 4 i a a u u w y a i i y u u u y 6 u u 6 6 6 6 y y y 6 a s y u X             +     .     .   O ) *.;.W *   X O O         & T -.*.&.& X   X   X + O O X O u y y u O X                                                                                                                                     .     O         X $ m A ( ,.Q ) ] ^ T ` Q ' B @                                                                                                                                                                                                                                                                                                               +   .       +   .     .     .                             .                         O   y y a y O       O     .       5 y y u                     .                                                                                                                                       X X O <.>.8.*.! ! ;.*.*.;.! *.*.*.! *.! ^ O     . .   .                                               +   .       +         .           +   O   X @ _ %.%._ *   . .                               O         @ Q *.;.) O   X                                                               O   y i a s O             u a a u O                                                                                                                                     ",
"                                                                                                                                                                                                  O           O u u y u u h 5 u u s s s r r 0 u p 6 u u g 5 5 5 h g u u 5 u 0 h u u u s 0 <             .       +     +   @ ) *.*.Q O         X       @ ` *.*.Q @     O           O O u u y u                                                                                                                                           O O         .     @ @ @ & O O X   X & * X O   . X X                                                                                                                                                                                                                                                                       .                       .                                                 . .                                             s i i y X   .               X 5 y a u       .               .                                                                                   .             X       .     +     .   .             X X I J ;.! +.! +.+.*.! ! ! *.*.! ! ! / O   O     .                                                             .               O       O O     @ / &.W ' O O .             .       .   .       +     +   O Q *.;.Q O                                             +                         u a a y X             s u a w   O                                                                                                                                   ",
"                                                                                                                                                                                                          .       O X O X   X X     O O O O O O X X   X X   X   O O   X     O O   X O O O O               +               @ Q *.*.( X     X O     .   X Q *.! ) @           O   O     u u y e O                                                                                                                                     .                 . +   X O O     . . X     O X   .       .                                                                                                                                                                                                                                                                 .               . +         . .                                                                 +               .         O y a a u         O           X 5 y a u X X                 .     O                                                                           .                         +       O +   .     .           O  .I ) Q E E ~ Q Q Q ^ ( ( Q ( ( ^ B O                 X                                                                       O             X / ~ Y / @   . .     .                       . +       O & Q *.*.) O X                                                               .   O y i a u X         X   u y a u X                                                                                                                                     ",
"                                                                                                                                                                                                          .       O   O   X     X     X     X X   O O   O     O O O O           O   O                                     $ Q ;.! ( X     O O O X   X X ) ! *.^ X               O     u u u u O                                                                                                                                                     . . .       X       . . .         .     . .                                                                                                                                                                                                                                                                 .                                                               X     X       .                                           X y i i y X                     5 i a u   X   .             .                                                                               +   +       O   O     O     X   O O           .               O @ O O O X O & O O O O @ O X @ O O +       X       + O O                                                                         X         X / E Y ] @ X     O   O     O   O   O   O               X X ( *.%._ O   +   +                                                 +           X 4 y a u         X   X u u y u                                                                                                                                       ",
"                                                                                                                                                                                                          . .                       X       O @ O & X @ O O & O O @     + O   +         O   X X X       + .           X   X Q ! ! n $ X X @ & & @ X @ ; Y 6.! T X                   X u y a w O O                                                                                                                                                 . . . . . .             . . .               + .                                                                                                                                                                                                                                                               .   X   X X   X O   O   X X       X     X     O     O   X O   X O O         .                               +               5 i a y     +               X u a p u X                                                                                                       O   +   X   X O   O   X   X   O     X       .         .       O O O     O +   +       O   O     . O O X X X   O O       X     O X   X X     O   X       X     X     O     O   X O   X X X         +   X B ` ! E $ @ & @ X O O O & O X O O O X O @ O O X X X X X ; E %.~ ^ O O     +                                   .                           u i a y X           X u y y u X                                                                                                                                     ",
"                                                                                                                                                                                                            .             .     X       + & V ` ) ^ ( T E Q T _ ' M $         O                       . +                 @ 2.*.*.q.^ ( T Q ,.,.E Q E Y 8.;.! ' X                 O X u y y u O                                                                                                                                                   .                       . .                                                                                                                                                                                                                                                                                     O e 0 u u s s u y u y a y y u y y y y y u s u u u s u u y y u 5 < O     +                                       .     O   5 i a y X       O           X 5 a y u X X                   +                                                                                   X < 0 u 9 y 4 5 0 u u 5 u p u y 5 5             .             O   O       .             +   . . , y 4 4 6 5 0 u u 6 s u u u 0 u s u u u u u s u u u y y y y u u s u u u y u u y y u u 1 X           @ K =.*.+.! =.1.Q T Q T Q T Q E T T Q T T T Q T T Q ` 2./ n *.! %._ O O +                                                         .       O p i a y           O   s y y u   O                                                                                                                                   ",
"                                                                                                                                                                                                        .     .     O       .     X     + X T Y *.*.! ! +.+.;.%.T A X                                   . X         X X   X ) W %.*.! ~ *.*.%.-.*.6.! *.*.*.*.) O                     5 y y u O                                                                                                                                               .                                             X                                                                                                                                                                                                                                                                   O O s u d a y q u a a i a i y i a i a y a a a a y a a i a a d i u < O                           .                         O y y a s               +       5 a y u                     .                                                                           X     O O O u s p i i i i y y 4 6 4 p y y y 5 X                       O           .                 +   X 4 p i i i 4 s a a y d a a a a a a a y a a y a a a a i i a a a a a a y a a d a a d i p 5 X         O @ / %.6.6.+.! *.*.! ! ! *.! ! *.*.*.! *.*.*.! *.*.*.*.*.! ! 8.;.=._ O   X                                                               O   4 y a s O           O r y a w X                                                                                                                                     ",
"                                                                                                                                                                                                                      O   . .     O     + O ) ;.*.;.*.! +.*.;.:.~ ] X X     . .   .     .   .           .       X         X _ &.:.;.! ! *.*.%.%.:.! ! *.;.*.%._ O   .               O u a u w O                                                                                                                                 X           .               X         X   X                                                                                                                                                                                                                                                                                     O O p y a i d d a a a a i i i a y a a a y y a y a i a d y y i 6 y 5           +                                           O u i i y O                     u y y u X                                                                                             . .       O O u y i i i i i i 6 a i 4 y y i y u X           . .                           .   .             u a y a 6 4 y a i i y a a s y y a y a a y a y y a a y a a a y a y y y a a d a y i y y w       O   O & X.&.*.! ! *.8.*.! *.*.*.*.*.*.*.*.*.! ! *.*.*.*.*.;.*.! ! ! ! Y P @ X                                           .                       O u i a y               s u a u                                                                                                                                       ",
"                                                                                                                                                                                                                              + X       + O 2.*.;.%.Q ) Q Q %.*.%.) X   .                 . .         . +               . X K Q W W ) ) ^ ) _ ,.H P ' ^ T T _ _ O .   .               u u u 0 O                                                                                                                                                       X                         X                                                                                                                                                                                                                                                                               O O y y i d a u w s u y y y 5 u u u u s 0 u u u s s u y y a f p p p X X   .                                               O y a a u       . X             p a y u         .             .                                                                               O     y i i i y i 4 u 4 u u u 4 y a a u                                     X               + +   X y d a p 4 , h u p y y a u y u y y u u u y u y u u u u u u s 0 u u u p s u y y y f a s s X X X     O & } I _ ( ^ Q T Q ) ) T ( T ) ) ) T ) T ) ) T ) ,.P ,.Q E E Q ` _ { $                                                         .           X u a a s O         X   h a s u X                                                                                                                                     ",
"                                                                                                                                                                                                                    O           + +       O Q *.%.,.* @ X @ Q %.;.) @       X             O   +                     X . .   a l j a @ X @ @ @ O O O O X X X O O       .             O u u a 0 O                                                                                                                                                             . . .                                                                                                                                                                                                                                                                                                   5 6 y 4 O O O   O X   X         X   O         O   X   X 5 , 4 y     X .                                       .         4 i i y X                   X p p i u X X                 . +                                                                                 O O < 4 u , @ X O O   O O O O u y y s O O O                                 X               O     y a a < X O O O   X           X       O X O     O X     O     O       O X O   @ < 0 9 s               X O O X X X O O O O O O O O O O O O O O O O O O O O X X X $ @ O       X +                                                               O y y a y     X         u s y w X                                                                                                                                     ",
"                                                                                                                                                                                                              X                   o       X E 6.%.) &     X ^ *.%.Q @       X       X                   +           .   . X a l a y O       X O   + .       O                       X u u s w O O                                                                                                                               +                   X       . .     . +     O       O   .                                                                                                                                                                                                                                     O X   X   O   X     X   O   X X   X O 4 a y a X   O           . .                   X   O   X 5 u y p   O X                       +                       X   u y a y     .         +       5 y a u O                                                                                                         X u u u w O     + +     O O u a y u                               .           X         O +   X p a s u O   O   O       O                                                 X X   5 u y s X   X       o   O       +                                   .   .           +   .   . .                                                       .         y y y y O       X   O u y y u                                                                                                                                       ",
"                                                                                          O                                                                                                                                             + O Q *.*.T X     X ) ! *.) O                                                 + +   s i d y O + .           + .                           O X u u y w O                                                                                                                                                                           .     X       .     o   O .   +     .     .   O                                                                                                             X       .           X                                                     X     .   X * * * & X X @ $ * = & & @ @ @ @ @ @ @ @ l l a d X       X     . .                             O u y a y O                                                     X u i a y                 .     u y a u   X                 .                                                                                     O u u y u X             O   s a a u X             .                                           O y a y u           O                                               +         O   u a s y                                                                                                       X                                   .         X   f y y , @ X O O O O @ u s u 0 O   +                                                                                                                                 ",
"                                                                                              O         +           +                       X           .                                                                             O   O ) *.*.T X     O Q *.*.T O       .                     .                       O y a i y   + .                                             u u y 0 O                                                                                                                                                                           O   X   X O O X   X     X O X   O                   O                                                                                                               . .                                                         O         .     X n ' _ / _ A / _ _ I _ L L / ^ ( / L / K P $.) L O           O     .             .             X u a i 5     O                                         .     O   y i d u O   . +     . .     X 4 y y u         .                                                                                                 + u y y u O O       O       u a a a                                                           X s a a u O                                                                     O u i a u O                                                                                           O     X                       X                 .   +   O   u u y a u u s y u u a y y u u O   O                                                                                                                                 ",
"                                                                                                            O   O                                 .                                                                             .       O O T ! *.T X     O Q *.*.) O                                                     O y i i y   X .                                             u a y u O                                                                                                                                                                 . . . . +   * @ & * * & @ @ * @ * @ @ X X O X                                                                                   X             .             O   . .           . .           O                                                           . X / 1.%.! ~ E ~ ~ &.~ ! ~ Q T W ~ ~ T E #.%.:.~ / X         O     .               .             O u y i p             +               .             .             u a a u O                 X   5 a a u X X                   +                                                                         X       O   u u y s   O +             y a a u X                                                           s a a y     +                                                                   y y a u         X   .                                                                                 . .           X   O O O                         .       X u u 6 y y p y s y y a y 4 6 u X X                                                                                                                                   ",
"                                                                                      X         O                       O         .                                                                                                   O   O ) *.*.Q X   O & E *.*.) O             X                                   O   O y a i y     . .                           .             X 5 u y u O                                                                                                                                                                 o .       O { X.P P _ P _ P _ ) / / D ..{ @ X                                                                                                                   .           .   +     X X   +                                           . X     X .   .   O _ W ;.*.~ Q E ! =.=.~ ~ Q Q ~ ~ Q Q Z ! ! 6.*.` X X                     . .       .     X       u a i 5 X                       .                             O y i a u                       p a s u O                   .                                                                                       u y y u X               O u a a u           O                                     X         X y y a u O         O                                 .                       X   5 i i 4 X               O       .                                                                       .   .         O & = = & X                   .         X 5 u 4 y y y 9 u u y i y p y < X X                                                                                                                                   ",
"                                                                                        .   .                                       +   .   .     .                                                                                   X   O ) ! *.) O   + & H *.*.) X   .             O                           .     O O u i i y O                 .     .     . .               O u y u u O O                                                                                                                                                                     X   O _ Q 3.&.>.&.>.=.:.%.R ! R ( A @ X O                                                                                   .           O O     O   O     .                             .                                                     .     X _ =.*.*.H / X._ P P ^ / / / / ^ ' / ' n =.*.%.T &       O                                 X   O u i i y O       +   .                         O     .         X u y a u           O X       X u u y e                                                                                                           O u y u u O                 y i a u X                                                           u a a u X                                                             .     X   5 i i y O                                                                                                           + O t.h.a.t.+                           O X < < 5 5 u 5 u u 0 0 4 4 u 5 , X X                                                                                                                                   ",
"                                                                        O           . .   .   .                                                                                                                                       X   O ) *.*.Q O + + O ) *.*.Q O                                         +             y a i u     .     X                       +             X u y y u                                                                                                                                                                       X   O X ) =.%.&.>.T ~ &.%.*.=.! +.R / ; O                                                                                   .   .     O O     O                         X   X           . .                                           .               X ) *.:.Y > @ @ & * * @ @ @ $ * & & O @ > W 9.*.T *   . .     X                   .         X     y a a u                         .                             X 4 y u u O   .   X             g u s u X X                   .                                                                                 O   e u y y   O             X u y a a                                                   X     O   u a a u           O                                                           X y i y u O           .                                                                                         X     . O s.f.g.a.*   . X                         @ X   X X     O O X   X X X X                                                                                                                                       ",
"                                                                                        .                                       O         .                                                                                               O _ *.*.E X   + O ) %.*.) O                     .                       X       O y i y y           X                                   O   u u y r O                                                                                                                                                                 +     X   X ) ! %.q.T ( / / ^ ' ,.,.W Q / & O O           .                                                                                   O   O O   .   .     .                 X                                                   X       X .       X ) %.*.^ &   X X O O X X     X O O O @ & Q *.! T X     .   O       . .                       O O u y y y X           .               .                         O u i s u O             +       p y y g X                   . +                                                                                 O O u a y u O     +     O     y a a u X             .                                             y a a u                                                                     O O u a i y         +                 .                                                                         X   O +   & h.f.k.h.&                               O O O O       O               . .                                                                                                                                   ",
"                                                                          O   O O   O     X X     O     X   O     O   X   X   X   O O                                                                                                 X   X ^ ! *.~ O     O T *.! ) O                                       . .         X   4 i i u O   X   X   O   O   O           O   O     O   O X 5 y u s                                                                                                                                                                   +         O T ! *.Y ; ; % $ ; > 8 3.:.Q L & O +           +                                                                                                         O                                                                   .             +   X Q *.W ' @   .     O                 O & ,.*.*.Q @   .             .     . +     .     X         u a i 5 O                                       .           O   4 i i y         X             5 y y u         .                                                                                                   u u u u O O               y a a u         O                                                 O u a a y X                                           +                           u i i 5 O           .                                                                               .     X       O X * j.k.k.h.*     .             .       O                 +     O   X       . .                                                                                                                                 ",
"                                                                    .       5 5 u u u u u y 6 4 y u u u a u y u y u u y a u y u u 5 g 2                       .                                                                       X     E ! *.Q X     X E +.*.) X                                     X .             X p y i , * O   X X X   O O O X + X   O X O X X   X X + O @ 9 a y u O                                                                                                                                                                       X   X Q *.*.*.W Q Y ~ ! *.-.>.! ! ' @ O +         .                                                                                             .   X   X X     O   O       O           X                                         .                 @ Q ;.*.Q X   .                 O       O ) ! ! Q @     .         .                     X   X   X u y i 4 X           .           .           O         .       O u a i p     X               X 4 i i u   X                 .                                                                           .       O   u u u u             O     y a a u         O                                       O         X u a a y O   .   O                                                             X y i i 5             .                                                                               X       2 g u u u j p.f.f.i.@ .                                                             .                                                                                                                                   ",
"                                                                          X u y i a a a y y i d i a a a a a a i a a a i a a a a a y u 5   X   X                                                                                 . +   O   X ( ! *.T @     $ Z +.! Q O       .                   X             .       X     u y d s u u u u 0 9 s s h 0 u u 0 u u u u u u u u u 0 u u p y y 0 X                                                                                                                                                                 +         O ` *.;.;.*.~ ~ *.6.;.W ;.6.R ^ @ O     .                                                                                                           X               O O   O   X                                                 .               @ Q *.*.Q O + .                     . + O ) ! 6.` O +               .                             4 6 i u         X                                             X y i y i X   .         +     X 4 y y u X                                                                                                         O u u a u O O               y i a y                                                             u a a s                                                         +               5 i y y   X                   .                                                                         .   2 4 a i i i i.d.p.c.X . .                                                                                                                                                                                               ",
"                                                                  . .     O u i y i a a a a i d i a a d a a y y a a a y y y a a i y u 5 X                                                                                                 X E ! *.<.O . . O ( R *.) O                                         .           O u a y a s s u y p y u u s u y y u y y y u y y y y y u u y y 6 a u O                                                                                                                                                                   . X   X O ` *.*.;.%.%.>.%.;.;.9.! +.R ^ @ O +                                                                                 .                   .     .     X         .         +                                                     +               X ) ;.*.~ O +                 O         X ) ! ! ^ O   . .               X               X       X y y i y O           +                                         O 4 i i y       .       . +     5 p y u   X   .               +                                                                                 O . u y a u O O             O 4 a a a X                                                         X s a a u                                                               .     O   5 i y y X   +       +                                                                               O       5 i i i i i j l l a X                                                           X                                                                                                                                       ",
"                                                                      .   X y y i d y u u u y y y u y u y y y u y y y u y y u u i i y 5 O                                                                                             .   X E +.%.I O + . @ T +.! ) O                   .                         X     +   e u a a u a u y y y a a 0 a y y y 5 6 6 y u y 4 y u u u 6 y y p u X                                                                                                                                                                           X B ) ) &._ <._ $.,.,.T T T A B ;                                                                                   . . . .         X .   . . . + .         . .             . .                                               .                 X Q *.;.E O                             O ( *.*.) & + .   .   X   X           X     X X       O   < y i u         .                     .                         p i i 4 X     . X X   . .   X 5 y 6 p                     .                                                                                       u y u u X         O       y a a u                                                           O u a a u X       O                                   .                         O y y i u O                                                                                             O   X 4 i i a y y a a a u O                                                                                                                                                                                                   ",
"                                                                    .     O u i a 9 O O   O   O X     O   O   X     X     X   X a i y u                                                                                             + . . X E *.%.$.O O O & ) *.*.) X         .                             +     X       + < < u u u u u u u 4 w u u s u u 5 g u 4 u u u y u u u < u y y 5 < O                                                                                                                                                                       .     X @ O & O O   O X O O & & X X O X           .     +                                                                 X       X         .   + + + O O     .           X X                                                       .           X   @ ) *.*.E O                             X Q 6.*.T &               O                             O w s a u                                           .   .       O u i f u O       O           X < u a g X                                                                                                           u u y u O                 s a a u               .                                       X   X u a a u                                                                       O u i y y O                                                                                                   u a a u O O u y a u                                                                                                                                                                                                     ",
"                                                                            u a y u O O   +                     .             O y a u u O                                                                                       O         X T *.:.3.& @ O * 3.%.*.) O                               .                   .   @ @ X   O     X X X       O X X X X X     X X   O     X X X X X                                                                                                                                                                     X       . .           +   .     + O                         .                                                                                     +   O O & O & O X O O O O @ O X @ X     .                                           X   .               X ) *.*.( O           .   X             X E 6.%.T * O O   X   X   O O X   O O O O       X   O O O 0 a i u O           .             .                           X 4 a a 9 @     X O O O   O   O , a y u       .               .                                                                                   + u y u u O O               y d a u X       O                                                   y a y y X       X                                                             O y a i u             .                                                                                     O s y a w O O 0 i i 6 O +                         X                                                                                                                                                                       ",
"                                                                    .   X X y y y y   O   .                                   X y a y 0 O O                                                                                               X ) *.-.;.Q ( E Y &.*.*.) O               O               .             X       . X   O             X   O   O                   X   O           X                                                                                                                                                                         . . .         X             X             .     .                                                                                       . . .   O @ B ^ ~ R =.&.,.,.,.) ) ( _ { ; O   .                                             +                 O _ *.*.) X   X     + + .               X E 8.*.1.a y u y 5 u 4 y u w y u u u y s u u u 4 u u u 9 d d i y X   O                         .                         s a d i 4 5 4 u y s p u u 5 4 f d s u X X                 . +                                                                                   O 0 y y u       .         O u a a y                                                           X u a a u                                                               .         4 i i u     O                                                                                             O w y a y O   5 y 6 4 X             . .                                     .                                                                                                                                             ",
"                                                                            y i y y X   . .   .                               O y a y u       .                                                                                           X ^ %.;.;.! +.! *.;.;.%.) @                   .                                     X     +                               +           +     X       .                                                                                                                                                                   X .                                 .   . .   .                                                                                       .   . . +   O @ ^ ! +.6.;.;.;.%.%.=.*.*.Q / X O X   . .                                         X                 O ) %.;.) O .           .         .   . O E ;.%.=.a p 6 i i y i y a y y i a a i i y y y y 6 y p i d i i 5                                                       O u d y d y u 4 y i i a a y y a i a y u X                                                                                                     O   O u y y u X O         O     y a a y                                                             y a a u X                                           +                       X   u y i 4 X                         +                                                                       O u a y a O O 4 i i y O             .                               X                                                                                                                                                     ",
"                                                                          O u a y u                                             y a i y                                                                                           .     O X ^ E *.*.%.%.;.*.;.*.Y A $ X   + +               .                     .                 .                                                                                                                                                                                                                                                                                                                                                               O   + . . . .     @ ) *.! *.8.;.*.*.&.=.*.;.%.<.X X     . .                             X   .                 X O X   O ^ *.%._ O . .         .               X E 6.*.%.d y 6 i i a a a a a y i i a i i y 6 a y i i y i d i u u     X         .                               O   .   X u a i a i i i i i a a a a a y y i 6 5 X                                                                                                           h y y u                   y i a u O                                 O                   X     p i y u X                                                                     X u i y y O       .   +                                                                                 .     y i i 4 X   u a a a     X     + . .                     + .   X         X         .                                                                                                                                     ",
"                                                                          X y a a y X                                           u a i 4 X                                                                                       .       O * ../ _ T ,.,.) ,.,.) / S $ O       .         .                         .                                         . +                                                                                                                                                                                                                                                                                                                                         O             O ) ;.;.*.W Q Q ' ^ G :.;.%.) X X X     . . +     . .           O             X   . . . .           X _ *.;.&.O   .               .         X Q 8.6.=.a < u 5 y s y s u y 5 y y u y u y u y u 4 u u 4 u u 2 2 X X X                               .     X O   + o     w 0 u u u u y y u u s s y u u 5 p 5 1     X     X     . .                                                                                   O   X u y u s O O               y a a u                               O O               . .   .     i i f u     .                                                         .     O   y i y u O   X                   .                                                                         X 6 i i 4 X X 0 s a u X                                   . .                   .                                                                                                                                         ",
"                                                                            s a a y     .                                     X u a a y                                                                                           .   X   X @ @ X O O O O O O @ @ $ O   +   +   X                                     X                                                                                                                                                                                                                                                                                                                                                                               O O             O _ ;.*.&.* * @ O O ; Y 8.*.T X                                 O +   .             .               O ( *.;.Q O   +       .       . . .   . O _ ;.*.H & O     O O O     X   X   O O     X   O X       O     X X         .                       .           O         @ O   X       X         X O     X   X X                     .                                                                                     u u y u O     +   O     X u a a y               + . . . . .           X                 +   O y a a 0     +                                         .                         u a i y                                                                                                     6 i i y     u y a u     . .               O X   O   O               .         + .                                                                                                                                       ",
"                                                                      X   O s a a u X       O                                   u a a u O                                                                                             .     X X   X     +       X &     + .                                                 .                         X                                                                                                                                                                                                                                                                                                                                         o   O O O X       X O @ Q %.%.Q X     X   X E +.6.E X X         X   O   O           O O   +   .             .       O     O ) *.*.) O                     .     . O ) =.%.) @           X                       O     X X         X                                   .         O             O                           X   O                                                                                                           O   h y y u O O               y a a u O               .   .           +       O +     + +         u a d u   . . . X                                               .             O y i i u O           .                                                                                     O 4 i y u   O s y a p     . .                 O     +                 . .     O                                                                                                                                           ",
"                                                                          X u a a u         O                                   u a y y O                                                                                           . .                             + . .                             . .                     .         .   + +     O                                                                                                                                                                                                                                                                                                                                               O O O O   X   X X @ H :.*.' @   X     @ ~ ! ! G @ O   O O O   X O O X   X X X O O O O O             . .         + . . O ) *.;.Q @         O           .       O ) *.*.) @     . O                       O     .       .       X                 .               +                 X   X . +   O O O X O             + O O O                                                                                                           O   0 u y u X O         O     4 a a u                   X               +     O O O             X y d a a     . .                                               O     .         X y i i y                         .                                                                           s a y w O   w q a s       .             .       .         X               X     .   .                                                                                                                                   ",
"                                                                            u a a u X                                         O u a a 6                                                                                                   .     .     .     X     +   +   .   X X             X                           +                     O       +                                                                                                                                                                                                                                                                                                                                       .   e 0 w w 4 4 u u u a 1.%.*.Q d 5 p 5 < a ` ;.:.&.a 0 w u 0 0 u y s u y y u 5 u u w w 0 < O O                       +   O ) *.*.Q @     X                       O ) *.! Q X                                                                                         .                 X                   O       .     + O     X     . X                                                                                                 O u y y u                 O y a a y X                                 + .   & & & & X X X X X @ a d d z   .                                                                     5 i 6 u X                                                                                             O + O w y s 0 O O s a a s             .         . .                                     .                                                                                                                                     ",
"                                                                  X       O u a a u                                             u a y 6 O             O                                                                             X X     O       O             X   .   .               .                       X           O           .     X       .                                                                                                                                                                                                                                                                                                                                           u u f p 6 5 y y u a &.;.*.~ d a i i a a >.-.-.&.k s a y f u y 4 a y y y y 6 y p a y y u   X O   X                 +   O Q ;.%.) X           O                 X ) ! +.E @ X         X       .         .                     o   X       .                         +                     O O O       X         .   .       +                                                                                                           O X u u y s O O               a a a y                       + .   . . +   X X M _ ^ T Q ` ) ^ ^ T =.=.W _ O         .                                 .                       O   5 i a y             +                                                                                       u a w w O   a a a y O         +       O     +                 .   . .                                                                                                                                                   ",
"                                                                            u a a u         O                                   u a y u                                                                                                     +   O       O   X     .           X     .   .                                   O X O X X X O O & X O X X                                                                                                                                                                                                                                                                                                                                             X u y d i i 4 y u u i ~ *.*.~ a s a f s a >.;.-.&.l u y a y y y 6 a y y y 6 6 6 i y a y u X   O                   . +   O ) *.=._ & X X X O O O       O O X X O X Q ! +.( X       O       .                                                                                         .     O @ X X X O O O O X X X   X X       .                                                                                                             u u y s           O       u a a u X           .           .   . .     X @ ^ Y +.! 6.*.%.&.~ ~ ;.;.*.2.O X                                                     .             O y i i u O                                                                                                 X y y y s   X u a a u O   X     O O & & O & O O O X X O X X X O O O O O O O X X X X X X O                                                                                                                                 ",
"                                                                          O s a a u O       O                                 X u a a 4                                                                                                 X                   +                   .   .   +       O O                       O ../ ( Q Q Q ) _ ) ) ) / | & O                                                                                                                                                                                                                                                                                                                                           y y a d , u u h u y &.;.*.~ a w u s 0 q 3.;.;.7.y u p 5 5 4 5 5 0 s u u u u u , f a y 4 X                       .     X Q *.%.W ; & O @ * & & @ X @ @ @ @ @ @ * ~ 6.*.( O     +           .     .   +       .       +                     .                     .             O . .     | ( T Q ^ ' P L ) ) ) Q ^ A ..@                                                                                                                 O u y y u X                 s d a u X                           . .     X @ E ! 6.6.;.*.*.~ Y ! ;.w.;.~ X                                                             +       O u y y y             .                                                                                     X 4 d a 4 X X y y a u       O { A ( E E 1.Q Q E ~ Q ~ &.~ Q Q Q ) ) $.) ) T ) ) T ) T ) ..X                                                                                                                               ",
"                                                                          X u a a s                                             u a i 4 X                                                                                             X                     +         X X         .   .                 X     + .         O / ~ ! *.*.*.;.*.*.*.! ` / & & O O O                                                                                                                                                                                                                                                                                                                                 X X y d a a X @ O O O @ Q *.*.~ @ X X X O @ ! ! ! ! X     X X X     O   O   X X X O s a y u       +           X     X     X ) ! %.q.K _ X.| _ _ / / / / I / / ^ / G %.*.! ) @ O     + +                                                                                         O     . . O ) ! 6.! &.~ >.=.%.*.*.*.*.E A @ O O     .                                                                                                       + u u y u O O               y a a u                   X   O             X X T ! *.*.~ Q ' ] ^ G ;.;.;.Q O                                                                     X y a i 5 O   O                     .                                                                   X     d y a s X X d d d a X X O @ / ~ ! 6.6.W *.*.*.*.*.*.*.*.6.;.;.;.;.;.;.*.*.*.! *.*.;.%.) O                                                                                                                               ",
"                                                                            s a a y         O                                   u a a y               O                                                                         .                                               .           X                   .       X X T ! *.*.*.*.*.*.*.;.+.! / & O                                                                                                                                                                                                                                                                                                                                           u s y w X X O O   & Q *.%.T X         X T 6.6.E O             X   O   X   X   X u y y u                             X X _ =.%.*.~ E Q ) ~ =.~ R E ~ E ~ ! E E =.;.8.! ^ O     O           X                                                                                 X   . . + O Q *.6.;.*.W ! *.*.8.*.*.*.1./ @ @                                                                                                             O   u y y u O     +         O y a a u X                     O               O ) *.;.&.; X X X X ; T =.%._   .                                                                   O y i i u             +                                                                               X   + @ l a k l @ X d d l d @ @ @ > T ! +.*.! 6.*.! ! *.*.%.*.;.*.;.;.;.;.;.;.6.*.*.*.9.! *.:.$.O                                                                                                                               ",
"                                                                X         X y a a u X                                         O 0 a y 6 O                                                                                       . .                   X                     .   .                           + . . .       X E *.*.*.*.;.*.*.*.*.+.E ^ @ O                                                                                                                                                                                                                                                                                                                                       X   u a s s     + O   @ ) %.*.( X     o   X T +.! ) O + + . .       +             X u a y 4   . . .                 X       ..&.:.! =.E ` Q Q W Y ~ ~ ~ &.~ ~ Y ! W *.*.~ _ O O           X                                           .                                             . .   O =.6.*.*.Q _ ` Q Y ~ &.9.W ~ / @ X                                                                                                                 u u y u   O       O       y a a a           O       .   +               O ( ! ;.) O     X   X ^ W =./ O       + O                                   .                         5 i i 4 X                                                                                           . X & [ <.1.,.K / K ' E Q ,.T / _ G =.! 6.6.;.! ) ) ) ^ ^ _ _ I _ _ ) Q ,.,.Q Q T Q ^ Y ;.;.;.,.O                                                                                                                               ",
"                                                                          X u a a u     +                                       u a i y                                                                                           +     X                 . .               .                   O             + X         @ Q *.*.*.*.*.*.%.*.;.+.! / @   +                                                                                                                                                                                                                                                                                                                                         u a s 0 X   + . O O ) %.*.) X         O ) *.*.) O O O   X         +       X   O u a d u X                   +   X     X } X.K G / / _ L _ ^ ( ^ ^ _ _ _ _ ^ ' C ) _ I [ X                                                                                                 O       . . O ~ 6.6.Y = & O O O @ = K ! E / $ X                               .                                                                               O u y y u O   +           O y i a u O             + . . .       X       + O ^ ! *.<.& O       O 2.%.%._ O         +                                               +           X 5 i i y O       +   .                                                                               + O &  .Q >.&.=.T Q ! ! %.%.=.! ~ Y *.*.*.&.) ; & O O O X O O O O O X O O O O X X @ X ; Z R ! T O                                                                                                                               ",
"                                                                  X         y a y y X                                           u i y 4                                                                                           X         + . . .         . . .               .             . O           +         X   @ Q *.! *.*.*.;.%.*.*.6.~ / O O X                                                                                                                                                                                                                                                                                                                                       X s a y w     . .   @ ) %.! ( X   .   . @ ) *.%.) &                   O           u a i y               X     + +   X X   * & * * @ X & @ ; @ $ @ @ & & * & X @ $ & * X X   .                                                                                     . +                   X Q 6.6.) & + . . .   & _ ! Y A X           .                                                                                                   O   0 y u u X O               u y a u                     + O               O ( *.%.,.O       X O ) *.%._ X                                                             .     O   y i a u                       .                                                                     O O & <.=.*.%.%.Q ( ! %.*.%.~ ~ =.! *.*.%.Q <.& O           .   .       . +           O ( @.! ) X                                                                                                                               ",
"                                                                          O u a a y         O                                 X u a a y O                                                                                             X       . .               .             +               .       .     X +     X     O _ *.*.*.*.*.*.-.*.*.! ~ L & O                                                                                                                                                                                                                                                                                                                                         O u a a u           X Q *.! ` O     O   O ) ! ! T O       X       .             O u y i y               O   + .           O O O     X X O X     X   O O O           O     .                 +                                                         O           .                     X ) ~ ! ) & +       X @ _ Y =.] & X                         .     .                                                                             O O g y y s             O     y i a y                                   . .   T ! ;.) O X       X ~ 6.*.,.X                                             .                         s a i u X           .                                                                                 O O K ~ *.9.Y ` A ) T Q _ ^ _ <.H %.*.*.~ I & O         X           X . .       .   @ ( ! *.) O                                                                                                                               ",
"                                                                            u a a u O                                           u a a u X                                                                                                       .       X                           X       . . O           .           X O I _ ) T Q Q ) ) ,.) ) ) | O O O                                                                                                                                                                                                                                                                                                                                         u a a 4 X         X ) ;.;.Q O   O     O ) *.;.^ O +                             u a i y X               .     +       .   O   .           X         +   .       +     +   o   X     O     O     .       .     +       .                                           . X           X     O ^ ! %.) &     X X X @ _ E =.L & O                                                                                                                 u y u u O O               y a a u O                                   . X T ! 6.Q O .       X E *.*.Q X   X                                                                 O u i i y O                                                                                             X X X.Y ! W l ; @ d l k l * @ & = ~ 6.%.T X.O O                                 .   * T *.;.&.O                                                                                                                               ",
"                                                                      X     u a a u     .                                       a a i 4 O                                                                                                                                                     .                             X O X X O O O O X O X O X                                                                                                                                                                                                                                                                                                                                             X u y a u X       + O 1.W ;.&.O       X O ) ! ! ^ O .     X                       s a y y                                                                                                                                                                               X     + .     O O Q ! ~ ^ &         X & _ Q ~ X.&   X                                                                                                           O   u u u u O                 s a a u                       +         .   + O ` *.;.,.O .       @ _ %.6.E @   .     O     .       O                                             X y i i y         +     .     O                     X                                                   X & / ~ ~ ) k & @ a i i a X O O & ) *.%.~ L O                     O   +           . O Q *.%.,.& O     .                                                                                                                       ",
"                                                                          X w a a u O O         +                             O a y y y     .                                                                                                                                                                                                                                                                                                                                                                                                                                                                           . +                                                                         y a a u         + & ) *.;.&.= O X X X > ~ ;.*._ O +                           X w a a a                                                                                                                                                                                               & Q ;.! Q > @ X O X & > H =.T L @ X                                                                                                               O u u a u O O             O y a a u X                                   + O Q *.;.&.* O @ X O = F =.! Y O   . . O       .     O     +   X         .                             5 i 6 u O                                                                                               & _ =.%._ l & O 4 i y u O   + O ) *.*.~ / X O   O       .             .           X T *.=._ O           .   O O                                                                                                             ",
"                                                                .     .   X s a a s                         O       O   O   O   u i a y O   .         X                                                                                                                                                                                                                                                                                                                                                                                                                                                                     X                                                                     X y i i a     .     O ) 6.*.*.&.` ` ' ) F w.*.%.,.& O                 O           u a a u O                                                                                                                                                                   .   .     X   +         O & Q ! *.=.F _ ` ( ` E *.*.*.=.I X X o                                                                                                           O . u y y u   O       O       y y a y                     X   X         . + O ( 6.*.*.Q Q E T ) Q 0.6.6.#.O + . .         .     X     .               +           +     .     O   5 i y y O           .                                                                                 O & _ *.~ Q d a u i i y u   O   O ~ 6.*.~ A X                                       O E +.6.) O X                                                                                                                             ",
"                                                                            s a a s                   O           O             a a y u     .                                                                                                                                                                                                                                                                                                                                                                                                                                                     O       O                                                                                         6 i a u X         X / ! ! *.;.;.*.*.W &.w.8.;.<.O       +                       u a s y                                                                                                                                                                       .         .             @ ' ! 8.8.*.&.! ! *.;.;.%.;.W ..@                                                                                                                   u y u u X                 y a a y X               X                     X T R ! ;.6.*.*.6.%.%.*.*.! E X   . .                               .                               O y y i u O       .                     .   +   .   . .     .   .   +   .       .   +   .       . .       @ T ! *.E l d y y i 6 u   O   X E 6.;.! / X X X                             X     X E +.*.) O       X         O                                                                                                             ",
"                                                                  O       X a y a y X                                         X u a a 5     .                                                                                                                                                                                                                                                                                                                                                                                                                                                                                                                                                       u p a u     X   X X ( R @.! %.*.! ! Y +.*.*.W K O X X                         O u a a u                                                                                                                                                                       . . .     .       X     X L Y ! ! *.W ! ! ! ! ;.6.+.Y / X X X                                                                                                               u u y u O O   +   O     O y a a u                     . .         X   X X ( @.+.! ! *.*.! &.*.;.6.+.~ &       X   X                 .     +   O                             O u i i y O           .                                                 X     X         X       X       X * ( ! ! E l y y 6 i u g X     O Q ;.*.~ / X   O                                   O E 6.;.Q O       X     +   +         O                                                                                                   ",
"                                                                  X         y a i u X         +                                 y a a u   + .   O                                                                                                                                                                                                                                                                                                                                                                                                                                                   .   +                 X                                                                     .   u y a u     X     X D A ( T ) _ ^ ^ A ( Q Q ) L *         +                   X 0 a y u X                                                                                                                                                                                 . X       X & { ' ` Q _ ^ _ ) ) ` Q ( ^ A { X X                                                                                                     .         + u y y u                   y a a a               . . . .                 X V E ( Z ^ ) ^ ) P Q W ! ~ A &         X                                                           O y a i u                                                                                                 * / ~ ! ) a y u 5 u 5 < O   O O Q ;.;.&./ X O   O       .         X               O T *.6.~ O             X +   .         +                                                                                                 ",
"                                                                          X u a a u         .                                   y a a a O   + .       X                                                                                                                                                                                                                                                                                                                                                                                                                                                                     . .                                                                     y i i a X       o   @ O X & O O X % X X $ @ @ O     . . .                       s a y y                                                                                                                                                                                       X o . .   & X O O O O O O O O O X X X X   O                                                                                                               O 0 u a u O                 4 i a u O                       X           +   $ X @ & X @ * & & & a l d f O O + X         X                         X                   .         4 i 6 y         X                                         X   X                                         & _ W ~ ^ ; O   O X O X       X ) *.*.&./ X     O           +           .         O ( *.6.Q @                                                                                                                               ",
"                                                                  .       X u a a y O   X   X       O     X   O     X     X   X y a a u   O                   X                                                                                                                                                                                                                                                                                                                                                                                                                                   X X   X       X X O X       . .                                                                   4 i i a X       . + O   O               X   O   .     +                       X s a a u                                                                                                                                                                                             .   O O O O   O O       . +   .   + + O                                                                                                         O   O u y y u O O               y a a u           O                 X     . . .   O         X   O & q u i < O +                                 O   X                           X   u y 6 u X           .           .             X                                                       X * _ Q 1.P O O     X       +   X Q *.%.) / @ O                     O             + O ( ! *.E X   .                       O                                                                                                   ",
"                                                                . .       X u a a a y 4 4 4 a u s s y u y y s y y u u u a u y y i i i 5 X O       O                                                                                                                                                                                                                                                                                                                                                                                                                                             X X @ X @ @ X X X @ @ @ @ X                                                                     .   5 i i y X       . .       .                 +         X                       X u a a u O                                                                                                                                                                                           . .             .               O O +                                                                                                                 u u y s O                 s a a y                 .           X       . .     .             X u 4 6 5     .   . . .       .           + X                                   X u i y u   +   .                 .                                                                     X @ I ) Q _ @ O                 X ` *.! ` B @ X                 .               .   O ' E ! ^ X   . . . . .                                                                                                                   ",
"                                                                  . .       u a d i i y i y a a a a a a a a a a a i a a a a a a a i i y                                                                                                                                                                                                                                                                                                                                                                                                                                                         S ^ A P / L / ^ / K I _ / m $                                                                       4 y a y         . . .     . + X .         . . .                                 0 a a y                                                                                                                                                                             X                 +               . .               O                                                                                                             O   g u y u                 O y a a u X               .   .               . .     .         + +   u 6 6 5 X .   . .     + .     . .   +           . .   .             .       O   y i i u O           .       +                                                                           @ _ ` T I *   +           +   X ' *.&.1./ @ O O O X X   X X     O X   X X   O X   @ _ &.! ^ X   +     +                                                                                                                     ",
"                                                                  . X     X u p a y i 6 i i a a a i a i y a a a a y a a a a a y a y i 4 X     X   O                                                                                                                                                                                                                                                                                                                                                                                                                                           X A ~ ! =.&.~ ~ ~ =.~ 3.&.Q / @                                                                       p y y u         +     .       +         .                 .         O         X u a a u X                                                                                                                                                                                                 X   X       +       X           .                                                                                                           O O u y y u X O       O       y a a u               .                     +             X .     O y 6 6 4 X   . +           .   .             X   . . .             .             u a a 5 O         o         .                                                                         X & / Q ! ^ @ O             .   & P %.;.%.) = * & @ & O @ @ @ & @ & & $ X @ @ O & & > J *.*.Q X     O   O               .   X                                                                                                 ",
"                                                                .         X < 4 u y u 5 y y u s y y y u y y y u p u y u y y y u u u u 4 O             +                                                                                                                                                                                                                                                                                                                                                                                                                                       O ^ ! *.*.%.%.! ! W &.%.-.*.) @ O                                                                   X 6 i y u O                                                                       u y a u                                                                                                                                                                         +   .                               . . O   X   X   X                                                                                                                     h u y u X   O             y a a y           O                 O                         +     y i i 4 X X     & @ O X X     X X X @ @ @ X X X . .                           O y i y y   O             X               .       .     .       .       .         .       +       .       & L ~ E ^ * X                 O ,.4.-.-.&.T / ' P _ ^ _ ^ ^ ' _ _ _ / A / ^ _ / P G =.;.*.E %   X O O O O     X     .                                                                                                       ",
"                                                                .       .   O O         X X O O   O   X     X   X     O   O   X   O X X               +                                                                                                                                                                                                                                                                                                                                                                                                                                       X ) *.;.;.:.:.;.*.*.:.:.-.=.) @                                                                     X y i y s           X             X       +         X X                         X s a y u                                                                                                                                                                       .                 X       X             .         +     X X                                                                                                               O u u y u O     +   O     O y a a q O                 X             O                 X     .   p i a y X O O & K _ Q ) ) ) ) ) ) Q ,.,.&.=.E A @             O       .       X 4 y y u X     X         X                                                                             X = _ ~ W ) $ X                 & Q ;.4.;.*.7.~ &.&.~ Q ~ ~ ~ ~ ~ =.%.E E W ~ &.=.` =.;.;.6.Q X X X @ @ X O                                                                                                                   ",
"                                                                  .       .   O O +   +     +   +                               X   X       .                                                                                                                                                                                                                                                                                                                                                                                                                                                 X _ %.-.;.-.-.*.! *.*.-.-.*.) O                                                                       y y y 0 O       X   X           X                         X                 O   w a a u X                                                                                                                                                                   .                               .         .         .                                                                                                                     O   u y y u   O               y a a s                           . .                               p i 9 u O   O O ) ! *.;.;.*.*.*.*.;.:.-.*.*.R ( & O                             p i y i O     X     X   X X X X   X   X   X     O     X O   X     X O   O   X     X O       O   O     O & L ~ ~ ^ @ X       .         X ,.%.w.;.W ! ~ Y &.~ Q Q ~ W Q ~ W ~ ~ E ~ ~ &.~ ~ ~ ! ~ *.^ O O S / / { O X       . .     X                                                                                                 ",
"                                                                  X                                                                     . . .                                                                                                                                                                                                                                                                                                                                                                                                                                                 X ^ *.;.*.%.;.+.+.R *.;.:.! T X                                                                     X a a u u         O   +                             O     .                       u a a u                                                                                                                                                                           O O         . + O           O                 O                                                                                                                         g u a u O                 y y a y           O                                                 y a d s       O ` ! *.*.*.! *.*.*.;.%.;.*.6.+.(   + .                         O u i a y O O X           X .       X .     + O X   X O     X +         X   X X   O     X X     X   O X X & / &.~ / *   . . . .       .   / &.%.:.Y ( ( ^ _ P _ I _ I I ^ ' ^ / / ^ P _ _ _ _ I L / { O O / R Q / O           . X                                                                                                     ",
"                                                                    X           +                                               + .         .                                                                                                                                                                                                                                                                                                                                                                                                                                                   / ~ &.=.=.! ! R +.! ~ ! E A X                                                                       u s y u               .     +         +                 . .                 X   0 a a u X                                                                                                                                                                             X         +           O   X               + +   X   .                                                                                                             X u y y u O O               y i a y X                       . .         X X   .     + X         y a a 0 X   + O T ! *.! Q Q ) Q Q Q _ ,.*.*.+.T O .             .           O   y y i a O < g 5 5 g g u 5 u g 5 g u u u u u u 0 g u u e u u u u h u h 0 u e u h u u e u g 0 h u u u < @ & _ 1.T ^ &       .           X ; Q ~ W ` $ @ @ & @ O @ O @ @ @ & * X @ @ & @ * & @ O @ @ O   X ^ ! ! ) O X                                                                                                                 ",
"                                                                                                                                                                                                      X   .                   X   .                                                                                                                                                                 .   .               X                                   O                             X   O                                                                                                 | / I / / ^ ^ ^ / / / / ..{ @                                                                     X u a a u             O                                                         O u a a u O                                                                                                                                                                                                                                                                                                                                               O u y y u X     +           y y i u                                                     . .     s a a u       X Q ;.*.Y * O @ O @ O O & E *.*.Q X                         . O   s a a u O s u a 4 u 0 u a y y y u y a y y a a a y a y y y a u y a y u u a u a a u a u u u u a 9 a y u X * P =.~ / @ X   +             X * ) &.=.^ * X X O O O         X     O X   X   O       X       X Q *.! E X       +                                                                                                           ",
"                                                                                                                                                                                                        . .                             .                                                                                                                                                             .     X                 . .       O       O .                       X +         . +   X                                                                                                   @ & & @ & @ & @ @ @ * @ X @ X @                                                                     u a a u X                                                                       s a y u                                                                                                                                                                                                                                                                                                                                                   u u y u O O             O y a a u X                                               O     .     s a a s X     O ,.;.*.) O O X   +     X ) *.;.3.X                     X         u y a a O u a i s y a u y 0 y y a s y y y y a u y y y y a a y y y 9 0 u y y a 9 a u a , u a u a d a u X * _ Q ~ / ;                   X * P &.=._ @       O   .                                       X P *.*.E X               . +                                                                                                 ",
"                                                                                                                                                                                                +   X   . . .         X     .                               O                                                                                                                                                   . . .       .                                           .                                                                                                                       O   X O O O O   O O           X                                                                   X u a a u X                                                                     X u a y y                                                                                                                                                                                                                                                                                                                                                 O u u y s           O       y y a a                                                   O       X s a k u X     X ,.%.! ) O   X       . X ^ *.-.<.O                             O y i y a O u i i i , u u u u u u u u s u u u u u u u u s u s u s u u u h u p u y u u h u u u y u a , u X * _ 1.Q / X   +         X     X & ' Q Q / $ X         .                                       O ,.*.*.T   +   O           X                                                                                                 ",
"                                                                                                                                                                                                    O   + + .               . .                                                                                                                                                                                             X                                     . .             X                                                                                                               +     O   O X X       +   . .                                                                     u y s y                                                                         u a a u                                                                                                                                                                                                                                                                                                                                                   h y y u X O               y a a u             +                                               s a a u     . O <.&.! _ O             X ` *.>.$.O .                       X   X u a y u O u a i u * O X O O   X O     X     O   X O     X       X     X X   X   O X X X     X y p y 4 X ; _ E T _ * X                   @ ..( E S X     X     X                                       @ Q ;.*.^ O     O                                                                                                             ",
"                                                                                                                                                                                                    O                         +                           O                                                                                                                                     X                 +     X   O                                     .                 X         .                                                                                                                             .                                                                       u a y u                                                                       O u a a u                                                                                                                                                                                                                                                                                                                                               O   u y u u O               O u a a u                                                 X           s a k w     . O ) %.! C X     X       % E ! *.) X       .                     O y i a u O s y y 4 X O   O O O O   X O   O   O   O     O   O O   O     X   X   X X   X     X   u u y 4 % X / ) ` / @                   X & X.,.^ S X         O                                       + & ) *.! T O +   O   .                                                                                                         ",
"                                                                                                                                                                                                  X     @ @ O @ X O O O X @ O O X                           O                                                                                                                                                         X X   X O X     O O   X   X O       O   X     X     X   X       X       .                                                                                                                     .                                                                             X u a a y X       O                                                 O             s a a u O                                                                                                                                                                                                                                                                                                                                           O   + u y u y   O               y a a u X                                                         X y a s 0       @ ) *.! Y > O O O X X X $ Z ! ;.` X   .           . . . .       X y i y s O s y y u   O                                                                       X u u 4 5 X @ L Q ~ C > @ @ @ O X O X O X @ > G ,.T ..@ X X         X                                     O Q *.! T O   O                                                                                                               ",
"                                                                                                                                                                                                .     O N ( Q T ) Q ,.Q ) ) Q I X                         O                                                                                                                                         .         X + O X < 5 y 0 u u u u u u u u u s u u u s y u u s s y u y y u s p u y u 5 X O                                                                                                                   X .       X                                                                         y a y u                                                                       X u a y y X                                                                                                                                                                                                                                                                                                                                             O   u y a u O         O     O y y a y                                                 .           s d k s X     X ` *.;.6.Y H 5.<.) Q ' E 9.;.*.T X       +   .     .   .       O u i i s O u y y u   X     +     .                                                 . .     X   h u a 4 @ ; / W ! *.%.) Q Q Q Q Q ) ) ' ~ Y *.;.Y / @ X                                                 O E +.+.E X                                                                                                                   ",
"                                                                                                                                                                                                  . O O ) ! 6.*.;.;.*.*.*.*.*.) X         .     .                                                                                                                                                     .             X 4 p i y s a a a a a a a a a a a a a a a a a a a d i i i a i y i a u @ O                                                                                                               X .         +                                                                         O u a a u             X                                                           u y a u O                                                                                                                                                                                                                                                                                                                                                 u u u u O O               y a a y O           +                                   . .   .   X y a a u       X ) *.;.;.;.&.%.>.*.;.*.*.*.;.;.Q X                 .           O y y i a O u u u e X               .                                     +         . .       O u y u s X & ' *.*.*.;.*.*.*.6.*.;.*.*.! 6.;.*.;.! ' X X       .                                         O / E E N X         X                                                                                                         ",
"                                                                                                                                                                                                  .   @ ( ! ;.*.;.;.*.-.*.%.*.Q O     .       . .                                                                                                                                                   .           + O   y a 6 y y a a a a a y a a a a a a a a a a a a a i i i i i d i y i y X X                                                                                                           .     . +   +     O                                                                         u a a u X           O                                                         X u a y u                                                                                                                                                                                                                                                                                                                                               O   0 u y u X     +         X y y a u                                                 . .   .   X y a a s O   X X A Y *.*.;.%.>.%.;.6.;.*.*.*.! ` O     X X                     X 4 i a y O u y p <       .                                                       .     +     X 5 u y s X & _ Q *.*.;.*.%.;.*.*.*.*.*.! *.:.%.W ,.X.@         +                                           O O O O           .                                                                                                         ",
"                                                                                                                                                                                                . +   @ D ( Q Q H ) ,.) ) ) T L X . .     .   .     .                                                                                                                                                         .     X u i i s , s u u u u y s u u u y u u u u s s u s y y y u y , a a f y                                                                                                                   .   .                                                                                   y y s y                                                                       O w y a y                                                                                                                                                                                                                                                                                                                                                 O u u a u   O               y a a a                                                             s a y w       $ { ' ) Q ` ) ) ) Q Q T ) ' ' T V X             X   o             , y a a O 0 4 y 5 X                                                               + .     X   u a a u O ; } / ) ) ) _ ,.) T ) ) ) ) _ H T ,.' / [ @           .                                     .   + + + o .             .                                                                                                     ",
"                                                                                                                                                                                                .       @ X @ @ O O O X @ & @ O                                                                                                                                                                                 +   O u a y a @   O   X   X   O   O O     X O   O   X     X X O @ u y y 5 X                                                                                                                                                                                                         u y a u                                                                         u a a u   O                                                                                                                                                                                                                                                                                                                                           O   h y y u O O       O       y y a u O                                                         X i i u w O X     @ & O O O O X X X X O   O O X *   X   .   .           .     + X u a d a O s y u e                             X         O   +                             O O u a a u X X O X @ @ O O O X X O X O O O O * * @ O @           .                                                                   +                                                                                                   ",
"                                                                                                                                                                                                . . .     X   X X               O         X   X X                                                                                                                                                                     u 6 y u O O                               + +               5 5 4 5     .                                                                                                               X             X                                                                     O u y a a X                                                                   X   w a a s                                                                                                                                                                                                                                                                                                                                                 O u u y u O   O             y i a u             .                                       X       p i a s   .     @ & O         X X   . . +   X X       .         X .           O u a y a O s y u u X                     +                                                   X y a s 5 X       X   O   .                     O     +           +                                                                                                                                                                     ",
"                                                                                                                                                                                                    O   O   O X X   X   X X         O X X X   X X @                                                                                                                                             X         X   . +   X u u u u O             +                 . . .     X       O u u 4 y X                                                                                                                                                                                                         y s a u                                                                       X u a a u                                                                                                                                                                                                                                                                                                                                                   u y y u   O               y a a u                                                 X         O 4 i a w       o                       .         + + . .                 O   O O 0 a a l & s a 6 u   X                                                                       X u u y 0   O     X   O + .             X   .   X X                 .                                         X             .         X                                                                                                 ",
"                                                                                                                                                                                                + O h u e 0 u u y u 0 0 u u h s u u u u u u u 5 , <   X       .                                                                                                                                       X X       .   X u 6 y s                                   .                 h y y 4 X   .                                                                                                 X .                                                                                               X u a a u                                                                         u y y u X                                                                                                                                                                                                                                                                                                                                                 g u y u O O         O   O y y a y O         O                                           O     y i a 0       .   .           X                 . + . + +   O O O X X X O O O @ a d a l & s p y u                                                                           O u u a s X         . O +         X       .   .   X   o     X     .                                     .                         .                                                                                                     ",
"                                                                                                                                                                                                  X < y s s a a y y y s u y a y y y 9 y a a a y u h X X O     +                                                                                                                                 .                   X 4 6 y w O O               O       O         +     X       O w u a u X                                                                                                       O         X           O                                                                         X a a a u                                                                       X w a y u                                                                                                                                                                                                                                                                                                                                                 O u u y u X                 a a a y                                                         +   y i a 0 X X   .     .               X +                   X O ; X X @ @ X @ @ & d d d l @ y i y u X O                                                                 .   X   u u s u       .                   X     .   .     O                                                     .                     .                                                                                                       ",
"                                                                                                                                                                                                    4 i a a y a y s y y u y i y a u y y u a i a u u X O                                                                                                                                         . .             .     4 y y w O     O                                         X O w a a y X                                                                                                         O                                                                                               4 y a u X     +     X                                     X X                 O a a i a                                                                                                                                                                                                                       X X   O   X     O   O X                                                                                       .       O   O 0 y y u X O         O   X u a a u X                                                   X . +   u i i a         .               O           X           O O @ { B ..S B / / I K ` E ` N * s a 4 h       O         O         X                                                 u u u u .   .     X                 O   X                                                                       . .           .                                                                                                       ",
"                                                                                                                                              X       X                                           X u y y f , u u e h u e u s u u < 5 g g , f a a y         O                                         X               . . . X                                                                                       X u y y s O                                                 X u y y u X                                                                                                                                                                                                         y i y 6     . .                                                               X d d d d   .                                                                             .                                               .                                                                       X   .   @ @ @ @ @ X & * & @ * * & & * @   + .                                                                                 . + .       g u i 4 $ O O O O O O X ; , a p u                                                       .   X y i a s X                                           .   O O * P ) ~ ~ Y =.&.&.&.&.*.%.) X u y y u X                 .                                                         u y y u X                                                                                                                                             O       O   O                                                                   ",
"                                                                    O O                                                                           X                                                 y i i a X X   X   X O       O X X     X y i a y X                                                   O   .       X . .   & @ X X X O O O X     . X         O                                                       u y y 0 X                                               O O u y y u X                                                                                                                                                                                                     .   4 i a y       .                                   X                 .       . X / ~ ~ K X .                                                                           .           X                                                     X                               X                           . O m ' ) ( ] S _ _ _ ^ ^ _ P _ _  .X   + +       X                                                                             O O   0 u s d y y u u u s s u a y y y 5 X X                                                         u a i y     .                                       .     O * _ ~ ! ! =.*.~ &.3.! ;.*.Q @ 0 4 u u         X       .                         .               X         .     X u a y u   X       .       .         O                                                                                                                                                                                                 ",
"                                                                                  +         .                                           X                     .                                   X u a d y X   X     O   O   X             y a a u         X                                         +   + . + X         & B ' Q ) ,.) ,._ ) I O             .                                                   X + 5 y y u O O                                       .         s y y 5 X                                                                                                                                                                                                     +   u i a u O   . .     O                                           .             O ' %.! ' O                                                                                                                                                                                                             X / ` ~ W Q T Q Q &.~ Q ~ #.*.E ^ X           X   . .                                                                           O X u a y y i y u < u u u 0 a y 6 u u       O                                           X   .     u i a y   . .                                             X $ ^ ~ ! Q T ` ^ L _ =.*.6.Q @ 0 u y u O             O                     +                       X         X     s a s u     X                                                                                                                           .                                                                                             ",
"                                                                              .     .     +                     X                                       .   .                                   X   u a y y X         O O   X     X O X X X 4 a a u X                                             .       .       X X   O O A Y *.*.;.*.>.%.*.( & X         .                                                         5 y y h                                                 X O u a p u                                                                                                                                                                                                         O y d a u O                     O                                     .       O O ) W %.) @                                                                                                             O               .                             O                                       X     X + O ) W 6.! ~ ` Q Q =.Q E Y Y ! ! ^ %   X             .                                                                             O u u 4 y y y 4 u g 0 w u u u y 5 g   O                                                   .   X y i i u     . . +         X               O     X         X @ A ~ E T ; ; & & * Y ! ;.~ @ w s s 0 O O             O           X                       + O           . + O   O u a y u X                                                                                                           O X             O       +   .   .                                                                                 ",
"                                                                                                                              O                   .   .   . .                                       u y s u               X               O u a a u         +                                   .                 X     O & ` ! *.;.;.;.;.;.! ( & +         .                                             .     O     u u a s O                                         .         u s y 5                                                                                                                                                                                                         O y i a y X           O                                 O                       @ 1.*.:.Q @ O                                                                                                   +               O                                     O                         X                       O <.=.*.%.) _ <.<._ K _ C +.+.! C %                 +                                                                             O < < u 4 4 u u 5 5 0 e u u u < < 2 O     .   .                                           .     p i i y         X                 O                   . .   @ L Q R ' @ O   O @ ~ +.6.%.@ u s y w O     O                   O                 X                           O O u a y u X                     .                                                                   .                                                                                                                                   ",
"                                                                        .                               O                                           .       +                                       u a a u X           O       O         O u a u u O                                           .         O           O & & E R *.*.*.*.*.*.! T O O                                                                 O u y u u                                                   O u y y u X                                                                                                                                                                                                         y i i y X                                                                     & T *.%.T O                                                                                                                                       O                                 .                             + + + O ) %.;.J > & & & * ; @ ; ! *.! ( X               +                                                                     X           & X X X   X X   X X     X X X X X                                                             p i i y                                                 . O @ I ~ Q / ;   +   X Y 6.*.~ & u y a w O                 X             X                                   .     O u y y 5   X                 .                                         X                                                                                   .                                                                           ",
"                                                                      .                                                                   . .     .                                               O u y 9 u X                             X 0 a a u X         O                                                         O O ( ! ! ;.*.;.*.! ! ( O O                                                                   5 y y h O                                         .     X O u y y u                                                                                                                                                                                                           y i a 5               . + . .                                     .           O _ *.*.( X                                                                                                       .                                                                                         X X         & ) *.6.E @ X X O   X O & ' ! ! )       .                                                                                   .   .   O       X X   X     O       X                                                               X y i i y X       O                                           @ ..` Q K & O   O & Q *.*.Q @ 5 u u 0       .                       X         +                       . .       X u y y u X                                                                                                                                                   . .                                                                       ",
"                                                                        +                                                                                                                         X u a a u X     .                         < a s s                                               .         O     + +   O X S ( T ` Q E Q E E S O     + .                                                           X 5 y y u O O                                               O u y u u X                                                                                                                                                                                                       X y i y y X     +         .                                       .   .       X O ) ! ~ ) X                                                                                                                                                                                                         O + O T *.! ' X       X   + = ) ! *.^ X . .                                                                                         + +   + O                 O         O                                                             y a i u X         O                                         @ / Q =._ & X     X ) W *.) @ 5 u s e X                                                             .     .       u u y u O                   . +     O                                 +                                                                             X                                                                                 ",
"                                                                        +   O       O +       O                         X                                                                           y s y u       .                       X u a a y                                                     X         . .       X X X X X X X X X X       .     X                                             .         O u y y u O                                                   u s y 5                                                                                                                                                                                                           0 a a u O           O                                         . . .           O ) *.~ ^ X                                                                   O                     X                                 X                                               X   .               .         .   O ) 6.+.E X             O Q *.*.T X   .                                                                                   .   . .                                               .                                   X O     X     f s a u O   O       O                                 X     X ( ~ ! _ & X     & _ :.*.` @ u u u h O                                       .     .                     X     X < y y 5                                                                         X           X                             X           O     +   +       X O +                                                                         ",
"                                                                    O       O O O   O   O O     O   X   X   X     O       O   X X   X   X                   X                                     O y i a u                       .         y a y u X         O                                 X         X     . . .   .   X           X X                                                                         X 5 y y u                                           .       O u a a u X                                                                                                                                                                                                         u a a u X     X   X O   X       X X   X X     X     O   X   O   O O O     O O & Q *.*.^ X                                                                                             X X   X O   X O   X     X       X   X     O X   X     O X       X X   X X X                                     O ) *.6.T X             O E 6.*.E X                                                                                             .   . .   .                                                                             O       O u a 9 a O   O O O O   O   X     O X   X   X X     O X   X X @ ^ +.*.T , @ @ O > J :.*.Q & s y s 9 O X   X   X   X       X X X O O O O @ & O             X   X X       X   X @ , a y 5 X O   +             . .                                                                 X X X X O X     X   X       O   X       O     O   O X O O                                                                             ",
"                                                                          O < u u y u < 0 u u 6 u u 0 u s u u u s u u u w u s u u 5 u 5 < X X                                                       y a a u X                             X y i i y       X                                       . .           . .             + + O       + +       .                                                               u a y s O                                 O       .       O u y y u X                                                                                                                                                                                                     O X s a k s 9 u u 4 y y u y u u u u u y s u w u s u u u s u u u y y y a u u s u w a ~ *.*.) O                                                                           X               O 1 2 5 u y u u s y y u s u w u u 0 y s u y u u s u w u u u u u s u u u u 5 g 2 O                         . .   . O ) *.*.) O .       +   X E ;.;.~ X                                                                                                                                                                                     O     X O s a a f 4 5 u u u u 0 u s u u u u u u 0 s u 0 u u u s s u d d ) %.*.=.W ~ ( / ) >.-.:.&.* p a k a s y 4 u u u u u y u 4 y d L <.,.,.,.,.K l d i p 5 4 u y u u u u u u s y 4 y d d a g X       .                                                     .               +     O 2 g 5 5 u u w u 0 u s u 0 y u u s u u u u y u g 0 0 y 4 u , X O O                                                                       ",
"                                                                  X +   O X u i i i u u u u y y a a a a a a a y a a a a y a a a y 4 u 5 h                                                       X   y a a u                                 u a a p X         O                                   . . . X                         + + +   + .   X                                                                     5 u u u   O                                             O X u u y u                                                                                                                                                                                                         O s a k a s y a i i a a i a y y a y a a a a y a a a a a a a y a a a a a a a a y l &.;.*.) O                                                                   +               .   O   O g h p a d i a a s y a a a a a a a a a y a a a a a y a a a a a a a a y y u u g O                     .       .   O ,.*.;.Q O . +         O E *.;.Q X                                                                                   X                                     .                                                         O           < a y i u 4 p 6 a a a a a a a y a a a a a a y a a a q a a d d ) %.*.*.6.! ! ! *.;.*.*.E @ p a k a a y i a y y y a y i i d d Q =.%.;.;.>.,.l d i i i y y y y a a a a u y y a a i a a u                     .                                                               X 7 u y y a a a y a a a a y a a a a a a a y y y u s y i i p u O   +     O                                                                 ",
"                                                                    .       a y i i a y a y i i y y a y a a y a y a a a y a y y i d y 4 u X X X       . .                                         X y y a y X         O                   X u i i y X                                               .         . +             .             .                                                                   O   X u u y h O                                                   u s y u                                                                                                                                                                                                         X s y d a a y i i a a a a i i a a a y a a a s a a y a a a a y i i i i d i a a y l &.;.;.,.O                                                                                         O X < 4 4 y y y i a y y y y a a a a y y a a a y y y a a s a y a y a a a y a a u u   O +                         X   X ) ;.;.&.O +     O +   O ) *.*.) X                                                                                                                                                                                     .       O u u a y y 5 i 6 y a a y a a y y a a a a a a a y a a a k a a d E =.*.%.*.*.! ! *.6.6.=.) @ u a d a 9 i i a y u a a a y f a l Q =.%.;.;.>.&.l d d a a s a a a y a a a a y y i i d d s h       . .                                                                     .   O   h u a a y a a s a a y y a a y y y a a a i i 6 y a y i i y 4 O         +                                                                 ",
"                                                                        O X p i i d y y u y p s y u y y u u y u y u y u u y u y 9 f y y u O                                                         u a a 4 X     .               .         y i i u X                                                                     .                                                                                         . 5 y y 0 O                                                 O u a y u X                                                                                                                                                                                                       X 0 u s u u u 4 4 y y u a y 4 u y y u y u y y u u u y u u y y p i 4 p y y y 4 s a &.*.! _ O                                                                                           O u p i f y y y a u y u u u u s u u u u u u u y u a u y u u y u u u y y i a y u O                                 X Q ;.;.) O .           X _ *.-.,.X     .     O                                                                                                                 .                                                               X < u a u 5 5 4 6 y u y u u u y u u u y u u s u y w y s s s f z N ^ ( ) ^ ` ) ^ ( E E T B @ 2 5 u s s y y y y u w u u u u a d / ' ) Q ) ,.K l a s u u y s u a u y u u u y u y a 0 u 9 < O                                                                                   O u y i i y u y y u y y u u u u y y u y y i p y u 0 a d i i p O O .                                                                       ",
"                                                                    . +   X y 4 y 4 O O O O   O   X       O X O     O   O     X @ a a s 0 X X                                                       y a y u       .     O                   u a a u                                                                     .                                                                                 .           u y 4 u X O                                       .       O u y y u                                                                                                                                                                                                             X O O X     X   X O       O     X     O     X       O X             X       * T *.*.) X                                                                                 .   .   X X u a y 1 X   X X   O O           X       O   X     O     X       O X X i i a u O O +                     O       X ) :.*.)   .   X       X ) %.-.,.O             O                                                                       .         X       .                                                                                         O O O       X   O     X O     X O     X     X   X   O       X X X O O & O O   X @ * *   .       O   X X       O O   X   X X X X X X X X X   X         O     O   O   X     X   O O @         .                                                                     + + O O s a a i X   O   O         O   X     O   O   O O O O y 6 6 u O     .                                                                     ",
"                                                                      X     u y y u O O +   O O                                 O a 0 s <                                                         O u d y u                       .       X p i a y         .                                               O       O       X                     +   O                                         .                 O O u y y u O                                               O X u u y 5 X                                                                                     X   O     X   X   X   O X                                                                                       . .       X             +   . .                                   . . .         O O ) ! ! ) O                                                                                   +         y i y u X   X             O           O                               i d a 0 O   O                   O         @ ) %.*.Q X   X         X ) *.*.Q X       .       .                                                                                           +   .                                                                           .     O     + .     O                                                     O O O   +       O . . . + +           +                                   .   .     O     X               .       X   .     X             O                                                         O 0 d i i X               O                 O + + O   u p y y     o                                                                       ",
"                                                                          X u a y y                                             X u u y 5 X O                                                     X y y y s O   O                           u i a u O         .                                     X   X X     + .     X                                                                       .                     u y y s O                   .                             X h u u 5                                                                       .   X   .   * * & * & @ @ @ @ & & * & & * @     .     . .                                                                       +                   +   + . . .         .       .   .         X     . .           @ ) =.*.,.O                                                                                           X u y y 5 X                     .                                     X u a y y                               +   X ) %.;.T X             X ) *.! R @         .       +                                                                                                                                                                                                                                                                       .                                                       . . .                                                       X                                           X X     X         6 i i y                                   O   O   O s a a y X   .   .                                                                   ",
"                                                                          X u a a u X       O                                   O u y 4 u                                                           y i a s O O O   X     . X             X 4 y y u O   X                                             X     O     .       X   .                                                                                     X 5 u u u       .       +           .                         u 4 u 5                                                                               . X m ' P _ ) / / ^ L L ' / I I ` V * .                                                                                                 O       O       .         +     .   +                     X       * T *.;.T & +                                                                                       X   u y y 5   X                                                           u a a 4 X                           +     X _ %.*.E X       . . . X P :.+.E %       + +                                                                                                                                                                                                                                                                                                                                         . .       X   X +             .                                                                 . .             . +   X 4 6 a u X                                           s a a u X       .                                                                   ",
"                                                                X         X u a a y                                             X u p 4 5 X                                                       O 6 6 y u O           . .           X O O y i i 4   O                                             . .                 X                                                                           .             X   u y u u O                                               O O u u a p X                                                                           X   O / =.&.&.&.~ ~ Q Q ~ =.E 1.Q ~ ( @           X                                                                                 .                 X           .           X                       +     X ` *.6.Q O X                                                                   X                     X u y i u X                     +                                       u a a u               O               .   X _ *.! ) X   +     .   O ,.-.*.T X                 X                                                                                                                                                                                                                                                                                                                                                               .     O                                                         . . . .     O     . .   O y y a w                     .   .     . .   .     X u a y y                                                                             ",
"                                                                            u a a u O   +                                     X X u 4 p 4 X                                                         5 i 6 u   O         . . .   + X     O   y y i u O   O                                           . . . .   X     .         .                                                                                     X 4 u a s O                               O O                 u a a 4 X                                                                     +   X   O O ` Y %.*.*.! ! %.*.*.W ! %.W ! ( & O                                                                                       O             +   O X X X X X   X   X X X X   O         X         O   .   X X E ! *.E X                                                                                             u y p u   X   .             .                                       O y a a 6 O                       X         X _ %.;.Q @ O O O O O X & <.-.*.T O .   + . .   X X                                                                                                                                                                                                                                                                                                                                                     .                                                                             . .             .       y i a s         .                         .         u a a y     X                                                                       ",
"                                                                            s a a u                                               s y 4 u     O                                                 +   u p 6 < X             .       O   O   O w s y 5 X   X                                           + + + + .   o +         .                                                                                       O u u y w O                                     X           O u s y u                                                                       .         O ' 6.6.*.*.6.+.*.*.*.;.6.6.;.*.Q @                                                                                   +                     O * * @ @ X @ @ @ @ $ $ @ @ @   O O X                 .     % ^ E ~ ( X                                                                             O           X   u 6 p u   X                                                           u a i 4                                   X ) *.6.W ; @ & * * ; @ * %.4.9.) O     . .                                                                                                                                                                                                                                                                                                                                                         .   .                 O   O     O O       +                                             X     X   . .     4 i a u O         O           O O                 X y i a s X                                                                           ",
"                                                                          O y a a u X       O                                   O u y 4 u X                                                         5 y , 0 O O O X X       X       O O O O 9 a y u O                                           O   @ O O O O O & O O O   X X                                                                                     O X 5 y y u   O   O                                         O O w 0 y u X O                                                                   . . X   O O C ! +.6.*.! ! *.*.*.! 6.! *.! T O O .       O                                                                                             & [ / / / ^ / ^ / / / ^ ^ ] V &       . .                   X B / A | X                                                                                             u y y p         .           .                                         u a i y                                   @ Q *.*.7.T / _ _ ) T ' Y 4.;.W ) & + +   .                                                                                                                                                                                                                                                                                                                                             X         .                               O   O         . . .                                           X             y i a y O   O X       O X   O       O               y y i u         O                                                                   ",
"                                                                  X       X s a a u X       O                                     s p 4 u                                                         O u p a f 9 u y y y u 5 u u y p 4 u 9 u 9 i i i y     X     .                                   O V T ) ' _ T T Q ` B O     .                                                                                       u a u u O                                   O           O   s y s u O X                                                                   +     O O & ( ! *.;.! *.! *.*.;.R ! ~ *.~ / &               .                                                                   +   X     X     O     O | ) Q ! ~ W ~ Q E ~ ~ ! Q / O         . .     O           X X O X O X                                                                                           X u y y u X   X                 .                                     X u a a y O                             O   O ) *.;.*.Q E Q ~ ! ~ E ! *.;.! ^ O         .     .                                                                                                                                                                                                                                                                                                                                           .   . .     X     X     .           X     O                                                   X           .     y y a u                   X               X       X u a a u X       +                                                                   ",
"                                                                            u a a s                                           X X u 6 y 5 X                                                     O   u i y a a p i y i i a a d i i y y y f a i y y u O                                           . X ` ! +.! *.*.*.6.! ) O +                                                                                         X 5 u u s X     .       .       +   .                       X w s y u                                                                         O   O X X / T Q Q ) ) ) ( ) ) ( ^ / P ^ ..O   . +                                                                                               +   O ' Y ! ~ =.=.&.&.Q ~ *.*.! ' @ O       .                     O O O                                                                                                 u y y 5                     .     O                                   u a d y                           O   O O O I =.&.Y ` T ` Q =.! E ~ ~ *.~ / O                 +                                                                                                                                                                                                                                                                                                                                     .     .       X                     +                                                                             X y a a a                                           X u a a u         .                                                                   ",
"                                                                          O s a a u     +                                       X u y 4 u   X                                                     O 0 s a d a a i i i i y i a i a i a y y y i 6 y 5 X   X   .                                     X ` ! 6.! %.*.*.*.*.) O                                                                                       +   X u y u 0 O                                                 X u y a u X                                                                                 X @ & & O O X O O O O X & & O O O . .           X                                                                   .               .     O ( ! 6.*.) I X.$./ ) &.*.! ) @   O     .                       + +   .                                                                                         X X u y i u   X                 .                                         u a a 6 O                         O     O O | P _ _ L L I L ^ ^ / N _ ) / { X     X           +                                                                                                                                                                                                                                                                                                                                   .   . .                   .     X     X                                                       O + O   O   O       O O a d d s                       .                     u a y u         +                                                                   ",
"                                                                            s a y u X                                           O u y 5 5 X                                                     O   < u < s u u p p y y u y s u u 4 u u u u u 4 u < O   X                                         @ ) *.6.! &.3.*.;.*.) &                                                                                         O   u u y 0 O X         .           .       .             X X X 4 y 6 5 X                                                                     +               O   O     . . .     + O O                                                                                           O               O O ) *.6.%.= & = * & > W *.! ) O     O           O             . + . . .                                                                                             u y y u X                                                           O u a y u                               X +   ; & * * @ @ O @ @ * @ @ * & @ *   .       X   X   O                                                                                                                                                                                                                                                                                                                                                 X   .   .   .                   X                                                   + + + O O         X y i a u O               X           .   +           u y a u X                                                                           ",
"                                                                      X   X u a a u         O                                     s y 6 u                                                           X X O O   X X           X O X O   O O O   X   @ X                                             O ` *.*.~ = & ~ +.! / @                                                                                           X 5 y y u X                                   . .           X u u 4 u X X                                                                                 O   O             X       X         X                                                                                   O               & Q *.6.~ X O X   X @ ( =.~ ) O   O O           O     + .             .                                                                                     X       u y y u   X   .               +                                       y y a 6 O                             . .   X X X     X   X       O   O O X   .         X   X                                                                                                                                                                                                                                                                                                                                   X             X     .     . X           .                   . .                                         + . .         O u 6 a u X                           .       +     O s a y y                                                                             ",
"                                                                            u a a u X                                         X X u 4 p 5 X   X                                                 .                                   O           O                                               . O ^ *.*.Q O & Q ! ! ( &                                                                                           X u y y u O     O               O           . . . .   +   O   u y 4 u X                                                                       X             O       X   X                   X       +                                                                           O                 O E 6.;.Q X       X X ( W *.^ X                                                                                                                                     u y y p                     .                                         u a y u               O             .   . .   X X   X   +     X + +   O X   .   .                                                                                                                                                                                                                                                                                                                                                                     . + + O     . + . . . . .           . . +                                 X     . . . .     . +   u p 6 4                   X               +       X 0 a a u X       X                                                                   ",
"                                                                          X u a a u X                                             s y 5 0 X                                                                 X         .   . +     X X   O         X                                             . O ^ *.;.Q O @ ) ! ! ( O   . .                                                                                     O 5 y y y O     X                         X   + X           O w y u u                                                                       +             . .             X                       . . . .                                                                                         O ~ +.;.) X         X ( ! ! ) X   O             O     .         X       +                                                                                       X X u 6 y u         .           .                                       X u a y y                               .                           .         + .               +                                                                                                                                                                                                                                                                                                                                               X       +     @ O O O + + . . .     X         .                                   X     . . . X +   O   O u d a s                   .   . .   . .           @ y l a y     X                                                                       ",
"                                                                            u a a u         O                                   O u y 4 5 O X                                                                                                                                                   . X ) *.6.=.* & ) *.! E O O                                                                                         X u y a u * O O     O X   O X   O   O O     O       O     X * u y u u                                                                                   .   .   .                   +                     .                                                                 X     O   +         . O E *.*.) X   X     X E *.%._ X                           O   X     X X                                                                                             u y y 5 X X                   .                                       u a y y X                       X .         .     X             . . X           .                                                                                                                                                                                                                                                                                                                                                                 . + +   O ; @ * O O &     +       X                                               . X     O X X @ O * a d d a @ X X X O X X X X X O X O X O O O X X O X X 9 a a s O                                                                           ",
"                                                                      X   O s a a y                                             X u y y 4 X                   X                                       . O     O   X                   .       .     X                                             @ T ;.6.! Q ) Q *.*.Q O                                                                             .     .     X X 4 p 6 y , u y y 5 5 y s y 4 u u 4 u y 4 u s s a y u 4 u y 9 a a i u X                                                                     O         X             . .       .   O   +           O   O                                                                             .             O E ! %._ &         O Q ;.*.) X   .                                     O                                                                                         X u u y u                   .                                           u a a u                               +     .         O     O   X         X       .                                                                                                                                                                                                                                                                                                                                                             .   .   O $ S A Y E ) B & O   + . . .                                           .       O ; / ( T ( T ) ~ =.~ Q ) ) ) ) ) Q ) Q ) ' ) ) ) _ K x i u u , 5 , d d i y X   .   + .                                                                 ",
"                                                                        O   u a a u X                                         X X u 5 4 u                                                         X     +   O                                   .                                               X X ) ! ;.*.=.=.*.;.;.) &                                                                                         O   4 y 4 y p y a i i i y i a i i i y i a i i i i i i i i p i d d y a 0 O O                                                                     O             O   O +             O   O   .                                                                                           .             O T *.=.I O   O O + O ~ *.-.,.X               + O           +   .                                                                         X         +               u y a u X   X                                                       O u a y 6                         X   + O     .             O                                                                                                                                                                                                                                                                                                                                                                           .           +   + X @ A R +.+.! ^ @ X       .                                               .     O @ T W *.*.! *.! *.*.*.*.*.;.*.*.*.! *.*.*.W ;.*.%.%.l d y 4 6 p y i a a u       . + .                                                                 ",
"                                                                          X y i i s O                 .                           s u 4 u                                                                                                                                                         O ( ! ! %.>.:.;.8.*._ & O   X                                                                                 O   O < u u 4 y i a i i i i y i y i i 6 y i y i a i a a i i a a a y f u 0 X X                                                                                                                                                     X       .         +             O                         O         @ ` ! %.,.O O   O + & Q ;.;.Q X   + . .                                                                                                           +                 u 6 p g   X                                                   O       y y a y                                                                                                                                                                                                                                                                                                                                                                                                                             .                 .   O _ *.*.*.! ( O                 .                                       .   X   X ) ;.6.;.~ ! *.! *.6.*.6.*.! +.6.*.! ! ~ 7.*.;.;.&.l i i 6 i i y i i p 5   X     +                                                                   ",
"                                                                            5 6 6 s                     +         . +       .   O u 0 u u   X                                                                                                                                                   O O V ( ' _ $.) W ! ` B O O   .                                                                                   O @ < g u 5 p u s y 5 5 y y u y u y u u u y u y u y y y y y u u u u 0 < @   X                                                                                                                                     .                   .   O   O           X         O     X     X X                 & E +.%.,.&   X     & ,.*.;.) O   .                                                                                                                                 u u y g                                         O       O           O u a y u                                                                                                                                                                                                                                                                                                                                                                                                                                         O     +   O &.;.-.;.*.(             X       .                                   .         @ T *.*.*.G K ' ` Q Q ) ) Q ~ Q Q T ) ] ) Y *.;.:.P a d i y i y y 5 5 5 < @ X O                                                                       ",
"                                                                          O y y y u   O X                                       X u y 4 5                                                                                                                                                       +   $ X @ O O & * @ @ @     .                                                                                       O O X O X X O   O     O X O O     X   O O     O O   X   O       O   +                                                                                                                                             .     +             . @ @ O       X X X     O O O X X     X X     O O X   X X O * E ! *.,.O   X X   @ ,.%.%.) O                                                                                                                                   X u y y u X X       .                                                   u a i y O                                                                                                                                                                                                                                                                                                                                                                                                                       O   + . X     O           O ,.;.;.;.! T O                 +                                               O _ &.:.H = O O @ O O O O O O X O O X O X , G ! ~ C * O O   X   X   X   X         + .                                                                 ",
"                                                                  X   O   O u y f y O O O         O O     O O     O O   O   O O X u y y p o X                                                                                                                                                         X X     +           .                                                                                     O                                       O           O     O O     O     .   . .                                                                                                                                                   X       + < < u u s u u u u y u 0 u u p u u 5 5 g g g u u u u 4 4 0 a ! ! :.&.d s d y * * Q &.W _ O +                                                                                                                 +                 u y y g X             .                                               u a a y                                                                                                                                                                                                                                                                                                                                                                                                                                         X         @ &.;.;.;.6.E O .             O O                                       O     X X ,.>.&.P O   O O   + . + +             O @ A ! E / @ O       O                 .                                                                     ",
"                                                                      X   O u a a 9 O O O O O X O O   O O X   O   O   X O O O O ; y y 6 y                   .                                                                                                                                     .               . X         .                                                                                                     X                 +       X +         X       O                                                                                                                                                                 X     X 5 u s a y u 4 u y a y y w s y y u u y u w s y s a y y 6 s d R ! *.%.=.E ! E ( T =.W *._ O                                                                                                                                 X X u y y 5   X                                                         X u y y y                                                                                                                                                                                                                                                                                                                                                                                                                                                   @ Q *.;.6.*.Q X O     +       O                                       .     O   O _ %.=.) @       .                     X @ ' ~ =.^ X   + .   X .       .   X       .                                                                 ",
"                                                                          O s a d f 0 0 u u 0 < u u y u u u y u s u s u u u u u , p y y u X X                                                                                                                                                     . . .                       .                                                                 X                   +     +                                                               X                                                                                                                                                 .     X         u y a a y s u y y y u s y y y y u u y u u u y y y 6 y y a a R ! *.*.*.;.*.! ! ~ *.8.*.( X                                                                                                                                     u y y u X                                                             a a a 6 X                                                                                                                                                                                                                                                                                                                                                                                                                           . .         O     X   @ Q *.*.*.! ( @     +   +     O O                                     +     O   O Q *.W ( X   X           X       .     X O L Y ~ ' @   .   . .                                                                                       ",
"                                                                      O   O y y y i w s y y p y u y y 4 a y 4 y a y y 4 4 y y y a a y u u   O + . +           .                                                                                                                                 +     O     X           X   O O                                                                                       . . . +       .                                                   X                                                                                                                                                     .         + O u y a a y s u u 4 u s r u s u u s h u u 0 h e h g u u u u i ~ +.! *.-.;.;.6.! *.W *.! ( X   X                                                                                                             .   X             X u y y g   X X                                                         y a y 6 X                                                                                                                                                                                                                                                                                                                                                                                                                                                 X _ ~ ~ *.~ ^ O     O               X                                 . .   X   @ ( ! *.) X       . .               + + O * <.=.&._ &                 X                                                                               ",
"                                                                .       X   5 y y a u 0 u y i y a y y y u y y y y y y y y y y y y u u u u X                                                                                                                                                         O               O   O     X                                                                                 +             .                                         .             X                                                                                                                                                     .               p y d , * O     X X   O O O O     O O   O   O O     X   X @ V ( ) ) ,.&.W =.T ^ ) Q ( A X X     .                                                                                                                         X   5 y y g           O                                                 X u a y u       X                                                                                                                                                                                                                                                                                                                                                                                                                                   X       O / ) Q ` ) / O O     +         O                                       .       X ( ! ! T X       +               +     O * I =.&.) * O             X                                                                                 ",
"                                                                          @ : u u u u u u y y u u u g u u u u u u 5 u u u u h u h 0 u u < X   O                                                                                                                                                           .                                                                                                                   . +       .   +       .       .           +   .   .                                                                                                                                                           .             X 4 i a u X   X   X   X   O       X       O     X   X     X   O O & & k a l a O O O O O O         + .                                                                                                       .             X   X u 4 y 0     O   O X                                                   u a i y                                                                                                                                                                                                                                                                                                                                                                                                                                             .     X { _ / ..L } O                                                           X     X ^ *.*.) O O +   . . .                 X @ _ W ~ ) @ X                           .                                                                   ",
"                                                                          X X X X X   X   X X O   X   O X   X O   X   O   O X       O O O     . . .                                                                                                                                                 X         .                                                                                 .   .                                                                       .     .   .       +                                                                                                                                                             p i y y O                                     X         . +   O O O y a d y   +   O                                                                                                                                         X u y p h X X                     O   O     O     O X   O   X   O   O   y a i 4 X                                                                                                                                                                                                                                                                                                                                                                                                                                       +     . +   * & @ X & *   X   X                                                           O ) %.&._ O                             X @ / ~ ~ / @                       + .   +                                                                   ",
"                                                                      X         X     X         O   O     O X     O   O O       O O X X       . .                                                                                                                                                 X             O         .                                                                                               X                           O                                                                                                                                                                                       +         O O y i i u     .                                       .     .       X 4 i i u   .   O               .                                                                                                         X                 < y y , X   X O X   X X X   X X O O   X   X   O   X     O X     O   X u a y 4 X                 .                                                                                                                                                                                                                                                                                                                                                                                                           X         +   . .     O O O @ X O           X                                                       O ) *.*.Q O         X     X             X X / E Q | O O                 X                                                                             ",
"                                                                            X             +   +                           O               + +   .                                                                                                                                                         O           . .                                                                                                                                         X                         O                                                                                                                                                     .   O     a y i y     .     X       +                   .   .   .           X y a a u         X   X X     . .                                                                                                       .                 X h u a p u u u 5 u 5 5 u u u u u u u u u 5 u u u u u u u u u 5 u u u u y s y 4 X                                                                                                                                                                                                                                                                                                                                                                                                                                           .   .   O @     O   X     X                                                       O O O ) *.*.) @ X                           X @ / Q Q I X   +     +                                                                                       ",
"                                                                              . . .   . . . . .       X   X                                   . .                                                                                                                                                   .   .       O   . .                                                                                                                                                                   .                                                                                                                                                             O O u a i 4 O   . .           .                                     X   u a a s O +                                                                                                                                               u u a a 4 y y y u y 4 6 p i y y u y u a y u 4 y y u y y y y 5 a u y y u y y 4                                                                                                                                                                                                                                                                                                                                                                                                                               O     X     X .   .       O                                                                     O   O ) *.*.T O             X       X       X * ' ! ~ ) *                                                                                                 ",
"                                                                      .     .     .                                             . .                           .                                                                                                                                       . +             . . .                                                                                                 X                 .                                               .                                                                                                                                                           O y a i p     .                                                       y a a u O   +           X                                                                                                                           .     e u y a y y u u u u p y 4 y y y y 4 y u u y u u u y u y u y y u u y u u y y 5             O                                                                                                                                                                                                                                                                                                                                                                                                               +             +         X       .     X                                                             O @ Q *.*.)   +   . .                     O @ ) ~ ~ ) * O                                                                                               ",
"                                                                X             .                                                       X   X                                                                                                                                                         +         X X             X                                                                                 +                     .               .         +                                                                                                                                                                 .                       O y a i y   + .           X           + .               O     O       4 6 i u     . .     . .       X                                                                                                       +               + O e 0 y y u 5 u u 0 u 0 u u u u s u u u s s u s u u u s s s u u s s s u s y a 5   +                                                                                                                                                                                                                                                                                                                                                                                                                     + .         X         +               +             .                                               .     O Q +.;.Q O   .   .               .   .   O _ W =._ & X             .                                                                                 ",
"                                                                                      X                                         .                   X         .                                                                                                                                 X                                                                                                               .     +                                   .                                                                                                                                                                         X                 + O   u i i y X     +           .                   X           O + . .   4 i i y X           .     O                                                                                                                           O   X O X O O O   O     X X   O   O O X O   O O O O   O X +   O O O   O O O O X @     .                                                                                                                                                                                                                                                                                                                                                                                                                         +         X             .   .                       O                                           .   O Q *.! Q @                       .     X & ^ ~ ~ _ *                             .                                                                   ",
"                                                                                                                                                                                                                                                                                                                                                                                                                                                                                                                                                                                                                                      +               X O O u y u u X   O                                                     X i i d 0 O                                                                                                                                                         X   O     X       X X           X         O           O       O     X                                                                                                                                                                                                                                                                                                                                                                                                                                                                                                                           X     + O ) *.! Q X X       .     .             O @ ] W ~ <.& O                                                                                               ",
"                                                                                                                                                                                                                                                                                                                                                                                                                                                                                                                                                                                                                                                X     +   X u 4 < < X   X   O X   O     X   X   O   X     X         X     X     i a a u O O   +                                                                                                                                                       O                 + O                                                                                                                                                                                                                                                                                                                                                                                                                                                                                                                                                                       X       O _ *.;.Y > X X @ @ @ O O O O O X X X @ @ ; T ~ =.$.t O                                                                                               ",
"                                                                                                                                                                                                                                                                                                                                                                                                                                                                                                                                                                                                                                                    .     X 5 p a f y y s y y u s u 0 u u u u u u u y u s u u y s u y u s u u y i i a u   O                                                                                                                                                         X     X     O   X         X                                                                                                                                                                                                                                                                                                                                                                                                                                                                                                                                                                         + & <.;.*.8.F _ ' Q ,.&.&.Q ) Q Q ~ Q Q ,.2.Y ~ Y 1.I & O O       + X   .   . +                                                                         ",
"                                                                                                                                                                                                                                                                                                                                                                                                                                                                                                                                                                                                                                O               .       X   4 y y d y a a a y a a a u a a a a y a a y a a a y y a a y a a a y a y a u h O   + +             .                                                                                                                                         O     @ & O O .     O                                                                                                                                                                                                                                                                                                                                                                                                                                                                                                                                                                               O <.;.w.w.&.&.W ! :.;.;.*.;.;.;.*.*.*.*.W *.! ~ Q P & O   O       + .   .     . .                                                                     ",
"                                                                                                                                                                                                                                                                                                                                                                                                                                                                                                                                                                                                                                                          O 0 u i d a i d a y y a a a y a i a a a y y a a a a a a a a a a a a y y y u 7   O                                                                                                                                                         +     X B ' ) B X       O                                                                                                                                                                                                                                                                                                                                                                                                                                                                                                                                                                           O X K %.*.*.! ~ ! ! %.*.*.! *.*.*.*.;.*.9.*.! R R E ] @                                                                                                 ",
"                                                                                                                                                                                                                                                                                                                                                                                                                                                                                                                                                                                                                                                    .   X O < < y 6 u y s u y u u u y u u y y y u y u u u u w u u u u 4 w u u u 5 5 g 2 X                                                                                                                                                           +   X O ( ! ! ) X X   . +                                                                                                                                                                                                                                                                                                                                                                                                                                                                                                                                                                   +         * K ' Q E E ^ A ( ) _ T T T ^ T ) P Q G ) ` T A S S @   + .                                                                                           ",
"                                                                                                                                                                                                                                                                                                                                                                                                                                                                                                                                                                                                                                                  .         O X O     X   O O   O       X     X   X     O X   O   X   X O X   X X   X                                                                                                                                                           +         O ) *.*.) X     .   +                                                                                                                                                                                                                                                                                                                                                                                                                                                                                                                                                                   + X .     O O & @ X X X % X O X X X O O O & & * & O O X   X                               O .                                                                 ",
"                                                                                                                                                                                                                                                                                                                                                                                                                                                                                                                                                                                                                                                .       +   X                                                                     X     X                   .                                                                                                                                     + .     O ) *.*.Q @         +                                                                                                                                                                                                                                                                                                                                                                                                                                                                                                                                                                   . .   . . +     O                     +   +     O   +   X   X             X     X                                                                             ",
"                                                                                                                                                                                                                                                                                                                                                                                                                                                                                                                                                                                                                                                                                                                                                            +                                                                                                                                     O       X _ %.-.,.O         X                                                                                                                                                                                                                                                                                                                                                                                                                                                                                                                                                                             .   +           O               .           O O   X                             X                                                                   ",
"                                                                                                                                                                                                                                                                                                                                                                                                                                                                                                                                                                                                                                .               . .                                                                                                                                                                                                                                                       X ) :.%._ X   X                                                                                                                                                                                                                                                                                                                                                                                                                                                                                                                                                                               X                   +           .         X X X X O & & * & & O O O                 X                                                                   ",
"                                                                                                                                                                                                                                                                                                                                                                                                                                                                                                                                                                                                                                                              .     . . .   .     .   +       +     O                                 .                       X                                                                                                                                       X   X ` ;.;.Q X                                                                                                                                                                                                                                                                                                                                                                                                                                                                                                                                                                           .         X   . .           X . O                 X * { / _ Q Q Q Q ) X.| * O   X . .                                                                           ",
"                                                                                                                                                                                                                                                                                                                                                                                                                                                                                                                                                                                                                                              .                 .           .     .                                           O                                                                                                                                                                           X Q ;.;.Q X                                                                                                                                                                                                                                                                                                                                                                                                                                                                                                                                                                                                       .                   X X $ / Y =.%.*.;.*.=.T X.& O O + . . . . .                                                                     ",
"                                                                                                                                                                                                                                                                                                                                                                                                                                                                                                                                                                                                                                .             .             . . +               O         O                 O         X                                                                                                                                                                         .         X ) %.%.) @         .                                                                                                                                                                                                                                                                                                                                                                                                                                                                                                                                                                     X   X                 X           .           O ; / ~ *.:.*.! 6.*.Q / ; & O   . . . .                                                                       ",
"                                                                                                                                                                                                                                                                                                                                                                                                                                                                                                                                                                                                                                                              .                       O                                                                                                                                                                                                         +         O ) %.=.) O     . +                                                                                                                                                                                                                                                                                                                                                                                                                                                                                                                                                                                   .                     .       . + O O L E W =.=.*.! ~ ) L & @ O       .                                                                         ",
"                                                                                                                                                                                                                                                                                                                                                                                                                                                                                                                                                                                                                                .   X         .               .                                 X                                                                                                                                                                                                   .     O ) 6.*.Q X   + .                                                                                                                                                                                                                                                                                                                                                                                                                                                                                                                                                                     .                       O       .                 O O O./ ] N L ^ N o.O.} O X                                                                                   ",
"                                                                                                                                                                                                                                                                                                                                                                                                                                                                                                                                                                                                                                                            . .                                                                                                                                                                                                                                       +   @ Q ;.*.Q @                                                                                                                                                                                                                                                                                                                                                                                                                                                                                                                                                                           . +     O           +         .     O     X   O +     @ @ @ * X X @ O X X X O               X                                                                   ",
"                                                                                                                                                                                                                                                                                                                                                                                                                                                                                                                                                                                                                                                                                                                                                                                                                                                                                                          O Q ! *.Q O O                                                                                                                                                                                                                                                                                                                                                                                                                                                                                                                                                                                                                                 X   X   X   O                                                                                           ",
"                                                                                                                                                                                                                                                                                                                                                                                                                                                                                                                                                                                                                                                                                                                                                                                                                                                                                                          O ) *.*.) O                                                                                                                                                                                                                                                                                                                                                                                                                                                                                                                                                                                                                                                                                                                                           ",
"                                                                                                                                                                                                                                                                                                                                                                                                                                                                                                                                                                                                                                                                                                                                                                                                                                                                                                      +   & ( *.! Q O   +                                                                                                                                                                                                                                                                                                                                                                                                                                                                                                                                                                                                                                                                                                                                       ",
"                                                                                                                                                                                                                                                                                                                                                                                                                                                                                                                                                                                                                                                                                                                                                                                                                                                                                                          @ Q *.*.) O                                                                                                                                                                                                                                                                                                                                                                                                                                                                                                                                                                                                                                                                                                                                           ",
"                                                                                                                                                                                                                                                                                                                                                                                                                                                                                                                                                                                                                                                                                                                                                                                                                                                                                                          & ) *.! ) X   +                                                                                                                                                                                                                                                                                                                                                                                                                                                                                                                                                                                                                                                                                                                                       ",
"                                                                                                                                                                                                                                                                                                                                                                                                                                                                                                                                                                                                                                                                                                                                                                                                                                                                                                          @ ) *.*.Q O                                                                                                                                                                                                                                                                                                                                                                                                                                                                                                                                                                                                                                                                                                                                           ",
"                                                                                                                                                                                                                                                                                                                                                                                                                                                                                                                                                                                                                                                                                                                                                                                                                                                                                                      .   & ) *.;.Q @                                                                                                                                                                                                                                                                                                                                                                                                                                                                                                                                                                                                                                                                                                                                           ",
"                                                                                                                                                                                                                                                                                                                                                                                                                                                                                                                                                                                                                                                                                                                                                                                                                                                                                                          X ) ! *.) O                                                                                                                                                                                                                                                                                                                                                                                                                                                                                                                                                                                                                                                                                                                                           "
};
